**kern	**dynam	**kern	**dynam	**kern	**dynam	**kern	**dynam	**mxhm
*part4	*part4	*part3	*part3	*part2	*part2	*part1	*part1	*part1
*staff4	*	*staff3	*	*staff2	*	*staff1	*	*
*I"Cello	*	*I"Viola	*	*I"2nd Violin	*	*I"1st Violin	*	*
*clefF4	*	*clefC3	*	*clefG2	*	*clefG2	*	*
*k[b-]	*	*k[b-]	*	*k[b-]	*	*k[b-]	*	*
*F:	*	*F:	*	*F:	*	*F:	*	*
*M4/4	*	*M4/4	*	*M4/4	*	*M4/4	*	*
*met(c)	*	*met(c)	*	*met(c)	*	*met(c)	*	*
=1	=1	=1	=1	=1	=1	=1	=1	=1
!LO:TX:b:i:t=e dolce.	!	!	!LO:DY:a	!	!	!LO:TX:a:B:t=Allegro	!	!
(4C	mf	8AL	p p	8cL	.	1r	.	I
.	.	8A	.	8c	.	.	.	.
4D	.	8A	.	8c	.	.	.	.
.	.	8AJ	.	8cJ	.	.	.	.
4E	.	8AL	.	8cL	.	.	.	.
.	.	8A	.	8c	.	.	.	.
4F)	.	8A	.	8c	.	.	.	.
.	.	8AJ	.	8cJ	.	.	.	.
=2	=2	=2	=2	=2	=2	=2	=2	=2
(2.C	.	8AL	.	8cL	.	1r	.	I64
.	.	8A	.	8c	.	.	.	.
.	.	8A	.	8c	.	.	.	.
.	.	8AJ	.	8cJ	.	.	.	.
.	.	8AL	.	8cL	.	.	.	.
.	.	8A	.	8c	.	.	.	.
8DL	.	8A	.	8c	.	.	.	.
8CJ	.	8AJ	.	8cJ	.	.	.	.
=3	=3	=3	=3	=3	=3	=3	=3	=3
8BB-L	.	8AL	.	8cL	.	2r	.	I64
8C)	.	8A	.	8c	.	.	.	.
8AA'	.	8A	.	8c	.	.	.	.
8GG'J	.	8AJ	.	8cJ	.	.	.	.
(4FF	.	8AL	.	8cL	.	2r	.	I
.	.	8A	.	8c	.	.	.	.
4D	.	8A	.	8c	.	.	.	.
.	.	8AJ	.	8cJ	.	.	.	.
=4	=4	=4	=4	=4	=4	=4	=4	=4
1C)	.	8AL	.	8cL	.	1r	.	I64
.	.	8A	.	8c	.	.	.	.
.	.	8A	.	8c	.	.	.	.
.	.	8AJ	.	8cJ	.	.	.	.
.	.	8AL	.	8cL	.	.	.	.
.	.	8A	.	8c	.	.	.	.
.	.	8A	.	8c	.	.	.	.
.	.	8AJ	.	8cJ	.	.	.	.
=5	=5	=5	=5	=5	=5	=5	=5	=5
(4D	.	8AL	.	8cL	.	1r	.	I-vi7
.	.	8A	.	8c	.	.	.	.
4E	.	8A	.	8c	.	.	.	.
.	.	8AJ	.	8cJ	.	.	.	.
4F	.	8AL	.	8cL	.	.	.	.
.	.	8A	.	8c	.	.	.	.
4G)	.	8A	.	8c	.	.	.	.
.	.	8AJ	.	8cJ	.	.	.	.
=6	=6	=6	=6	=6	=6	=6	=6	=6
!LO:TX:b:i:t=cresc.	!	!LO:TX:b:i:t=cresc.	!	!LO:TX:b:i:t=cresc.	!	!	!	!
(2.F	.	8AL	.	8cL	.	1r	.	I
.	.	8A	.	8c	.	.	.	.
.	.	8A	.	8c	.	.	.	.
.	.	8AJ	.	8cJ	.	.	.	.
.	.	8AL	.	8cL	.	.	.	.
.	.	8A	.	8c	.	.	.	.
8EL	.	8A	.	8c	.	.	.	.
8DJ)	.	8AJ	.	8cJ	.	.	.	.
=7	=7	=7	=7	=7	=7	=7	=7	=7
(8CL	.	8AL	.	8cL	.	1r	.	V43
8D)	.	8A	.	8c	.	.	.	.
8E'	.	8A	.	8c	.	.	.	.
8F'J	.	8AJ	.	8cJ	.	.	.	.
(4G'	.	8B-L	.	8cL	.	.	.	.
.	.	8B-	.	8c	.	.	.	.
4A')	.	8B-	.	8c	.	.	.	.
.	.	8B-J	.	8cJ	.	.	.	.
=8	=8	=8	=8	=8	=8	=8	=8	=8
!	!	!	!LO:DY:a	!	!	!	!	!
1G	p	8B-L	p p	8cL	.	1r	.	.
.	.	8B-	.	8c	.	.	.	.
.	.	8B-	.	8c	.	.	.	.
.	.	8B-J	.	8cJ	.	.	.	.
.	.	8B-L	.	8cL	.	.	.	.
.	.	8B-	.	8c	.	.	.	.
.	.	8B-	.	8c	.	.	.	.
.	.	8B-J	.	8cJ	.	.	.	.
=9	=9	=9	=9	=9	=9	=9	=9	=9
!	!	!	!	!	!	!LO:TX:b:i:t=e dolce.	!	!
8GL	.	8B-L	.	8cL	.	(4dd	p	.
8G	.	8B-	.	8c	.	.	.	.
8G	.	8B-	.	8c	.	4ee	.	.
8GJ	.	8B-J	.	8cJ	.	.	.	.
8GL	.	8B-L	.	8cL	.	4ff	.	.
8G	.	8B-	.	8c	.	.	.	.
8G	.	8B-	.	8c	.	4gg)	.	.
8GJ	.	8B-J	.	8cJ	.	.	.	.
=10	=10	=10	=10	=10	=10	=10	=10	=10
8GL	.	8B-L	.	8cL	.	(2.ff	.	V43(4)
8G	.	8B-	.	8c	.	.	.	.
8G	.	8B-	.	8c	.	.	.	.
8GJ	.	8B-J	.	8cJ	.	.	.	.
8GL	.	8B-L	.	8cL	.	.	.	.
8G	.	8B-	.	8c	.	.	.	.
8G	.	8B-	.	8c	.	8eeL	.	V43
8GJ	.	8B-J	.	8cJ	.	8ddJ)	.	.
=11	=11	=11	=11	=11	=11	=11	=11	=11
8GL	.	8B-L	.	8cL	.	(8ccL	.	.
8G	.	8B-	.	8c	.	8dd)	.	.
8G	.	8B-	.	8c	.	8ee'	.	.
8GJ	.	8B-J	.	8cJ	.	8ff'J	.	.
8GL	.	8B-L	.	8cL	.	(4gg'	.	.
8G	.	8B-	.	8c	.	.	.	.
8G	.	8B-	.	8c	.	4aa')	.	.
8GJ	.	8B-J	.	8cJ	.	.	.	.
=12	=12	=12	=12	=12	=12	=12	=12	=12
8GL	.	8B-L	.	8cL 8e	.	1gg	.	.
8G	.	8B-	.	8c 8e	.	.	.	.
8G	.	8B-	.	8c 8e	.	.	.	.
8GJ	.	8B-J	.	8cJ 8e	.	.	.	.
8GL	.	8B-L	.	8cL 8e	.	.	.	.
8G	.	8B-	.	8c 8e	.	.	.	.
8G	.	8B-	.	8c 8e	.	.	.	.
8GJ	.	8B-J	.	8cJ 8e	.	.	.	.
=13	=13	=13	=13	=13	=13	=13	=13	=13
!LO:TX:a:i:t=cresc.	!	!LO:TX:b:i:t=cresc.	!	!LO:TX:b:i:t=cresc.	!	!LO:TX:a:i:t=cresc.	!	!
8GL	.	8B-L	.	8cL 8e	.	(4gg	.	.
8G	.	8B-	.	8c 8e	.	.	.	.
8G	.	8B-	.	8c 8e	.	4aa	.	.
8GJ	.	8B-J	.	8cJ 8e	.	.	.	.
8GL	.	8B-L	.	8cL 8e	.	4bb-	.	.
8G	.	8B-	.	8c 8e	.	.	.	.
8G	.	8B-	.	8c 8e	.	4ccc)	.	.
8GJ	.	8B-J	.	8cJ 8e	.	.	.	.
=14	=14	=14	=14	=14	=14	=14	=14	=14
8GL	.	8B-L	.	8cL 8e	.	(2.bb-	.	.
8G	.	8B-	.	8c 8e	.	.	.	.
8G	.	8B-	.	8c 8e	.	.	.	.
8GJ	.	8B-J	.	8cJ 8e	.	.	.	.
8GL	.	8B-L	.	8cL 8e	.	.	.	.
8G	.	8B-	.	8c 8e	.	.	.	.
8G	.	8B-	.	8c 8e	.	8aaL	.	.
8GJ	.	8B-J	.	8cJ 8e	.	8ggJ)	.	.
=15	=15	=15	=15	=15	=15	=15	=15	=15
8GL	.	8B-L	.	8cL 8e	.	(8ffL	.	.
8G	.	8B-	.	8c 8e	.	8gg)	.	.
8G	.	8B-	.	8c 8e	.	8aa'	.	.
8GJ	.	8B-J	.	8cJ 8e	.	8bb-'J	.	.
8GL	.	8B-L	.	8cL 8e	.	(4ccc'	.	.
8G	.	8B-	.	8c 8e	.	.	.	.
8G	.	8B-	.	8c 8e	.	4ddd')	.	.
8GJ	.	8B-J	.	8cJ 8e	.	.	.	.
=16	=16	=16	=16	=16	=16	=16	=16	=16
8GL	.	8B-L	.	8cL 8e	.	1ccc	.	.
8G	.	8B-	.	8c 8e	.	.	.	.
8G	.	8B-	.	8c 8e	.	.	.	.
8GJ	.	8B-J	.	8cJ 8e	.	.	.	.
8GL	.	8B-L	.	8cL 8e	.	.	.	.
8G	.	8B-	.	8c 8e	.	.	.	.
8G	.	8B-	.	8c 8e	.	.	.	.
8GJ	.	8B-J	.	8cJ 8e	.	.	.	.
=17	=17	=17	=17	=17	=17	=17	=17	=17
8CL 8G	.	8B-L	.	8eL 8b-	.	1ddd	sf	V(+2)
8C 8G	.	8B-	.	8e 8b-	.	.	.	.
8C 8G	.	8B-	.	8e 8b-	.	.	.	.
8CJ 8G	.	8B-J	.	8eJ 8b-	.	.	.	.
8CL 8G	.	8B-L	.	8eL 8b-	.	.	.	.
8C 8G	.	8B-	.	8e 8b-	.	.	.	.
8C 8G	.	8B-	.	8e 8b-	.	.	.	.
8CJ 8G	.	8B-J	.	8eJ 8b-	.	.	.	.
=18	=18	=18	=18	=18	=18	=18	=18	=18
!	!LO:DY:a	!	!	!	!LO:DY:a	!LO:TX:b:i:t=piu	!	!
8CCL 8C	f f	8cL 8e	.	8gL 8b-	f f	1ee 1eee	.	V7
8CC 8C	.	8c 8e	.	8g 8b-	.	.	.	.
8CC 8C	.	8c 8e	.	8g 8b-	.	.	.	.
8CCJ 8C	.	8cJ 8e	.	8gJ 8b-	.	.	.	.
8CCL 8C	.	8cL 8e	.	8gL 8b-	.	.	.	.
8CC 8C	.	8c 8e	.	8g 8b-	.	.	.	.
8CC 8C	.	8c 8e	.	8g 8b-	.	.	.	.
8CCJ 8C	.	8cJ 8e	.	8gJ 8b-	.	.	.	.
=19	=19	=19	=19	=19	=19	=19	=19	=19
2.FF	ff	2.c	ff	2.f 2.a	ff	2.ff 2.fff	ff	I\\
(4AA	.	[4F	.	(4c 4f	.	(4f	.	I6
=20	=20	=20	=20	=20	=20	=20	=20	=20
8BB-')	.	8F']	.	8d') 8f	.	8dd')	.	IV
8r	.	8r	.	8r	.	8r	.	.
8D'	.	8F'	.	8B-'	.	8b-'	.	IV6
8r	.	8r	.	8r	.	8r	.	.
2C	.	(2F	.	(2c	.	(2a	.	I64
=21	=21	=21	=21	=21	=21	=21	=21	=21
1r	.	8B-')	p	8d')	p	8dd'L)	p	IV
.	.	8r	.	8r	.	8r	.	.
.	.	8d'	.	8f'	.	8b-'J	.	IV6
.	.	8r	.	8r	.	8r	.	.
.	.	(2c	.	(2f	.	(2a	.	I64
=22	=22	=22	=22	=22	=22	=22	=22	=22
8BB-'	p	8F')	.	8d')	.	8dd')	.	IV
8r	.	8r	.	8r	.	8r	.	.
8D'	.	8B-'	.	8f'	.	8b-'	.	IV6
8r	.	8r	.	8r	.	8r	.	.
(2D	.	(2Bn	.	(2f	.	(2a-X	.	#viio65/V
=23	=23	=23	=23	=23	=23	=23	=23	=23
2E	.	2c	.	2e	.	2g	.	V6
2C)	.	2E)	.	2g)	.	2ee)	.	V
=24	=24	=24	=24	=24	=24	=24	=24	=24
8C#X	.	8E	.	8b-	.	8gg	.	#viio7/vi
8r	.	8r	.	8r	.	8r	.	.
8E	.	8c#X	.	8g	.	8b-	.	#viio65/vi
8r	.	8r	.	8r	.	8r	.	.
(2F	.	[2d	.	[2f	.	(2an	.	vi6
=25	=25	=25	=25	=25	=25	=25	=25	=25
2A-X	.	(2d]	.	(2f]	.	2bn	.	#viio2/V
2F)	.	2Bn)	.	2a-X)	.	2ff)	.	#viio43/V
=26	=26	=26	=26	=26	=26	=26	=26	=26
8G	.	8B-	.	8e	.	8bb-	.	viio6
8r	.	8r	.	8r	.	8r	.	.
8B-	.	8e	.	8g	.	8dd-X	.	viio43
8r	.	8r	.	8r	.	8r	.	.
!LO:TX:b:i:t=cresc.	!	!LO:TX:b:i:t=cresc.	!	!LO:TX:b:i:t=cresc.	!	!LO:TX:b:i:t=cresc.	!	!
(2An	.	[2e-X	.	(2f#X	.	(2cc	.	#viio65/ii
=27	=27	=27	=27	=27	=27	=27	=27	=27
2c	.	(2e-]	.	2a	.	2ff#X	.	#viio43/ii
2Bn)	.	2d)	.	2g)	.	[2gg)	.	II6
=28	=28	=28	=28	=28	=28	=28	=28	=28
2B-X	sf >	2d-X	sf >	(1g	sf > ]]	(1gg]	sf > ]]	ii
[2G	]]	[2B-	]]	.	.	.	.	.
=29	=29	=29	=29	=29	=29	=29	=29	=29
!	!LO:DY:a	!	!	!	!	!	!	!
1G]	p p	1C 1B-]	.	1e)	p	1cc)	p	V43
=30	=30	=30	=30	=30	=30	=30	=30	=30
!	!	!	!	!LO:TX:b:i:t=dol.	!	!LO:TX:b:i:t=dol.	!	!
[1FF	.	[1C [1A	.	(2.a	.	(2.cc	.	I[I
.	.	.	.	8b-L	.	8ddL	.	.
.	.	.	.	8aJ	.	8ccJ	.	.
=31	=31	=31	=31	=31	=31	=31	=31	=31
1FF_	.	1C_ 1A_	.	8gL	.	8b-L	.	.
.	.	.	.	8a	.	8cc	.	.
.	.	.	.	8f	.	8a	.	.
.	.	.	.	8cJ	.	8gJ	.	.
.	.	.	.	8fL	.	8aL	.	.
.	.	.	.	8c	.	8g	.	.
.	.	.	.	8A	.	8f	.	.
.	.	.	.	8cJ	.	8gJ	.	.
=32	=32	=32	=32	=32	=32	=32	=32	=32
1FF_	.	1C_ 1A]	.	8fL	.	8aL	.	.
.	.	.	.	8g	.	8b-	.	.
.	.	.	.	8a	.	8cc	.	.
.	.	.	.	8b-J	.	8ddJ	.	.
.	.	.	.	8aL	.	8ccL	.	.
.	.	.	.	8b-	.	8dd	.	.
.	.	.	.	8g	.	8ee	.	.
.	.	.	.	8aJ	.	8ffJ	.	.
=33	=33	=33	=33	=33	=33	=33	=33	=33
1FF]	.	1C] 1B-	.	8gL	.	8eeL	.	viio]
.	.	.	.	8b-)	.	8gg)	.	.
.	.	.	.	8g'	.	8b-'	.	.
.	.	.	.	8g'J	.	8b-'J	.	.
.	.	.	.	(8gL	.	(8b-L	.	.
.	.	.	.	8a)	.	8cc)	.	.
.	.	.	.	8e'	.	8g'	.	.
.	.	.	.	8e'J	.	8g'J	.	.
=34	=34	=34	=34	=34	=34	=34	=34	=34
!LO:TX:a:i:t=dol.	!	!LO:TX:a:i:t=dol.	!	!	!	!	!	!
(2.A	.	(2.c	.	4f	.	4a	.	I6
.	.	.	.	4r	.	4r	.	.
.	.	.	.	2r	.	2r	.	.
8B-L	.	8dL	.	.	.	.	.	.
8AJ	.	8cJ	.	.	.	.	.	.
=35	=35	=35	=35	=35	=35	=35	=35	=35
8GL	.	8B-L	.	1r	.	1r	.	I
8A	.	8c	.	.	.	.	.	.
8F	.	8A	.	.	.	.	.	.
8CJ	.	8GJ	.	.	.	.	.	.
8FL	.	8AL	.	.	.	.	.	.
8C	.	8G	.	.	.	.	.	.
8AA	.	8F	.	.	.	.	.	.
8CJ	.	8GJ	.	.	.	.	.	.
=36	=36	=36	=36	=36	=36	=36	=36	=36
8FL	.	8AL	.	1r	.	1r	.	.
8G	.	8B-	.	.	.	.	.	.
8A	.	8c	.	.	.	.	.	.
8B-J	.	8dJ	.	.	.	.	.	.
8AL	.	8cL	.	.	.	.	.	.
8B-	.	8d	.	.	.	.	.	.
8G	.	8e	.	.	.	.	.	.
8AJ	.	8fJ	.	.	.	.	.	.
=37	=37	=37	=37	=37	=37	=37	=37	=37
8GL	.	8eL	.	1r	.	1r	.	V65
8B-)	.	8g)	.	.	.	.	.	.
8G'	.	8B-'	.	.	.	.	.	.
8G'J	.	8B-'J	.	.	.	.	.	.
(8GL	.	(8B-L	.	.	.	.	.	.
8A)	.	8c)	.	.	.	.	.	.
8E'	.	8G'	.	.	.	.	.	.
8E'J	.	8G'J	.	.	.	.	.	.
=38	=38	=38	=38	=38	=38	=38	=38	=38
(4F	.	(4A	.	2r	.	1r	.	I
4G	.	4B-	.	.	.	.	.	.
4A	.	4c	.	4r	.	.	.	.
4B-)	sfp	4d)	sfp	[4ff	sfp	.	.	.
=39	=39	=39	=39	=39	=39	=39	=39	=39
1G	.	1Bn	.	(4ff]	.	1r	.	V.V7
.	.	.	.	4ee	.	.	.	.
.	.	.	.	4dd	.	.	.	.
.	.	.	.	4gg)	.	.	.	.
=40	=40	=40	=40	=40	=40	=40	=40	=40
4A	.	(4c	.	2.ff	.	2r	.	IV6
4Bn	.	4d	.	.	.	.	.	.
4c	.	4e	.	.	.	4r	.	.
4d	sfp	4f)	sfp	[4ff	sfp	[4fff	sfp	.
=41	=41	=41	=41	=41	=41	=41	=41	=41
1Bn	.	1d	.	(4ff]	.	(4fff]	.	V65
.	.	.	.	4ee	.	4eee	.	.
.	.	.	.	4dd	.	4ddd	.	.
.	.	.	.	[4gg)	.	[4ggg)	.	.
=42	=42	=42	=42	=42	=42	=42	=42	=42
!LO:TX:a:i:t=cresc.	!	!LO:TX:a:i:t=cresc.	!	!LO:TX:a:i:t=cresc.	!	!LO:TX:a:i:t=cresc.	!	!
(4c	.	(4e	.	1gg_	.	2.ggg]	.	V
4d	.	4f	.	.	.	.	.	.
4e	.	4g	.	.	.	.	.	.
4f)	.	4a)	.	.	.	12fffL	.	.
.	.	.	.	.	.	12eee	.	.
.	.	.	.	.	.	12dddJ	.	.
=43	=43	=43	=43	=43	=43	=43	=43	=43
(4d	.	(4f	.	2.gg]	.	12cccL	.	V43
.	.	.	.	.	.	12bbn	.	.
.	.	.	.	.	.	12aaJ	.	.
4e	.	4g	.	.	.	12ggL	.	.
.	.	.	.	.	.	12ff	.	.
.	.	.	.	.	.	12eeJ	.	.
4f	.	4a	.	.	.	12ddL	.	.
.	.	.	.	.	.	12cc	.	.
.	.	.	.	.	.	12bnJ	.	.
[4g	.	4bn)	.	4f	.	12ffL	.	.
.	.	.	.	.	.	12dd	.	.
.	.	.	.	.	.	12bJ	.	.
=44	=44	=44	=44	=44	=44	=44	=44	=44
!	!	!	!LO:DY:a	!	!	!	!	!
4g])	p	(4cc	p	(4e	p	(4cc	p	I
4r	.	4f	.	4a	.	4dd	.	ii6
4r	.	4g	.	4bn	.	4ee	.	iii6
[4F	.	4a	.	4cc	.	4ff	.	IV
=45	=45	=45	=45	=45	=45	=45	=45	=45
!LO:TX:b:i:t=cresc.	!	!LO:TX:b:i:t=cresc.	!	!LO:TX:b:i:t=cresc.	!	!LO:TX:b:i:t=cresc.	!	!
(4F]	.	4f	.	4a	.	4dd	.	ii6
4E	.	4g	.	4bn	.	4ee	.	iii
4D	.	4a	.	4cc	.	4ff	.	ii7
[4d)	.	4bn	.	4dd	.	4gg	.	.
=46	=46	=46	=46	=46	=46	=46	=46	=46
2d]	.	4cc	.	4ee	.	4aa	.	.
.	.	4dd	.	4ff	.	4bbn	.	viio6
12cL	.	4ee	.	4gg)	.	4ccc	.	I
12Bn	.	.	.	.	.	.	.	.
12AJ	.	.	.	.	.	.	.	.
12GL	.	4bn	.	[4gg	.	4ddd	.	V
12F#X	.	.	.	.	.	.	.	.
12EJ	.	.	.	.	.	.	.	.
=47	=47	=47	=47	=47	=47	=47	=47	=47
12DL	f	2cc)	f	4gg]	f	2eee	f	vi
12C	.	.	.	.	.	.	.	.
12BBnJ	.	.	.	.	.	.	.	.
12AAL	.	.	.	2aa	.	.	.	.
12GG	.	.	.	.	.	.	.	.
12FF#XJ	.	.	.	.	.	.	.	.
12EEL	.	4c	.	.	.	2fff#X)	.	V7/V
12DD	.	.	.	.	.	.	.	.
12CC#XJ	.	.	.	.	.	.	.	.
12DDL	.	4cc	.	4aa	.	.	.	.
12D	.	.	.	.	.	.	.	.
12DJ	.	.	.	.	.	.	.	.
=48	=48	=48	=48	=48	=48	=48	=48	=48
!	!LO:DY:a	!	!	!	!	!	!	!
2GG	ff ff	4G 4d 4bn	.	4gg	ff	4ggg	ff	V\\
.	.	4r	.	4r	.	4r	.	.
(12AAL	.	2r	.	2r	.	2r	.	.
12BBn	.	.	.	.	.	.	.	.
12CJ	.	.	.	.	.	.	.	.
12DL	.	.	.	.	.	.	.	.
12E	.	.	.	.	.	.	.	.
12F#XJ)	.	.	.	.	.	.	.	.
=49	=49	=49	=49	=49	=49	=49	=49	=49
2G	sf	1r	.	1r	.	1r	.	V
(12AL	.	.	.	.	.	.	.	.
12G	.	.	.	.	.	.	.	.
12F#XJ	.	.	.	.	.	.	.	.
12BnL	.	.	.	.	.	.	.	.
12A	.	.	.	.	.	.	.	.
12GJ)	.	.	.	.	.	.	.	.
=50	=50	=50	=50	=50	=50	=50	=50	=50
2c	sf	1r	.	1r	.	1r	.	I
(12BnL	.	.	.	.	.	.	.	.
12A	.	.	.	.	.	.	.	.
12GJ	.	.	.	.	.	.	.	.
12F#XL	.	.	.	.	.	.	.	.
12E	.	.	.	.	.	.	.	.
12DJ)	.	.	.	.	.	.	.	.
=51	=51	=51	=51	=51	=51	=51	=51	=51
8C	.	1r	.	1r	.	1r	.	V/V
8r	.	.	.	.	.	.	.	.
8BBn	.	.	.	.	.	.	.	.
8r	.	.	.	.	.	.	.	.
8AA	.	.	.	.	.	.	.	.
8r	.	.	.	.	.	.	.	.
8D	.	.	.	.	.	.	.	.
8r	.	.	.	.	.	.	.	.
=52	=52	=52	=52	=52	=52	=52	=52	=52
!	!	!	!LO:DY:a	!	!	!	!	!
8GG	.	1r	p	4r	.	1r	.	V
8r	.	.	.	.	.	.	.	.
4r	.	.	.	8G	.	.	.	.
.	.	.	.	8r	.	.	.	.
2r	.	.	.	8Bn	.	.	.	.
.	.	.	.	8r	.	.	.	.
.	.	.	.	8d	.	.	.	.
.	.	.	.	8r	.	.	.	.
=53	=53	=53	=53	=53	=53	=53	=53	=53
1c	sfp	1e-X	sfp	[1g	sfp	8a-X	p	.Ger6(+7)
.	.	.	.	.	.	8r	.	.
.	.	.	.	.	.	8cc	.	.
.	.	.	.	.	.	8r	.	.
.	.	.	.	.	.	8ee-X	.	.
.	.	.	.	.	.	8r	.	.
.	.	.	.	.	.	8ff#X	.	.
.	.	.	.	.	.	8r	.	.
=54	=54	=54	=54	=54	=54	=54	=54	=54
1Bn	.	1d	.	4g]	.	1gg	sfp	V6
.	.	.	.	(4g	<	.	.	.
.	.	.	.	4f#X	[	.	.	.
.	.	.	.	[4g)	>]	.	.	.
=55	=55	=55	=55	=55	=55	=55	=55	=55
1B-X	sfp	1d-X	sfp	1g_	sfp	8g	.	viio43/IV
.	.	.	.	.	.	8r	.	.
.	.	.	.	.	.	8b-X	.	.
.	.	.	.	.	.	8r	.	.
.	.	.	.	.	.	8dd-X	.	.
.	.	.	.	.	.	8r	.	.
.	.	.	.	.	.	8ee	.	.
.	.	.	.	.	.	8r	.	.
=56	=56	=56	=56	=56	=56	=56	=56	=56
1A	.	1c	.	4g]	.	1ff	sfp	IV6(+2)
.	.	.	.	(4g	<	.	.	.
.	.	.	.	4f#X	[	.	.	.
.	.	.	.	4g)	>]	.	.	.
=57	=57	=57	=57	=57	=57	=57	=57	=57
1A-X	sfp	([1c 1f	sfp	[1g	sfp	8f	.	iv6(+#4+2)
.	.	.	.	.	.	8r	.	.
.	.	.	.	.	.	8a-X	.	.
.	.	.	.	.	.	8r	.	.
.	.	.	.	.	.	8bn	.	.
.	.	.	.	.	.	8r	.	.
.	.	.	.	.	.	8dd	.	.
.	.	.	.	.	.	8r	.	.
=58	=58	=58	=58	=58	=58	=58	=58	=58
1G	<	2.c]) 2.e	.	8g]	.	8ee	.	V(64)
.	.	.	.	8r	.	8r	.	.
.	.	.	.	4r	.	(4g	<	.
.	.	.	.	4r	.	4f#X	.	.
.	.	(4c	<	(4e	<	4g)	.	.
=59	=59	=59	=59	=59	=59	=59	=59	=59
(2.GG	.	2.Bn)	.	[2d)	.	(4g	.	V7
.	.	.	.	.	.	4a	[ >	.
.	.	.	.	4d]	>	4g	.	.
8AAnL	[ >	4d	[ > ]]	[4G	] ]]	4f)	]]	V65
8BB-J)	]]	.	.	.	.	.	.	.
=60	=60	=60	=60	=60	=60	=60	=60	=60
!	!	!	!LO:DY:a	!	!	!LO:TX:b:i:t=dol.	!	!
[1C	p	(4c	p p	(4G]	.	2.e	p	I64
.	.	4A	.	2c	.	.	.	.
.	.	4G	.	.	.	.	.	.
.	.	4F)	.	4Bn)	.	(4d	.	viio64
=61	=61	=61	=61	=61	=61	=61	=61	=61
2C_	.	(4.E	.	[1c	.	4.c	.	I6]
.	.	8D	.	.	.	8d	.	.
(8CL]	.	[2C)	.	.	.	4e	.	I
8BBn	.	.	.	.	.	.	.	.
8AA	.	.	.	.	.	8fL	.	IV6
8GGJ	.	.	.	.	.	8gJ)	.	.
=62	=62	=62	=62	=62	=62	=62	=62	=62
4FF	.	2C]	.	2c]	.	(4..a	.	IV
4EE	.	.	.	.	.	.	.	.
.	.	.	.	.	.	16bn)	.	.
4DD	.	2D	.	2f	.	2bt	.	V7
4GG)	.	.	.	.	.	.	.	.
.	.	.	.	.	.	16qqa/LL	.	.
.	.	.	.	.	.	16qqb/JJ	.	.
=63	=63	=63	=63	=63	=63	=63	=63	=63
(4CC	<	(4E	<	(4g	<	(4cc	<	I\\
4F	.	4c	.	4a	.	4aa	.	IV
4G	[ >	4Bn	[ >	4g)	[ >	4gg	[ >	V
4Bn)	]]	4dd	]]	[4g	]]	4ff	]]	V65
=64	=64	=64	=64	=64	=64	=64	=64	=64
[1c	.	2.cc	.	(4g]	.	2.ee	.	I[I
.	.	.	.	4a	.	.	.	.
.	.	.	.	4g	.	.	.	.
.	.	4bn)	.	4f	.	4dd)	.	viio
=65	=65	=65	=65	=65	=65	=65	=65	=65
!LO:TX:a:i:t=cresc.	!	!	!	!LO:TX:b:i:t=cresc.	!	!LO:TX:b:i:t=cresc.	!	!
(2.c]	.	[2cc	.	4.e	.	(12ccL	.	I6]
.	.	.	.	.	.	12dd	.	.
.	.	.	.	.	.	12ccJ	.	.
.	.	.	.	.	.	12bnL	.	.
.	.	.	.	.	.	12cc	.	.
.	.	.	.	8d	.	.	.	.
.	.	.	.	.	.	12ddJ	.	.
.	.	(8ccL]	.	4c	.	16eeLL	.	I
.	.	.	.	.	.	16ff	.	.
.	.	8bn	.	.	.	16ee	.	.
.	.	.	.	.	.	16ddJJ	.	.
8dL	.	8a	.	[4cc)	.	12eeL	.	.
.	.	.	.	.	.	12ff	.	.
8eJ)	.	8gJ)	.	.	.	.	.	.
.	.	.	.	.	.	12ggJ)	.	I6
=66	=66	=66	=66	=66	=66	=66	=66	=66
(4f	.	(4f	.	2cc]	.	(4..aa	.	IV
4e	.	4g	.	.	.	.	.	.
.	.	.	.	.	.	16bbn)	.	.
4d	.	4f	.	2ff	.	2bbt	.	V7
4g)	.	(4dd)	.	.	.	.	.	.
.	.	.	.	.	.	16qqaa/LL	.	.
.	.	.	.	.	.	16qqbb/JJ	.	.
=67	=67	=67	=67	=67	=67	=67	=67	=67
8c	.	(4cc)	sfp	(4ee	sfp	(4.ccc	sfp	I\\
8r	.	.	.	.	.	.	.	.
4r	.	4dd	.	4ff	.	.	.	.
.	.	.	.	.	.	16bbnLL	.	.
.	.	.	.	.	.	16aaJJ	.	.
4r	.	4ee	.	4gg	.	8gg')	.	.
.	.	.	.	.	.	8r	.	.
4r	.	(4dd)	.	4ff)	.	4ggT	.	.
.	.	.	.	.	.	16qqff#X/LL	.	.
.	.	.	.	.	.	16qqgg/JJ	.	.
=68	=68	=68	=68	=68	=68	=68	=68	=68
2r	.	(4cc)	sfp	(4ee	sfp	(4.ccc	sfp	.
.	.	4dd	.	4ff	.	.	.	.
.	.	.	.	.	.	16bbnLL	.	.
.	.	.	.	.	.	16aaJJ	.	.
4r	.	4ee	.	4gg)	.	8gg')	.	.
.	.	.	.	.	.	8r	.	.
(4d	.	4f)	.	4ggT	.	4bbt	.	V43
.	.	.	.	16qqff#X/LL	.	16qqaa/LL	.	.
.	.	.	.	16qqgg/JJ	.	16qqbb/JJ	.	.
=69	=69	=69	=69	=69	=69	=69	=69	=69
4c	sfp	(4e	sfp	(4.ccc	sfp	(4.eee	sfp	I
4d	.	4f	.	.	.	.	.	.
.	.	.	.	16bb-LL	.	16dddLL	.	.
.	.	.	.	16aaJJ	.	16cccJJ	.	.
4e	.	4g	.	8gg')	.	8bbn')	.	iii
.	.	.	.	8r	.	8r	.	.
4d)	.	4f)	.	4ggT	.	4bbt	.	V43
.	.	.	.	16qqff#X/LL	.	16qqaa/LL	.	.
.	.	.	.	16qqgg/JJ	.	16qqbb/JJ	.	.
=70	=70	=70	=70	=70	=70	=70	=70	=70
(4c	sfp	(4e	sfp	(4.ccc	sfp	(4.eee	sfp	I
4d	.	4f	.	.	.	.	.	.
.	.	.	.	16bb-LL	.	16dddLL	.	.
.	.	.	.	16aaJJ	.	16cccJJ	.	.
4e	.	4g	.	8gg')	.	8bbn')	.	iii
.	.	.	.	8r	.	8r	.	.
4d)	.	4f)	.	4ggT	.	4bbt	.	V43
.	.	.	.	16qqff#X/LL	.	16qqaa/LL	.	.
.	.	.	.	16qqgg/JJ	.	16qqbb/JJ	.	.
=71	=71	=71	=71	=71	=71	=71	=71	=71
!LO:TX:a:i:t=cresc.	!	!LO:TX:b:i:t=cresc.	!	!LO:TX:b:i:t=cresc.	!	!LO:TX:a:i:t=cresc.	!	!
(2c	.	(2e	.	4eee	.	[1ggg	.	V43
.	.	.	.	8ddd'L	.	.	.	.
.	.	.	.	8ccc'J	.	.	.	.
2d	.	2f	.	(8cccL	.	.	.	.
.	.	.	.	8bbn)	.	.	.	.
.	.	.	.	8bb'	.	.	.	.
.	.	.	.	8ddd'J	.	.	.	.
=72	=72	=72	=72	=72	=72	=72	=72	=72
2e	.	2g	.	(8dddL	.	1ggg_	.	IV(+2)
.	.	.	.	8ccc)	.	.	.	.
.	.	.	.	8bbn'	.	.	.	.
.	.	.	.	8aa'J	.	.	.	.
[2f)	.	2a	.	(8aaL	.	.	.	.
.	.	.	.	8gg)	.	.	.	.
.	.	.	.	8ff'	.	.	.	.
.	.	.	.	8ee'J	.	.	.	.
=73	=73	=73	=73	=73	=73	=73	=73	=73
4f]	p	4bn)	p	4dd	p	4ggg]	p	V2
4r	.	4r	.	4r	.	(12dddL	.	.
.	.	.	.	.	.	12ccc	.	.
.	.	.	.	.	.	12bbnJ	.	.
2r	.	2r	.	2r	.	12aaL	.	.
.	.	.	.	.	.	12bb	.	.
.	.	.	.	.	.	12ggJ	.	.
!	!	!	!	!	!	!LO:TX:a:i:t=ten.	!	!
.	.	.	.	.	.	4ggg)	.	.
=74	=74	=74	=74	=74	=74	=74	=74	=74
4e	.	4cc	.	4ee	.	4r	.	I6
4r	.	4r	.	4r	.	(12ggL	.	.
.	.	.	.	.	.	12ff	.	.
.	.	.	.	.	.	12eeJ	.	.
2r	.	2r	.	2r	.	12ddL	.	.
.	.	.	.	.	.	12ee	.	.
.	.	.	.	.	.	12ccJ	.	.
!	!	!	!	!	!	!LO:TX:a:i:t=ten.	!	!
.	.	.	.	.	.	4ccc)	.	.
=75	=75	=75	=75	=75	=75	=75	=75	=75
4F	.	4Bn 4d	.	4g	.	4r	.	V2
4r	.	4r	.	4r	.	(12ddL	.	.
.	.	.	.	.	.	12cc	.	.
.	.	.	.	.	.	12bnJ	.	.
2r	.	2r	.	2r	.	12aL	.	.
.	.	.	.	.	.	12b	.	.
.	.	.	.	.	.	12gJ	.	.
!	!	!	!	!	!	!LO:TX:a:i:t=ten.	!	!
.	.	.	.	.	.	4gg)	.	.
=76	=76	=76	=76	=76	=76	=76	=76	=76
4E	.	4c 4e	.	4g	.	4r	.	I6
4r	.	4r	.	4r	.	(12gL	.	.
.	.	.	.	.	.	12f	.	.
.	.	.	.	.	.	12eJ	.	.
2r	.	4r	.	2r	.	12dL	.	.
.	.	.	.	.	.	12e	.	.
.	.	.	.	.	.	12cJ	.	.
.	.	(12cL	.	.	.	[4cc)	.	.
.	.	12Bn	.	.	.	.	.	.
.	.	12AJ	.	.	.	.	.	.
=77	=77	=77	=77	=77	=77	=77	=77	=77
[1AA [1F#X	.	12GL	.	4r	.	4cc]	.	V43/V
.	.	12A	.	.	.	.	.	.
.	.	12F#XJ	.	.	.	.	.	.
.	.	2D)	.	(12ccL	.	4r	.	.
.	.	.	.	12bn	.	.	.	.
.	.	.	.	12aJ	.	.	.	.
.	.	.	.	12gL	.	12ccL	pp	.
.	.	.	.	12a	.	12ff#X	.	.
.	.	.	.	12f#XJ	.	12aaJ	.	.
!	!	!	!	!LO:TX:a:i:t=ten.	!	!	!	!
.	.	(12cL	.	4d)	.	4ccc	.	.
.	.	12Bn	.	.	.	.	.	.
.	.	12AJ	.	.	.	.	.	.
=78	=78	=78	=78	=78	=78	=78	=78	=78
1AA_ 1F#_	.	12GL	.	4r	.	2r	.	.
.	.	12A	.	.	.	.	.	.
.	.	12F#XJ	.	.	.	.	.	.
.	.	2D)	.	(12ccL	.	.	.	.
.	.	.	.	12bn	.	.	.	.
.	.	.	.	12aJ	.	.	.	.
.	.	.	.	12gL	.	12ccL	.	.
.	.	.	.	12a	.	12ff#X	.	.
.	.	.	.	12f#XJ	.	12aaJ	.	.
!	!	!	!	!LO:TX:a:i:t=ten.	!	!	!	!
.	.	(12cL	.	4d)	.	4ccc	.	.
.	.	12Bn	.	.	.	.	.	.
.	.	12AJ	.	.	.	.	.	.
=79	=79	=79	=79	=79	=79	=79	=79	=79
1AA_ 1F#_	.	12GL	.	2r	.	1r	.	.
.	.	12A	.	.	.	.	.	.
.	.	12F#XJ)	.	.	.	.	.	.
.	.	12D'L	.	.	.	.	.	.
.	.	12F#'	.	.	.	.	.	.
.	.	12A'J	.	.	.	.	.	.
.	.	12c'L	.	4r	.	.	.	.
.	.	12d'	.	.	.	.	.	.
.	.	12f#X'J	.	.	.	.	.	.
.	.	4r	.	12a'L	.	.	.	.
.	.	.	.	12cc'	.	.	.	.
.	.	.	.	12dd'J	.	.	.	.
=80	=80	=80	=80	=80	=80	=80	=80	=80
1AA] 1F#]	.	1r	.	12ff#XL	.	1r	.	.
.	.	.	.	12aa	.	.	.	.
.	.	.	.	12cccJ	.	.	.	.
.	.	.	.	12aaL	.	.	.	.
.	.	.	.	12ff#	.	.	.	.
.	.	.	.	12ddJ	.	.	.	.
.	.	.	.	12ccL	.	.	.	.
.	.	.	.	12a	.	.	.	.
.	.	.	.	12f#XJ	.	.	.	.
.	.	.	.	12dL	.	.	.	.
.	.	.	.	12e	.	.	.	.
.	.	.	.	12cJ	.	.	.	.
=81	=81	=81	=81	=81	=81	=81	=81	=81
[1GG [1Fn	.	1r	.	4Bn	.	(12dL	.	V7
.	.	.	.	.	.	12c	.	.
.	.	.	.	.	.	12BnJ	.	.
.	.	.	.	4r	.	12AL	.	.
.	.	.	.	.	.	12B	.	.
.	.	.	.	.	.	12GJ)	.	.
.	.	.	.	2r	.	12B'L	.	.
.	.	.	.	.	.	12d'	.	.
.	.	.	.	.	.	12g'J	.	.
.	.	.	.	.	.	12bnL	.	.
.	.	.	.	.	.	12dd	.	.
.	.	.	.	.	.	12ggJ	.	.
=82	=82	=82	=82	=82	=82	=82	=82	=82
1GG] 1F]	.	1r	.	1r	.	12bbnL	.	.
.	.	.	.	.	.	12ddd	.	.
.	.	.	.	.	.	12fffJ	.	.
.	.	.	.	.	.	12dddL	.	.
.	.	.	.	.	.	12bb	.	.
.	.	.	.	.	.	12ggJ	.	.
.	.	.	.	.	.	12ffL	.	.
.	.	.	.	.	.	12dd	.	.
.	.	.	.	.	.	12bnJ	.	.
.	.	.	.	.	.	12gL	.	.
.	.	.	.	.	.	12a	.	.
.	.	.	.	.	.	12fJ	.	.
=83	=83	=83	=83	=83	=83	=83	=83	=83
(12GGL	ff	(12GL	ff	2r	.	4e	f	I\\
12FF	.	12F	.	.	.	.	.	.
12EEJ	.	12EJ	.	.	.	.	.	.
12DDL	.	12DL	.	.	.	4r	.	.
12EE	.	12E	.	.	.	.	.	.
12CCJ)	.	12CJ)	.	.	.	.	.	.
12EE'L	.	12E'L	.	4r	.	4r	.	.
12GG'	.	12G'	.	.	.	.	.	.
12C'J	.	12c'J	.	.	.	.	.	.
12E'L	.	12e'L	.	(12gL	ff	(12ggL	ff	.
12G'	.	12g'	.	12f	.	12ff	.	.
12c'J	.	12cc'J	.	12eJ	.	12eeJ	.	.
=84	=84	=84	=84	=84	=84	=84	=84	=84
12C'L	.	12c'L	.	12dL	.	12ddL	.	I
12E'	.	12e'	.	12e	.	12ee	.	.
12G'J	.	12g'J	.	12cJ)	.	12ccJ)	.	.
12EL	.	12eL	.	12e'L	.	12ee'L	.	.
12C	.	12c	.	12g'	.	12gg'	.	.
12GGJ	.	12GJ	.	12cc'J	.	12ccc'J	.	.
12EEL	.	12E	.	12eeL	.	12eeeL	.	.
12CC	.	12eL	.	12gg	.	12ggg	.	.
12CJ	.	12gJ	.	12cccJ	.	12gggJ	.	.
12CL	.	12ccL	.	12eeeL	.	12gggL	.	.
12C	.	12cc	.	12eee	.	12ggg	.	.
12CJ	.	12ccJ	.	12eeeJ	.	12gggJ	.	.
=85	=85	=85	=85	=85	=85	=85	=85	=85
2r	.	2r	.	2eee	p	2ggg	p	V7/ii
2A	p	2c#X	p	2r	.	2r	.	.
=86	=86	=86	=86	=86	=86	=86	=86	=86
2r	.	1r	.	2Bn 2d	.	2G 2f	.	V7
2GG	.	.	.	2r	.	2r	.	.
=87	=87	=87	=87	=87	=87	=87	=87	=87
2r	.	2r	.	2eee	.	2ggg	.	V7/ii
2A	.	2c#X	.	2r	.	2r	.	.
=88	=88	=88	=88	=88	=88	=88	=88	=88
2r	.	1r	.	2Bn 2d	.	2G 2f	.	V7
2GG	.	.	.	2r	.	2r	.	.
=89	=89	=89	=89	=89	=89	=89	=89	=89
2r	.	2c#X`	f	2eee`	f	2ggg`	f	V7/ii
2A`	f	2g`	.	2e` 2a	.	2e` 2cc#X	.	.
=90	=90	=90	=90	=90	=90	=90	=90	=90
2D`	.	2f`	.	2d` 2dd	.	2ff`	.	ii
2AA-X`	.	2d` 2bn	.	2f` 2dd	.	2ff` 2fff	.	#viio2
=91	=91	=91	=91	=91	=91	=91	=91	=91
[1GG	p	(2.Bn	p	(2.d	p	(2.g	p	V
!	!	!LO:TX:b:i:t=dol.	!	!LO:TX:b:i:t=dol.	!	!LO:TX:b:i:t=dol.	!	!
.	.	4c	.	4e	.	4a	.	.
=92	=92	=92	=92	=92	=92	=92	=92	=92
1GG]	.	2.d	.	1f)	.	4bn	.	V7
.	.	.	.	.	.	4cc	.	.
.	.	.	.	.	.	4dd	.	.
.	.	4Bn)	.	.	.	4ee)	.	.
=93	=93	=93	=93	=93	=93	=93	=93	=93
[1CC [1GG	.	(4c	.	(4e	.	(2.cc	.	I[I
.	.	4d	.	4f	.	.	.	.
.	.	4e	.	4g	.	.	.	.
.	.	4f)	.	4a)	.	8ddL	.	.
.	.	.	.	.	.	8ccJ)	.	.
=94	=94	=94	=94	=94	=94	=94	=94	=94
1CC_ 1GG_	.	(2.d	.	2.f	.	(8bnL	.	V7
.	.	.	.	.	.	8cc)	.	.
.	.	.	.	.	.	8b'	.	.
.	.	.	.	.	.	8cc'J	.	.
.	.	.	.	.	.	(8ddL	.	.
.	.	.	.	.	.	8ee)	.	.
.	.	4Bn)	.	4f	.	8dd'	.	.
.	.	.	.	.	.	8ee'J	.	.
=95	=95	=95	=95	=95	=95	=95	=95	=95
1CC_ 1GG_	.	(8cL	.	(8eL	.	(2.cc	.	I
.	.	8d)	.	8f)	.	.	.	.
.	.	8c'	.	8e'	.	.	.	.
.	.	8d'J	.	8f'J	.	.	.	.
.	.	(8eL	.	(8gL	.	.	.	.
.	.	8f)	.	8a)	.	.	.	.
.	.	8e'	.	8g'	.	8ddL	.	.
.	.	8f'J	.	8a'J	.	8ccJ)	.	.
=96	=96	=96	=96	=96	=96	=96	=96	=96
!LO:TX:b:i:t=cresc.	!	!LO:TX:b:i:t=cresc.	!	!LO:TX:b:i:t=cresc.	!	!LO:TX:b:i:t=cresc.	!	!
1CC_ 1GG_	.	1d	.	1f	.	(8bnL	.	V7
.	.	.	.	.	.	8cc)	.	.
.	.	.	.	.	.	8dd'	.	.
.	.	.	.	.	.	8ee'J	.	.
.	.	.	.	.	.	(8ffL	.	.
.	.	.	.	.	.	8aa)	.	.
.	.	.	.	.	.	8gg'	.	.
.	.	.	.	.	.	8b'J	.	.
=97	=97	=97	=97	=97	=97	=97	=97	=97
!	!LO:DY:a	!	!	!	!	!	!	!
(8CCL] 8GG]	p p	[1C [1c	.	4e	p	(1cc	p	I]
8AA)	.	.	.	.	.	.	.	.
8GG'	.	.	.	4r	.	.	.	.
8AA'J	.	.	.	.	.	.	.	.
(8BBnL	.	.	.	2r	.	.	.	.
8C)	.	.	.	.	.	.	.	.
8BB'	.	.	.	.	.	.	.	.
8C'J	.	.	.	.	.	.	.	.
=98	=98	=98	=98	=98	=98	=98	=98	=98
1BB-X	.	1C_ 1c_	.	2r	.	8ddL	.	V2/IV
.	.	.	.	.	.	8ee)	.	.
.	.	.	.	.	.	8dd'	.	.
.	.	.	.	.	.	8ee'J	.	.
.	.	.	.	(8dL	.	(8ffL	.	.
.	.	.	.	8e)	.	8gg)	.	.
.	.	.	.	8d'	.	8ff'	.	.
.	.	.	.	8e'J	.	8gg'J	.	.
=99	=99	=99	=99	=99	=99	=99	=99	=99
1AA	.	1C_ 1c_	.	8f'	.	4ff	.	IV6
.	.	.	.	(8eL	.	.	.	.
.	.	.	.	8fJ)	.	4r	.	.
.	.	.	.	(8eL	.	.	.	.
.	.	.	.	8fJ)	.	8r	.	.
.	.	.	.	8r	.	(8ggL	.	.
.	.	.	.	4r	.	8ffJ)	.	.
.	.	.	.	.	.	(8ggL	.	.
=100	=100	=100	=100	=100	=100	=100	=100	=100
1BB-X	.	1C_ 1c_	.	8r	.	8ffJ)	.	V2(4)/IV
.	.	.	.	(8dL	.	8r	.	.
.	.	.	.	8cJ)	.	4r	.	.
.	.	.	.	(8dL	.	.	.	.
.	.	.	.	8cJ)	.	8r	.	V2/IV
.	.	.	.	8r	.	(8eeL	.	.
.	.	.	.	4r	.	8ffJ)	.	.
.	.	.	.	.	.	(8ee	.	.
=101	=101	=101	=101	=101	=101	=101	=101	=101
!LO:TX:a:i:t=cresc.	!	!LO:TX:b:i:t=cresc.	!	!	!	!	!	!
(2.AA	.	1C_ 1c_	.	8r	.	8ff)	.	IV6
!	!	!	!	!LO:TX:a:i:t=cresc.	!	!	!	!
.	.	.	.	(8eL	.	8r	.	.
.	.	.	.	8fJ)	.	4r	.	.
.	.	.	.	(8eL	.	.	.	.
.	.	.	.	8fJ)	.	8r	.	.
!	!	!	!	!	!	!LO:TX:a:i:t=cresc.	!	!
.	.	.	.	8r	.	(8ggL	.	V2/IV
(4BB-)	.	.	.	4r	.	8ffJ)	.	.
.	.	.	.	.	.	(8ggL	.	.
=102	=102	=102	=102	=102	=102	=102	=102	=102
[2AA)	.	2C_ 2c_	.	8r	.	8ffJ)	.	IV6
.	.	.	.	(8dL	.	8r	.	.
.	.	.	.	8cJ)	.	4r	.	.
.	.	.	.	(8dL	.	.	.	.
(8AAL]	.	8CL] 8c]	.	8cJ)	.	2r	.	.
8BB-)	.	8G	.	8cL	.	.	.	.
8AA'	.	8A	.	8c	.	.	.	.
8BB-'J	.	8AJ	.	8cJ	.	.	.	.
=103	=103	=103	=103	=103	=103	=103	=103	=103
(4C	mf	8AL	p	8cL	p	1r	.	I
.	.	8A	.	8c	.	.	.	.
!LO:TX:b:i:t=e dolce	!	!	!	!	!	!	!	!
4D	.	8A	.	8c	.	.	.	.
.	.	8AJ	.	8cJ	.	.	.	.
4E	.	8AL	.	8cL	.	.	.	.
.	.	8A	.	8c	.	.	.	.
4F)	.	8A	.	8c	.	.	.	.
.	.	8AJ	.	8cJ	.	.	.	.
=104	=104	=104	=104	=104	=104	=104	=104	=104
(2.C	.	8AL	.	8cL	.	1r	.	I64
.	.	8A	.	8c	.	.	.	.
.	.	8A	.	8c	.	.	.	.
.	.	8AJ	.	8cJ	.	.	.	.
.	.	8AL	.	8cL	.	.	.	.
.	.	8A	.	8c	.	.	.	.
8DL	.	8A	.	8c	.	.	.	.
8CJ	.	8AJ	.	8cJ	.	.	.	.
=105	=105	=105	=105	=105	=105	=105	=105	=105
8BB-L	.	8AL	.	8cL	.	1r	.	I
8C)	.	8A	.	8c	.	.	.	.
8AA'	.	8A	.	8c	.	.	.	.
8GG'J	.	8AJ	.	8cJ	.	.	.	.
(4FF	.	8AL	.	8cL	.	.	.	.
.	.	8A	.	8c	.	.	.	.
4D	.	8A	.	8c	.	.	.	.
.	.	8AJ	.	8cJ	.	.	.	.
=106	=106	=106	=106	=106	=106	=106	=106	=106
1C)	.	8AL	.	8cL	.	1r	.	I64
.	.	8A	.	8c	.	.	.	.
.	.	8A	.	8c	.	.	.	.
.	.	8AJ	.	8cJ	.	.	.	.
.	.	8AL	.	8cL	.	.	.	.
.	.	8A	.	8c	.	.	.	.
.	.	8A	.	8c	.	.	.	.
.	.	8AJ	.	8cJ	.	.	.	.
=107	=107	=107	=107	=107	=107	=107	=107	=107
!	!	!LO:TX:b:i:t=cresc.	!	!	!	!	!	!
!LO:TX:a:i:t=cresc.	!	!LO:TX:a:i:t=cresc.	!	!	!	!	!	!
(8CL	.	8AL	.	8cL	.	1r	.	I
8D)	.	8A	.	8c	.	.	.	.
8C'	.	8A	.	8c	.	.	.	.
8D'J	.	8AJ	.	8cJ	.	.	.	.
(8EL	.	8AL	.	8cL	.	.	.	.
8F)	.	8A	.	8c	.	.	.	.
8E'	.	8A	.	8c	.	.	.	.
8F'J	.	8AJ	.	8cJ	.	.	.	.
=108	=108	=108	=108	=108	=108	=108	=108	=108
!	!	!	!LO:DY:a	!	!	!	!	!
[1G-X	.	1r	f	(8BnL	.	1r	.	#viio2/IV
.	.	.	.	8c)	.	.	.	.
.	.	.	.	8B'	.	.	.	.
.	.	.	.	8c'J	.	.	.	.
.	.	.	.	(8dL	.	.	.	.
.	.	.	.	8e-X)	.	.	.	.
.	.	.	.	8d'	.	.	.	.
.	.	.	.	8e-'J	.	.	.	.
=109	=109	=109	=109	=109	=109	=109	=109	=109
1G-_	.	(8BnL	f	(8bnL	.	1r	.	.
.	.	8c)	.	8cc)	.	.	.	.
.	.	8B'	.	8b'	.	.	.	.
.	.	8c'J	.	8cc'J	.	.	.	.
.	.	(8dL	.	(8ddL	.	.	.	.
.	.	8e-X)	.	8ee-X)	.	.	.	.
.	.	8d'	.	8dd'	.	.	.	.
.	.	8e-'J	.	8ee-'J	.	.	.	.
=110	=110	=110	=110	=110	=110	=110	=110	=110
1G-]	f >	[1e-X	f >	[1ee-X	f >	(8bbnL	f	.
.	.	.	.	.	.	8ccc)	>	.
.	.	.	.	.	.	8bb'	.	.
.	.	.	.	.	.	8ccc'J	.	.
.	.	.	.	.	.	(8dddL	.	.
.	.	.	.	.	.	8eee-X)	.	.
.	.	.	.	.	.	8ddd'	.	.
.	.	.	.	.	.	8eee-'J	.	.
=111	=111	=111	=111	=111	=111	=111	=111	=111
1F	]]	1e-]	]]	1ee-]	]]	(4fff	.	V7/IV
.	.	.	.	.	.	4ggg	.	.
.	.	.	.	.	.	4aaa	.	.
.	.	.	.	.	.	4bbb-)	]]	.
=112	=112	=112	=112	=112	=112	=112	=112	=112
4BB-	.	4d	.	8ddL	.	(2.fff	.	IV.I
.	.	.	.	8B- 8d	.	.	.	.
4r	.	4r	.	8B- 8d	.	.	.	.
.	.	.	.	8B-J 8d	.	.	.	.
2r	.	2r	.	8B-L 8d	.	.	.	.
.	.	.	.	8B- 8d	.	.	.	.
.	.	.	.	8B- 8d	.	(8gggL)	.	.
.	.	.	.	8B-J 8d	.	8fffJ	.	.
=113	=113	=113	=113	=113	=113	=113	=113	=113
1r	.	1r	.	8B-L 8d	.	8eee-XL	.	.
.	.	.	.	8B- 8d	.	8fff)	.	.
.	.	.	.	8B- 8d	.	8ddd'	.	.
.	.	.	.	8B-J 8d	.	8ccc'J	.	.
.	.	.	.	8B-L 8d	.	(4bb-	.	.
.	.	.	.	8B- 8d	.	.	.	.
.	.	.	.	8B- 8d	.	4ggg	.	.
.	.	.	.	8B-J 8d	.	.	.	.
=114	=114	=114	=114	=114	=114	=114	=114	=114
12BB-L	f	1r	.	8B-L 8d	f	[1fff)	f	.
12D	.	.	.	.	.	.	.	.
.	.	.	.	8B- 8d	.	.	.	.
12FJ	.	.	.	.	.	.	.	.
12B-L	.	.	.	8B- 8d	.	.	.	.
12d	.	.	.	.	.	.	.	.
.	.	.	.	8B-J 8d	.	.	.	.
12B-J	.	.	.	.	.	.	.	.
12FL	.	.	.	8B-L 8d	.	.	.	.
12B-	.	.	.	.	.	.	.	.
.	.	.	.	8B- 8d	.	.	.	.
12FJ	.	.	.	.	.	.	.	.
12DL	.	.	.	8B- 8d	.	.	.	.
12F	.	.	.	.	.	.	.	.
.	.	.	.	8B-J 8d	.	.	.	.
12DJ	.	.	.	.	.	.	.	.
=115	=115	=115	=115	=115	=115	=115	=115	=115
4BB-	p	(4b-	p	8B-L 8d	p	12fffL]	p	.
.	.	.	.	.	.	12ddd	.	.
.	.	.	.	8B- 8d	.	.	.	.
.	.	.	.	.	.	12bb-J	.	.
4r	.	4cc	.	8B- 8d	.	12ffL	.	.
.	.	.	.	.	.	12dd	.	.
.	.	.	.	8B-J 8d	.	.	.	.
.	.	.	.	.	.	12b-J	.	.
2r	.	4dd	.	8B-L 8d	.	12fL	.	.
.	.	.	.	.	.	12d	.	.
.	.	.	.	8B- 8d	.	.	.	.
.	.	.	.	.	.	12B-J	.	.
.	.	4ee-X)	.	8c 8e-X	.	12AL	.	#viio2/vi
.	.	.	.	.	.	12c	.	.
.	.	.	.	8cJ 8e-	.	.	.	.
.	.	.	.	.	.	12f#XJ	.	.
=116	=116	=116	=116	=116	=116	=116	=116	=116
1r	.	(2.cc	.	8cL 8e-X	.	8AL 8f#X	.	#viio65/vi
.	.	.	.	8c 8e-	.	8A 8f#	.	.
.	.	.	.	8c 8e-	.	8A 8f#	.	.
.	.	.	.	8cJ 8e-	.	8AJ 8f#	.	.
.	.	.	.	8cL 8e-	.	8AL 8f#	.	.
.	.	.	.	8c 8e-	.	8A 8f#	.	.
.	.	8ddL	.	8c 8e-	.	8A 8f#	.	.
.	.	8ccJ)	.	8cJ 8e-	.	8AJ 8f#	.	.
=117	=117	=117	=117	=117	=117	=117	=117	=117
1r	.	(8b-L	.	8cL 8e-X	.	8AL 8f#X	.	.
.	.	8cc)	.	8c 8e-	.	8A 8f#	.	.
.	.	8a'	.	8c 8e-	.	8A 8f#	.	.
.	.	8g'J	.	8cJ 8e-	.	8AJ 8f#	.	.
.	.	(4f#X	.	8cL 8e-	.	8AL 8f#	.	.
.	.	.	.	8c 8e-	.	8A 8f#	.	.
.	.	4ee-X	.	8c 8e-	.	8A 8f#	.	.
.	.	.	.	8cJ 8e-	.	8AJ 8f#	.	.
=118	=118	=118	=118	=118	=118	=118	=118	=118
12AAL	f	[1dd)	f	8cL 8d	f	8AL 8f#X	f	V43/vi
12C	.	.	.	.	.	.	.	.
.	.	.	.	8c 8d	.	8A 8f#	.	.
12F#XJ	.	.	.	.	.	.	.	.
12AL	.	.	.	8c 8d	.	8A 8f#	.	.
12c	.	.	.	.	.	.	.	.
.	.	.	.	8cJ 8d	.	8AJ 8f#	.	.
12AJ	.	.	.	.	.	.	.	.
12F#L	.	.	.	8cL 8d	.	8AL 8f#	.	.
12A	.	.	.	.	.	.	.	.
.	.	.	.	8c 8d	.	8A 8f#	.	.
12F#J	.	.	.	.	.	.	.	.
12CL	.	.	.	8c 8d	.	8A 8f#	.	.
12F#	.	.	.	.	.	.	.	.
.	.	.	.	8cJ 8d	.	8AJ 8f#	.	.
12CJ	.	.	.	.	.	.	.	.
=119	=119	=119	=119	=119	=119	=119	=119	=119
4AA	p	12ddL]	p	4dd	p	8AL 8f#X	p	.
.	.	12cc	.	.	.	.	.	.
.	.	.	.	.	.	8A 8f#	.	.
.	.	12aJ	.	.	.	.	.	.
4r	.	12cL	.	4een	.	8A 8f#	.	.
.	.	12A	.	.	.	.	.	.
.	.	.	.	.	.	8AJ 8f#	.	.
.	.	12dJ	.	.	.	.	.	.
2r	.	12cL	.	4ff#X	.	8AL 8f#	.	.
.	.	12A	.	.	.	.	.	.
.	.	.	.	.	.	8A 8f#	.	.
.	.	12dJ	.	.	.	.	.	.
.	.	12B-L	.	4gg	.	8G 8g	.	vi
.	.	12G	.	.	.	.	.	.
.	.	.	.	.	.	8GJ 8g	.	.
.	.	12dJ	.	.	.	.	.	.
=120	=120	=120	=120	=120	=120	=120	=120	=120
12GGL	p	8G	.	(2.dd	.	8GL 8g	.	.
12BB-	.	.	.	.	.	.	.	.
.	.	8B-L 8d	.	.	.	8G 8g	.	.
12DJ	.	.	.	.	.	.	.	.
12GL	.	8B- 8d	.	.	.	8G 8g	.	.
12B-	.	.	.	.	.	.	.	.
.	.	8B-J 8d	.	.	.	8GJ 8g	.	.
12GJ	.	.	.	.	.	.	.	.
12DL	.	8B-L 8d	.	.	.	8GL 8g	.	.
12G	.	.	.	.	.	.	.	.
.	.	8B- 8d	.	.	.	8G 8g	.	.
12DJ	.	.	.	.	.	.	.	.
12BB-L	.	8B- 8d	.	8ee-XL	.	8G 8g	.	.
12D	.	.	.	.	.	.	.	.
.	.	8B-J 8d	.	8ddJ)	.	8GJ 8g	.	.
12BB-J	.	.	.	.	.	.	.	.
=121	=121	=121	=121	=121	=121	=121	=121	=121
4GG	.	8B-L 8d	.	(8ccL	.	8GL 8g	.	.
.	.	8B- 8d	.	8dd)	.	8G 8g	.	.
4r	.	8B- 8d	.	8b-'	.	8G 8g	.	.
.	.	8B-J 8d	.	8a'J	.	8GJ 8g	.	.
!	!	!	!	!LO:TX:b:i:t=cresc.	!	!LO:TX:a:i:t=cresc.	!	!
2r	.	8B-L 8d	.	(4g	.	(4G	.	.
.	.	8B- 8d	.	.	.	.	.	.
.	.	8B- 8d	.	4ff	.	4A	.	.
.	.	8B-J 8d	.	.	.	.	.	.
=122	=122	=122	=122	=122	=122	=122	=122	=122
!LO:TX:b:i:t=cresc.	!	!	!	!	!	!	!	!
(4G	.	2r	.	[1een)	.	4B-	.	V43/V
4A	.	.	.	.	.	4c	.	.
!	!	!LO:TX:b:i:t=cresc.	!	!	!	!	!	!
4B-	.	(4g	.	.	.	4B-)	.	.
4c)	.	4a	.	.	.	4r	.	.
=123	=123	=123	=123	=123	=123	=123	=123	=123
2.B-	.	4b-	.	12eeL]	.	(4gg	.	V2/V
.	.	.	.	12b-	.	.	.	.
.	.	.	.	12gJ	.	.	.	.
.	.	4cc	.	12eL	.	4aa	.	.
.	.	.	.	12B-	.	.	.	.
.	.	.	.	12GJ	.	.	.	.
.	.	4b-)	.	12eL	.	4bb-)	.	.
.	.	.	.	12B-	.	.	.	.
.	.	.	.	12GJ	.	.	.	.
8c'L	.	8a'L	.	12eL	.	[4bb-	.	.
.	.	.	.	12B-	.	.	.	.
8B-'J	.	8g'J	.	.	.	.	.	.
.	.	.	.	12GJ	.	.	.	.
=124	=124	=124	=124	=124	=124	=124	=124	=124
(8AL	f	(8fL	f	(4g	f	4bb-]	f	viio/V
8B-)	.	8g)	.	.	.	.	.	.
8G'	.	8e'	.	4a	.	2bb-	.	.
8F'J	.	8d'J	.	.	.	.	.	.
4E	.	4c#X	.	4b-)	.	.	.	.
8e'L	.	4r	.	8gg'L	.	8cccni'L	.	.
8d'J	.	.	.	8ff'J	.	8bb-'J	.	.
=125	=125	=125	=125	=125	=125	=125	=125	=125
(8c#XL	.	4r	.	(8eeL	.	(8aaL	.	vi.V6
8d)	.	.	.	8ff)	.	8bb-)	.	VI6
8B-'	.	8g'L	.	8dd'	.	8gg'	.	iv6
8A'J	.	8a'J	.	8cc'J	.	8ff'J	.	III6
4G	.	4b-'	.	4b-'	.	4ee'	.	#viio6/III
8EE'L	.	8G'L	.	8gg'L	.	8eee'L	.	.
8FF'J	.	8A'J	.	8ff'J	.	8ddd'J	.	.
=126	=126	=126	=126	=126	=126	=126	=126	=126
4GG	f	4B-	f	4ee	f	(8ccc#XL	fp	#viio43
.	.	.	.	.	.	8eee)	.	.
4r	.	4r	.	4r	.	8bb-'	.	.
.	.	.	.	.	.	8aa'J	.	.
2r	.	2r	.	2r	.	(8ggL	.	.
.	.	.	.	.	.	8bb-)	.	.
.	.	.	.	.	.	8ee'	.	.
.	.	.	.	.	.	8dd'J	.	.
=127	=127	=127	=127	=127	=127	=127	=127	=127
1r	.	1r	.	1r	.	(8cc#XL	.	#viio7
.	.	.	.	.	.	8ee)	.	.
.	.	.	.	.	.	8b-'	.	.
.	.	.	.	.	.	8a'J	.	.
.	.	.	.	.	.	(8gL	.	.
.	.	.	.	.	.	8b-)	.	.
.	.	.	.	.	.	8e'	.	.
.	.	.	.	.	.	8d'J	.	.
=128	=128	=128	=128	=128	=128	=128	=128	=128
(8c#XL	fp	2r	.	4r	.	8c#X	fp	#viio7
8e)	.	.	.	.	.	8r	.	.
8B-'	.	.	.	8c#X'L	p	8e'L	.	.
8A'J	.	.	.	8d'J	.	8f'J	.	.
(8GL	.	4r	.	8e'	.	8g'	.	#viio43
8B-)	.	.	.	8r	.	8r	.	.
8E'	.	8e'L	p	4r	.	8cc#X'L	.	.
8D'J	.	8f'J	.	.	.	8dd'J	.	.
=129	=129	=129	=129	=129	=129	=129	=129	=129
(8C#XL	.	8g'	.	4r	.	8ee	.	#viio7
8E)	.	8r	.	.	.	8r	.	.
8BB-'	.	4r	.	8eeL	.	8ggL	.	.
8AA'J	.	.	.	8ffJ	.	8aaJ	.	.
(8GGL	.	4r	.	8gg	.	8bb-	.	#viio43
8BB-)	.	.	.	8r	.	8r	.	.
8EE	.	8gL 8a	.	8ggL	.	8ccc#XL	.	V65
8AAJ	.	8gJ 8a	.	8eeJ	.	8ccc#J	.	.
=130	=130	=130	=130	=130	=130	=130	=130	=130
4FF	f	4f 4a	.	4a 4aa	.	(8dddL	.	i6
.	.	.	.	.	.	8fff)	.	.
4r	.	4r	.	4r	.	8aa'	.	.
.	.	.	.	.	.	8gg'J	.	.
2r	.	2r	.	2r	.	(8ffL	.	.
.	.	.	.	.	.	8aa)	.	.
.	.	.	.	.	.	8dd'	.	.
.	.	.	.	.	.	8cc#X'J	.	.
=131	=131	=131	=131	=131	=131	=131	=131	=131
1r	.	1r	.	1r	.	(8ddL	.	i
.	.	.	.	.	.	8ff)	.	.
.	.	.	.	.	.	8a'	.	.
.	.	.	.	.	.	8g'J	.	.
.	.	.	.	.	.	(8fL	.	.
.	.	.	.	.	.	8a)	.	.
.	.	.	.	.	.	8d'	.	.
.	.	.	.	.	.	8c#X'J	.	.
=132	=132	=132	=132	=132	=132	=132	=132	=132
(8dL	fp	2r	.	4r	.	8d	fp	.
8f)	.	.	.	.	.	8r	.	.
8A'	.	.	.	8dL	p	8fL	.	.
8G'J	.	.	.	8eJ	.	8gJ	.	.
(8FL	.	4r	.	4f	.	4a	.	.
8A)	.	.	.	.	.	.	.	.
8D'	.	8FL	p	4r	.	8ddL	.	.
8C#X'J	.	8AJ	.	.	.	8eeJ	.	.
=133	=133	=133	=133	=133	=133	=133	=133	=133
(8CnL	.	4A	.	4r	.	8ff#X	.	ii.#viio43
8E-X)	.	.	.	.	.	8r	.	.
8AA'	.	4r	.	8aL	.	8ff#L	.	.
8GG'J	.	.	.	8bnJ	.	8ggJ	.	.
(8FF#XL	.	4r	.	4cc	.	8aa	.	#viio7
8AA)	.	.	.	.	.	8r	.	.
8EE-X'	.	8f#XL	.	4r	.	8aaL	.	.
8DD'J	.	8gJ	.	.	.	8bb-J	.	.
=134	=134	=134	=134	=134	=134	=134	=134	=134
4CC	f	4a	f	4f#X 4ee-X	f	(8cccL	fp	#viio43
.	.	.	.	.	.	8eee-X)	.	.
4r	.	4r	.	4r	.	8aa'	.	.
.	.	.	.	.	.	8gg'J	.	.
2r	.	2r	.	2r	.	(8ff#XL	.	.
.	.	.	.	.	.	8aa)	.	.
.	.	.	.	.	.	8ee-X'	.	.
.	.	.	.	.	.	8dd'J	.	.
=135	=135	=135	=135	=135	=135	=135	=135	=135
1r	.	1r	.	1r	.	(8ccL	.	#viio7/vi
.	.	.	.	.	.	8ee-X)	.	.
.	.	.	.	.	.	8a'	.	.
.	.	.	.	.	.	8g'J	.	.
.	.	.	.	.	.	(8f#XL	.	.
.	.	.	.	.	.	8a)	.	.
.	.	.	.	.	.	8e-X'	.	.
.	.	.	.	.	.	8d'J	.	.
=136	=136	=136	=136	=136	=136	=136	=136	=136
(8cL	fp	2r	.	4r	.	8c	fp	#viio43/vi
8e-X)	.	.	.	.	.	8r	.	.
8A'	.	.	.	8f#XL	p	8aL	.	.
8G'J	.	.	.	8gJ	.	8b-J	.	.
(8F#XL	.	4r	.	4a	.	8cc	.	.
8A)	.	.	.	.	.	8r	.	.
8E-X'	.	8AL	p	4r	.	8ff#XL	.	.
8D'J	.	8B-J	.	.	.	8ggJ	.	.
=137	=137	=137	=137	=137	=137	=137	=137	=137
(8CL	.	4c	.	4r	.	8aa	.	.
8E-X)	.	.	.	.	.	8r	.	.
8AA'	.	4r	.	8f#XL	.	8aaL	.	.
8GG'J	.	.	.	8gJ	.	8bb-J	.	.
(8FF#XL	.	4r	.	4a	.	8ccc	.	.
8AA)	.	.	.	.	.	8r	.	.
8CC'	.	8f#XL 8a	.	4r	.	8dddL	.	V2/vi
8C'J	.	8f#J 8a	.	.	.	8dddJ	.	.
=138	=138	=138	=138	=138	=138	=138	=138	=138
4BB-	f	4g 4b-	f	4d 4dd	f	(8dddL	fp	i6
.	.	.	.	.	.	8ggg)	.	.
4r	.	4r	.	8ddL	p	8ddd'	.	.
.	.	.	.	8ccJ	.	8ccc'J	.	.
2r	.	4r	.	4b-	.	(8bb-L	.	.
.	.	.	.	.	.	8ddd)	.	.
.	.	8B-L	p	4r	.	8bb-'	.	.
.	.	8AJ	.	.	.	8aa'J	.	.
=139	=139	=139	=139	=139	=139	=139	=139	=139
4r	.	4G	.	2r	.	(8ggL	.	i
.	.	.	.	.	.	8bb-)	.	.
8DL	p	4r	.	.	.	8dd'	.	.
8CJ	.	.	.	.	.	8cc'J	.	.
8BB-	.	4r	.	4r	.	(8b-L	.	.
8r	.	.	.	.	.	8dd)	.	.
!LO:TX:b:i:t=cresc.	!	!LO:TX:b:i:t=cresc.	!	!LO:TX:b:i:t=cresc.	!	!LO:TX:b:i:t=cresc.	!	!
8e-X'L	.	8ee-X'L	.	8ee-X'L	.	8eee-X'	.	.
8d'J	.	8dd'J	.	8dd'J	.	8ddd'J	.	.
=140	=140	=140	=140	=140	=140	=140	=140	=140
(8e-XL	.	(8ee-XL	.	(8ee-XL	.	(8eee-XL	.	VI
8g)	.	8gg)	.	8gg)	.	8ggg)	.	.
8B-'	.	8b-'	.	8b-'	.	8bb-'	.	.
8A-X'J	.	8a-X'J	.	8a-X'J	.	8aa-X'J	.	.
(8GL	.	(8gL	.	(8gL	.	(8ggL	.	.
8B-)	.	8b-)	.	8b-)	.	8bb-)	.	.
8E-X'	.	8e-X'	.	8e-X'	.	8ee-X'	.	.
8D'J	.	8d'J	.	8d'J	.	8dd'J	.	.
=141	=141	=141	=141	=141	=141	=141	=141	=141
(8E-XL	.	(8e-XL	.	(8e-XL	.	(8ee-XL	.	.
8G)	.	8g)	.	8g)	.	8gg)	.	.
8BB-'	.	8B-'	.	8B-'	.	8b-'	.	.
8AA-X'J	.	8A-X'J	.	8A-X'J	.	8a-X'J	.	.
(8GGL	.	(8GL	.	(8GL	.	(8gL	.	.
8BB-)	.	8B-)	.	8B-)	.	8b-)	.	.
8EE-X'	.	8E-X'	.	8e-'	.	8e-X'	.	.
8DD'J	.	8D'J	.	8d'J	.	8d'J	.	.
=142	=142	=142	=142	=142	=142	=142	=142	=142
(8EE-XL	ff	(8E-XL	ff	(8e-XL	ff	(8e-XL	ff	.
8GG)	.	8G)	.	8g)	.	8g)	.	.
8BB-'	.	8B-'	.	8B-'	.	8B-'	.	.
8AA-X'J	.	8A-X'J	.	8A-X'J	.	8A-X'J	.	.
8GG'L	.	8G'L	.	8G'L	.	8G'L	.	.
8BB-'	.	8B-'	.	8B-'	.	8B-'	.	.
8E-X'	.	8e-X'	.	8e-'	.	8e-'	.	.
8G'J	.	8g'J	.	8G'J	.	8g'J	.	.
=143	=143	=143	=143	=143	=143	=143	=143	=143
8B-L	.	8b-L	.	8B-L	.	8b-L	.	VI64
8e-X	.	8G	.	8B-	.	8ee-X	.	.
8B-	.	8B-	.	8e-X	.	8gg	.	.
8GJ	.	8e-XJ	.	8gJ	.	8bb-J	.	.
8E-XL	.	8gL	.	8b-L	.	8eee-XL	.	.
8BB-	.	8b-	.	8ee-X	.	8ggg	.	.
8GG	.	8ee-X	.	8gg	.	8ggg	.	.
8GGJ	.	8ee-J	.	8bb-J	.	8gggJ	.	.
=144	=144	=144	=144	=144	=144	=144	=144	=144
1r	.	2r	.	2cc#X'	p	2eeen'	p	I.#viio/vi
.	.	2c#X' 2e	p	2r	.	2r	.	.
=145	=145	=145	=145	=145	=145	=145	=145	=145
2r	.	1r	.	2Bn 2d	.	2G#X 2f	.	#viio7/iii
2GG#X'	p	.	.	2r	.	2r	.	.
=146	=146	=146	=146	=146	=146	=146	=146	=146
1r	.	2r	.	2cc#X	.	2eee	.	#viio/vi
.	.	2c#X 2e	.	2r	.	2r	.	.
=147	=147	=147	=147	=147	=147	=147	=147	=147
2r	.	1r	.	2Bn 2d	.	2G#X 2f	.	#viio2/iii
2GG#X	.	.	.	2r	.	2r	.	.
=148	=148	=148	=148	=148	=148	=148	=148	=148
1r	.	2r	.	2bn	.	2ddd	.	#iv
.	.	2Bn 2d	.	2r	.	2r	.	.
=149	=149	=149	=149	=149	=149	=149	=149	=149
2r	.	1r	.	2c	.	2e-X	.	vo64
2GG-X	.	.	.	2r	.	2r	.	.
=150	=150	=150	=150	=150	=150	=150	=150	=150
2r	.	2F`	f	2aa`	f	2ccc`	f	I
2F`	f	2cc`	.	2A` 2f	.	2c`	.	.
=151	=151	=151	=151	=151	=151	=151	=151	=151
2BB-`	.	2dd-X`	.	2B-` 2f	.	2d-X`	.	iv
2FF`	.	2B-`	.	2f` 2b-	.	2dd-X`	.	iv64
=152	=152	=152	=152	=152	=152	=152	=152	=152
[1EE	p	[1C [1G	p	[1g	p	(4cc	p	V6
.	.	.	.	.	.	4ddn	.	.
.	.	.	.	.	.	4een	.	.
.	.	.	.	.	.	4ff	.	.
=153	=153	=153	=153	=153	=153	=153	=153	=153
1EE_	.	1C_ 1G_	.	1g_	.	(2.ee)	.	.
.	.	.	.	.	.	8ffL	.	.
.	.	.	.	.	.	8eeJ	.	.
=154	=154	=154	=154	=154	=154	=154	=154	=154
1EE_	.	1C_ 1G_	.	1g_	.	8ddL	.	.
.	.	.	.	.	.	8ee)	.	.
.	.	.	.	.	.	8cc'	.	.
.	.	.	.	.	.	8bn'J	.	.
.	.	.	.	.	.	(8ddL	.	.
.	.	.	.	.	.	8cc)	.	.
.	.	.	.	.	.	8g'	.	.
.	.	.	.	.	.	8f'J	.	.
=155	=155	=155	=155	=155	=155	=155	=155	=155
1EE_	.	1C_ 1G_	.	1g_	.	(8aL	.	.
.	.	.	.	.	.	8g)	.	.
.	.	.	.	.	.	8e'	.	.
.	.	.	.	.	.	8d'J	.	.
.	.	.	.	.	.	(8fL	.	.
.	.	.	.	.	.	8e)	.	.
.	.	.	.	.	.	8c'	.	.
.	.	.	.	.	.	8Bn'J	.	.
=156	=156	=156	=156	=156	=156	=156	=156	=156
1EE_	.	1C_ 1G_	.	1g_	.	8d'L	.	.
.	.	.	.	.	.	8c'	.	.
.	.	.	.	.	.	8f'	.	.
.	.	.	.	.	.	8e'J	.	.
.	.	.	.	.	.	8a'L	.	.
.	.	.	.	.	.	8g'	.	.
.	.	.	.	.	.	8dd'	.	.
.	.	.	.	.	.	8cc'J	.	.
=157	=157	=157	=157	=157	=157	=157	=157	=157
1EE]	.	1C] 1G]	.	1g]	.	8ff'L	.	.
.	.	.	.	.	.	8ee'	.	.
.	.	.	.	.	.	8aa'	.	.
.	.	.	.	.	.	8gg'J	.	.
.	.	.	.	.	.	8ccc'L	.	.
.	.	.	.	.	.	8bbn'	.	.
.	.	.	.	.	.	8ddd-X'	.	.
.	.	.	.	.	.	8ccc'J	.	.
=158	=158	=158	=158	=158	=158	=158	=158	=158
[1FF	.	[1C	.	[1A-X [1a-X	.	(8bb-XL	.	i.i
.	.	.	.	.	.	8aa-X)	.	.
.	.	.	.	.	.	8ff'	.	.
.	.	.	.	.	.	8ee'J	.	.
.	.	.	.	.	.	(8ggL	.	.
.	.	.	.	.	.	8ff)	.	.
.	.	.	.	.	.	8cc'	.	.
.	.	.	.	.	.	8bn'J	.	.
=159	=159	=159	=159	=159	=159	=159	=159	=159
1FF_	.	1C]	.	1A-_ 1a-_	.	(8dd-XL	.	.
.	.	.	.	.	.	8cc)	.	.
.	.	.	.	.	.	8a-X'	.	.
.	.	.	.	.	.	8g'J	.	.
.	.	.	.	.	.	(8b-XL	.	.
.	.	.	.	.	.	8a-)	.	.
.	.	.	.	.	.	8f'	.	.
.	.	.	.	.	.	8e'J	.	.
=160	=160	=160	=160	=160	=160	=160	=160	=160
1FF_	.	[1D-X	.	1A-_ 1a-_	.	8g'L	.	VI6
.	.	.	.	.	.	8f'	.	.
.	.	.	.	.	.	8b-'	.	.
.	.	.	.	.	.	8a-X'J	.	.
.	.	.	.	.	.	8dd-X'L	.	.
.	.	.	.	.	.	8cc'	.	.
.	.	.	.	.	.	8ee-X'	.	.
.	.	.	.	.	.	8dd-'J	.	.
=161	=161	=161	=161	=161	=161	=161	=161	=161
!	!	!	!	!	!	!LO:TX:b:i:t=sempre stacc. e	!	!
1FF]	.	1D-_	.	1A-] 1a-]	.	8gg-X'L	.	.
.	.	.	.	.	.	8ff'	.	.
.	.	.	.	.	.	8bb-'	.	.
.	.	.	.	.	.	8aa-X'J	.	.
.	.	.	.	.	.	8ddd-X'L	p	.
.	.	.	.	.	.	8ccc'	.	.
.	.	.	.	.	.	8eee-X'	.	.
.	.	.	.	.	.	8ddd-'J	.	.
=162	=162	=162	=162	=162	=162	=162	=162	=162
[1GG-X	.	1D-_	.	1B-	.	8cccL	.	.bII
.	.	.	.	.	.	8bb-	.	.
.	.	.	.	.	.	8aa-X	.	.
.	.	.	.	.	.	8gg-XJ	.	.
.	.	.	.	.	.	8ffL	.	.
.	.	.	.	.	.	8ee-X	.	.
.	.	.	.	.	.	8dd-X	.	.
.	.	.	.	.	.	8ccJ	.	.
=163	=163	=163	=163	=163	=163	=163	=163	=163
1GG-]	.	2D-]	.	1b-	.	8b-L	.	.
.	.	.	.	.	.	8a-X	.	.
.	.	.	.	.	.	8g-X	.	.
.	.	.	.	.	.	8fJ	.	.
.	.	2E-X	.	.	.	8ee-XL	.	.bvii6
.	.	.	.	.	.	8dd-X	.	.
.	.	.	.	.	.	8eee-X	.	.
.	.	.	.	.	.	8ddd-XJ	.	.
=164	=164	=164	=164	=164	=164	=164	=164	=164
[1AA-X	.	[1E-X	.	1c	.	8cccL	.	III
.	.	.	.	.	.	8bb-	.	.
.	.	.	.	.	.	8aa-X	.	.
.	.	.	.	.	.	8gg-XJ	.	.
.	.	.	.	.	.	8ffL	.	.
.	.	.	.	.	.	8ee-X	.	.
.	.	.	.	.	.	8dd-X	.	.
.	.	.	.	.	.	8ccJ	.	.
=165	=165	=165	=165	=165	=165	=165	=165	=165
1AA-]	.	(2E-]	.	1cc	.	8b-L	.	.
.	.	.	.	.	.	8a-X	.	.
.	.	.	.	.	.	8g-X	.	.
.	.	.	.	.	.	8fJ	.	.
.	.	[2F)	.	.	.	8gg-XL	.	i6
.	.	.	.	.	.	8ff	.	.
.	.	.	.	.	.	8fff	.	.
.	.	.	.	.	.	8eee-XJ	.	.
=166	=166	=166	=166	=166	=166	=166	=166	=166
1BB-	.	(2F]	.	(2d-X	.	8ddd-XL	.	iv
.	.	.	.	.	.	8ccc	.	.
.	.	.	.	.	.	8bb-	.	.
.	.	.	.	.	.	8aa-XJ	.	.
.	.	[2G-X)	.	2dd-X	.	8gg-XL	.	.bII6
.	.	.	.	.	.	8ff	.	.
.	.	.	.	.	.	8ggg-X	.	.
.	.	.	.	.	.	8fffJ	.	.
=167	=167	=167	=167	=167	=167	=167	=167	=167
[1C	.	2G-]	.	2e-X	.	8eee-XL	.	v
.	.	.	.	.	.	8ddd-X	.	.
.	.	.	.	.	.	8ccc	.	.
.	.	.	.	.	.	8bb-J	.	.
.	.	[2A-X	.	2ee-X)	.	8aa-XL	.	III6
.	.	.	.	.	.	8gg-X	.	.
.	.	.	.	.	.	8ff	.	.
.	.	.	.	.	.	8ee-XJ	.	.
=168	=168	=168	=168	=168	=168	=168	=168	=168
1C]	.	1A-_	.	2.ee-X	.	8dd-XL	.	.bVI.V6
.	.	.	.	.	.	8cc	.	.
.	.	.	.	.	.	8b-	.	.
.	.	.	.	.	.	8a-XJ	.	.
.	.	.	.	.	.	8g-XL	.	.
.	.	.	.	.	.	8f	.	.
.	.	.	.	[4e-X	.	8e-X	.	.
.	.	.	.	.	.	8d-XJ	.	.
=169	=169	=169	=169	=169	=169	=169	=169	=169
(4C	.	1A-_	.	(4e-]	.	8cL	.	V65
.	.	.	.	.	.	8A-X	.	.
4D-X	.	.	.	4f	.	8B-	.	.
.	.	.	.	.	.	8A-J	.	.
4E-X	.	.	.	4g-X	.	8B-L	.	.
.	.	.	.	.	.	8A-	.	.
4F)	.	.	.	4a-X)	.	8e-X	.	.
.	.	.	.	.	.	8d-XJ	.	.
=170	=170	=170	=170	=170	=170	=170	=170	=170
1D-X	.	(4A-]	.	1f	.	8g-XL	.	I
.	.	.	.	.	.	8f	.	.
.	.	4B-	.	.	.	8b-	.	.
.	.	.	.	.	.	8a-XJ	.	.
.	.	4c	.	.	.	8b-L	.	.
.	.	.	.	.	.	8a-	.	.
.	.	4d-X)	.	.	.	8ee-X	.	.
.	.	.	.	.	.	8dd-XJ	.	.
=171	=171	=171	=171	=171	=171	=171	=171	=171
!LO:TX:b:i:t=cresc.	!	!LO:TX:b:i:t=cresc.	!	!LO:TX:b:i:t=cresc.	!	!LO:TX:b:i:t=cresc.	!	!
(4C	.	[1A-X	.	(4e-X	.	8b-L	.	V65
.	.	.	.	.	.	8a-X	.	.
4D-X	.	.	.	4f	.	8b-	.	.
.	.	.	.	.	.	8a-J	.	.
4E-X	.	.	.	4g-X	.	8dd-XL	.	.
.	.	.	.	.	.	8cc	.	.
4F)	.	.	.	4a-X)	.	8ee-X	.	.
.	.	.	.	.	.	8dd-J	.	.
=172	=172	=172	=172	=172	=172	=172	=172	=172
(2.D-X	.	(4A-]	.	1f	.	8gg-XL	.	I
.	.	.	.	.	.	8ff	.	.
.	.	4B-	.	.	.	8aa-X	.	.
.	.	.	.	.	.	8gg-J	.	.
.	.	4c	.	.	.	8bb-L	.	.
.	.	.	.	.	.	8aa-	.	.
4A-X	.	4d-X)	.	.	.	8eee-X	.	.
.	.	.	.	.	.	8ddd-XJ	.	.
=173	=173	=173	=173	=173	=173	=173	=173	=173
4F	.	(4A-X	.	4d	.	8cccL	.	ii6
.	.	.	.	.	.	8bb-	.	.
4G-X	.	4B-	.	4e-X	.	8fff	.	.
.	.	.	.	.	.	8eee-XJ	.	.
4A-X	.	4dn	.	4f	.	8ggg-XL	.	.
.	.	.	.	.	.	8fff	.	.
4B-)	.	4e-X)	.	4g-X	.	8aaa-X	.	.
.	.	.	.	.	.	8ggg-J	.	.
=174	=174	=174	=174	=174	=174	=174	=174	=174
(2.A-X	f	2.d-X	f	2.f	f	8bbb-L	f	.
.	.	.	.	.	.	8aaa-X	.	V(64)
.	.	.	.	.	.	8bbb-	.	.
.	.	.	.	.	.	8aaa-J	.	.
.	.	.	.	.	.	8bbb-L	.	.
.	.	.	.	.	.	8aaa-	.	.
8G-XL	.	(8cL	.	(8e-XL	.	8bbb-	.	.
8FJ)	.	8d-J	.	8fJ	.	8aaa-J	.	.
=175	=175	=175	=175	=175	=175	=175	=175	=175
(4E-X	.	4e-X	.	4g-X	.	8bbb-L	.	V43
.	.	.	.	.	.	8aaa-X	.	.
2A-X	.	8cL	.	8e-XL	.	8ggg-X	.	.
.	.	8d-XJ	.	8fJ	.	8fffJ	.	.
.	.	8e-L	.	8g-L	.	8eee-XL	.	.
.	.	8f	.	8a-X	.	8ddd-X	.	.
4G-X)	.	8g-X	.	8b-	.	8ccc	.	V2
.	.	8a-XJ)	.	8ccJ)	.	8eee-J	.	.
=176	=176	=176	=176	=176	=176	=176	=176	=176
1F	p	2.a-X	p	2.dd-X	p	(4aa-X	p	I6
.	.	.	.	.	.	4bb-	.	.
.	.	.	.	.	.	4ccc	.	.
.	.	(4d-X	.	[4a-X	.	4ddd-X)	.	.
=177	=177	=177	=177	=177	=177	=177	=177	=177
!LO:TX:b:i:t=cresc.	!	!LO:TX:b:i:t=cresc.	!	!LO:TX:b:i:t=cresc.	!	!LO:TX:b:i:t=cresc.	!	!
1G-X	.	(4dn)	.	(4a-]	.	1bb-	.	IV
.	.	4e-X	.	4g-X	.	.	.	.
.	.	4f	.	4f	.	.	.	.
.	.	4g-X)	.	4e-X)	.	.	.	.
=178	=178	=178	=178	=178	=178	=178	=178	=178
[1A-X	sf > ]]	(4en	sf >	1d-X	sf > ]]	(2.aa-X	sf >	V7(64)
.	.	4f	.	.	.	.	.	.
.	.	4g-X	.	.	.	.	.	.
.	.	4a-X)	]]	.	.	8gg-XL	.	.
.	.	.	.	.	.	8ffJ)	]]	.
=179	=179	=179	=179	=179	=179	=179	=179	=179
!	!	!LO:TX:a:t=	!	!LO:TX:a:t=	!	!	!	!
1A-]	.	1g-Xt	.	1cT	.	1ee-XT	.	V7
=180	=180	=180	=180	=180	=180	=180	=180	=180
1d-X	p	(4f	p	(4d-X	p	1dd-X	p	I\\
.	.	4g-X	.	4e-X	.	.	.	.
.	.	4a-X	.	4f	.	.	.	.
.	.	8b-L	.	8g-XL	.	.	.	.
.	.	8a-J)	.	8fJ)	.	.	.	.
=181	=181	=181	=181	=181	=181	=181	=181	=181
(4A-X	.	(2.e-X	.	(2.g-X	.	(4cc	.	V7
4G-X	.	.	.	.	.	4dd-X	.	.
4F	.	.	.	.	.	4ee-X	.	.
8E-XL	.	4c)	.	4a-X)	.	8ffL	.	.
8A-J)	.	.	.	.	.	8ee-J)	.	.
=182	=182	=182	=182	=182	=182	=182	=182	=182
2.A-X	.	(8d-XL	.	(8fL	.	1dd-X	.	I6
.	.	8e-X)	.	8g-X)	.	.	.	.
.	.	8d-'	.	8f'	.	.	.	.
.	.	8e-'J	.	8g-'J	.	.	.	.
.	.	(8fL	.	(8a-XL	.	.	.	.
.	.	8g-X)	.	8b-)	.	.	.	.
([4AA-X	.	8f'	.	8a-'	.	.	.	.
.	.	8g-'J	.	8b-'J	.	.	.	.
=183	=183	=183	=183	=183	=183	=183	=183	=183
4AA-]	.	(2.e-X	.	(2.g-X	.	(8ccL	.	V7
.	.	.	.	.	.	8dd-X)	.	.
4GG-X	.	.	.	.	.	8cc'	.	.
.	.	.	.	.	.	8dd-'J	.	.
4FF	.	.	.	.	.	(8ee-XL	.	.
.	.	.	.	.	.	8ff)	.	.
8EE-XL	.	4g-X)	.	4a-X)	.	8ee-'	.	.
8AA-XJ)	.	.	.	.	.	8ff'J	.	.
=184	=184	=184	=184	=184	=184	=184	=184	=184
4BB-'	f	4f'	f	4b-'	f	(8ddnL	f	V/ii
.	.	.	.	.	.	8ee-X)	>	.
4r	.	4r	.	4r	.	8dd'	.	.
.	.	.	.	.	.	8ee-'J	.	.
2r	.	2r	.	2r	.	(8ffL	.	.
.	.	.	.	.	.	8gg-X)	.	.
.	.	.	.	.	.	8ff'	.	.
.	.	.	.	.	.	8gg-'J	]]	.
=185	=185	=185	=185	=185	=185	=185	=185	=185
1r	.	1r	.	2r	.	(8ee-XL	p	ii
.	.	.	.	.	.	8ff)	>	.
.	.	.	.	.	.	8ee-'	.	.
.	.	.	.	.	.	8ff'J	.	.
.	.	.	.	[2ee-X	pp	(8gg-XL	] pp	.
.	.	.	.	.	.	8aa-X)	.	.
.	.	.	.	.	.	8gg-'	.	.
.	.	.	.	.	.	8aa-'J	.	.
=186	=186	=186	=186	=186	=186	=186	=186	=186
1r	.	1r	.	2ee-]	.	(8ffL	.	.
.	.	.	.	.	.	8gg-X)	.	.
.	.	.	.	.	.	8ff'	.	.
.	.	.	.	.	.	8gg-'J	.	.
.	.	.	.	2dd	.	(8aa-XL	.	V/ii
.	.	.	.	.	.	8bb-)	.	.
.	.	.	.	.	.	8aa-'	.	.
.	.	.	.	.	.	8bb-'J	.	.
=187	=187	=187	=187	=187	=187	=187	=187	=187
1r	.	1r	.	4ee-X'	.	(8gg-XL	.	ii
.	.	.	.	.	.	8aa-X)	.	.
.	.	.	.	4b-'	.	8gg-'	.	V7/ii
.	.	.	.	.	.	8aa-'J	.	.
!	!	!	!	!LO:TX:b:Bi:t=sempre	!	!	!	!
.	.	.	.	[2gg-X	.	(8bb-L	.	ii6
.	.	.	.	.	.	8ccc-X)	.	.
.	.	.	.	.	.	8bb-'	.	.
.	.	.	.	.	.	8ccc-'J	.	.
=188	=188	=188	=188	=188	=188	=188	=188	=188
1r	.	1r	.	2gg-]	.	(8aanL	.	.
.	.	.	.	.	.	8bb-)	.	.
.	.	.	.	.	.	8aa'	.	.
.	.	.	.	.	.	8bb-'J	.	.
.	.	.	.	[2ff	.	(8cccnL	.	V/vi
.	.	.	.	.	.	8ddd-X)	.	.
.	.	.	.	.	.	8ccc'	.	.
.	.	.	.	.	.	8ddd-'J	.	.
=189	=189	=189	=189	=189	=189	=189	=189	=189
1r	.	1r	.	(4ff]	.	(8eee-XL	.	.
.	.	.	.	.	.	8ddd-X)	.	.
.	.	.	.	8ee-XL	.	8ccc'	.	.
.	.	.	.	8dd-XJ	.	8bb-'J	.	.
.	.	.	.	4cc	.	8aan'L	.	.
.	.	.	.	.	.	8bb-'	.	.
.	.	.	.	4ff)	.	8ccc'	.	.
.	.	.	.	.	.	8aa'J	.	.
=190	=190	=190	=190	=190	=190	=190	=190	=190
1r	.	2r	.	(8b-L	.	4bb-	.	vi
.	.	.	.	8cc)	.	.	.	.
.	.	.	.	8b-'	.	4r	.	.
.	.	.	.	8cc'J	.	.	.	.
.	.	[2b-	pp	(8dd-XL	.	2r	.	.
.	.	.	.	8ee-X)	.	.	.	.
.	.	.	.	8dd-'	.	.	.	.
.	.	.	.	8ee-'J	.	.	.	.
=191	=191	=191	=191	=191	=191	=191	=191	=191
1r	.	2b-]	.	(8ccL	.	1r	.	V65/vi
.	.	.	.	8dd-X)	.	.	.	.
.	.	.	.	8cc'	.	.	.	.
.	.	.	.	8dd-'J	.	.	.	.
.	.	2an	.	(8ee-XL	.	.	.	.
.	.	.	.	8ff)	.	.	.	.
.	.	.	.	8ee-'	.	.	.	.
.	.	.	.	8ff'J	.	.	.	.
=192	=192	=192	=192	=192	=192	=192	=192	=192
1r	.	4b-'	.	(8dd-XL	.	1r	.	I
.	.	.	.	8ee-X)	.	.	.	.
.	.	4f'	.	8dd-'	.	.	.	.
.	.	.	.	8ee-'J	.	.	.	.
.	.	[2dd-X	.	(8ffL	.	.	.	.
.	.	.	.	8gg-X)	.	.	.	.
.	.	.	.	8ff'	.	.	.	.
.	.	.	.	8gg-'J	.	.	.	.
=193	=193	=193	=193	=193	=193	=193	=193	=193
1r	.	(2dd-]	.	(8ee-XL	.	1r	.	.bVII
.	.	.	.	8ff)	.	.	.	.
.	.	.	.	8ee-'	.	.	.	.
.	.	.	.	8ff'J	.	.	.	.
!	!	!LO:TX:b:Bi:t=sempre	!	!	!	!	!	!
.	.	[2cc-X)	.	(8gg-XL	.	.	.	.
.	.	.	.	8aa-X)	.	.	.	.
.	.	.	.	8gg-'	.	.	.	.
.	.	.	.	8aa-'J	.	.	.	.
=194	=194	=194	=194	=194	=194	=194	=194	=194
1r	.	(8cc-L]	.	(8ddnL	.	1r	.	#io65
.	.	8b-)	.	8ee-X)	.	.	.	.
.	.	8a-X'	.	8ff'	.	.	.	.
.	.	8g-X'J	.	8gg-X'J	.	.	.	.
.	.	(4f	.	8aa-X'L	.	.	.	.
.	.	.	.	8bb-'	.	.	.	.
.	.	4b-)	.	8ccc-X'	.	.	.	.
.	.	.	.	8dd'J	.	.	.	.
=195	=195	=195	=195	=195	=195	=195	=195	=195
1r	.	(8e-XL	.	4ee-X	.	2r	.	ii
.	.	8f)	.	.	.	.	.	.
.	.	8e-'	.	4r	.	.	.	.
.	.	8f'J	.	.	.	.	.	.
.	.	(8g-XL	.	(8b-L	.	[2ee-X	pp	ii6
.	.	8a-X)	.	8cc-X)	.	.	.	.
.	.	8g-'	.	8b-'	.	.	.	.
.	.	8a-'J	.	8cc-'J	.	.	.	.
=196	=196	=196	=196	=196	=196	=196	=196	=196
1r	.	(8fL	.	4a-X	.	2ee-]	.	#io6(7)
.	.	8g-X)	.	.	.	.	.	.
.	.	8f'	.	4r	.	.	.	.
.	.	8g-'J	.	.	.	.	.	.
.	.	(8a-XL	.	(8fL	.	2dd	.	#io6
.	.	8b-)	.	8g-X)	.	.	.	.
.	.	8a-'	.	8f'	.	.	.	.
.	.	8b-'J	.	8g-'J	.	.	.	.
=197	=197	=197	=197	=197	=197	=197	=197	=197
1r	.	(8g-XL	.	4e-X	.	4ee-X'	.	ii6
.	.	8a-X)	.	.	.	.	.	.
.	.	8g-'	.	4r	.	4b-'	.	.
.	.	8a-'J	.	.	.	.	.	.
.	.	(8b-L	.	[2e-	.	[2gg-X	.	.bVII
.	.	8cc-X)	.	.	.	.	.	.
.	.	8b-'	.	.	.	.	.	.
.	.	8cc-'J	.	.	.	.	.	.
=198	=198	=198	=198	=198	=198	=198	=198	=198
2r	.	(8anL	.	2e-]	.	2gg-]	.	#vo7
.	.	8b-)	.	.	.	.	.	.
.	.	8ccn'	.	.	.	.	.	.
.	.	8a'J	.	.	.	.	.	.
[2BB-	pp	8b-'L	.	[2d-X	.	[2ff	.	vi
.	.	8f'	.	.	.	.	.	.
.	.	8d-X'	.	.	.	.	.	.
.	.	8B-'J	.	.	.	.	.	.
=199	=199	=199	=199	=199	=199	=199	=199	=199
2BB-]	.	8G-XL	.	4d-]	.	(4ff]	.	.
.	.	8A-X	.	.	.	.	.	.
.	.	8G-'	.	2c	.	8ee-XL	.	.
.	.	8F'J	.	.	.	8dd-XJ	.	.
2AA	.	8E-X'L	.	.	.	4cc	.	V65/vi
.	.	8D-X'	.	.	.	.	.	.
.	.	8C'	.	[4cc	.	4ff)	.	.
.	.	8c'J	.	.	.	.	.	.
=200	=200	=200	=200	=200	=200	=200	=200	=200
4BB-'	.	4F	.	2cc]	.	(8dd-XL	.	vi(9)
.	.	.	.	.	.	8ee-X)	.	.
4FF'	.	4r	.	.	.	8dd-'	.	.
.	.	.	.	.	.	8ee-'J	.	.
[2D-X	.	2r	.	[2b-	.	(8ffL	.	vi6
.	.	.	.	.	.	8gg-X)	.	.
.	.	.	.	.	.	8ff'	.	.
.	.	.	.	.	.	8gg-'J	.	.
=201	=201	=201	=201	=201	=201	=201	=201	=201
!LO:TX:b:i:t=cresc.	!	!	!	!	!	!LO:TX:b:i:t=cresc.	!	!
2D-]	.	1r	.	4b-]	.	(8eenL	.	.
.	.	.	.	.	.	8ff)	.	.
!	!	!	!	!LO:TX:b:i:t=cresc.	!	!	!	!
.	.	.	.	8gn'L	.	8ee'	.	.
.	.	.	.	8a-X'J	.	8ff'J	.	.
[2C	.	.	.	(8enL	.	(8ggnL	.	V/iii
.	.	.	.	8f)	.	8aa-X)	.	.
.	.	.	.	8e'	.	8gg'	.	.
.	.	.	.	8f'J	.	8aa-'J	.	.
=202	=202	=202	=202	=202	=202	=202	=202	=202
(4C]	.	2r	.	(8gL	.	(8bb-L	.	V7/iii
.	.	.	.	8a-X)	.	8ccc)	.	.
8BB-L	.	.	.	8g'	.	8bb-'	.	.
8AA-XJ	.	.	.	8a-'J	.	8ccc'J	.	.
4GG	.	[2b-	f	(8b-L	.	(8dddL	.	.
.	.	.	.	8cc)	.	8eeen)	.	.
4C)	.	.	.	8cc'	.	8ddd'	.	.
.	.	.	.	8cc'J	.	8eee'J	.	.
=203	=203	=203	=203	=203	=203	=203	=203	=203
(8FFL	f	2b-]	.	4cc	f	4fff	f	iii(4)
8GG)	.	.	.	.	.	.	.	.
8FF'	.	.	.	4r	.	4r	.	.
8GG'J	.	.	.	.	.	.	.	.
(8AA-XL	.	2a-X	.	[2f	.	[2ff	.	iii6
8BB-)	.	.	.	.	.	.	.	.
8AA-'	.	.	.	.	.	.	.	.
8BB-'J	.	.	.	.	.	.	.	.
=204	=204	=204	=204	=204	=204	=204	=204	=204
(8GGL	.	2r	.	2f]	.	2ff]	.	.
8AA-X)	.	.	.	.	.	.	.	.
8GG'	.	.	.	.	.	.	.	.
8AA-'J	.	.	.	.	.	.	.	.
(8BB-L	.	[2G	sf	2en	.	2een	.	V2/iii
8C)	.	.	.	.	.	.	.	.
8BB-'	.	.	.	.	.	.	.	.
8C'J	.	.	.	.	.	.	.	.
=205	=205	=205	=205	=205	=205	=205	=205	=205
(8AA-XL	.	2G]	.	4f'	.	4ff'	.	iii6(7)
8BB-)	.	.	.	.	.	.	.	.
8AA-'	.	.	.	4c'	.	4cc'	.	.
8BB-'J	.	.	.	.	.	.	.	.
(8CL	.	2F	.	[2a-X	sf	[2aa-X	sf	iii64
8D-X)	.	.	.	.	.	.	.	.
8C'	.	.	.	.	.	.	.	.
8D-'J	.	.	.	.	.	.	.	.
=206	=206	=206	=206	=206	=206	=206	=206	=206
(8BB-L	.	4G-X'	.	(2a-]	.	(2aa-]	.	IV6(7)
8C)	.	.	.	.	.	.	.	.
8BB-'	.	4D-X'	.	.	.	.	.	.
8C'J	.	.	.	.	.	.	.	.
(8D-XL	.	[2B-X	sf	2g-X)	.	2gg-X)	.	IV64
8E-X)	.	.	.	.	.	.	.	.
8D-'	.	.	.	.	.	.	.	.
8E-'J	.	.	.	.	.	.	.	.
=207	=207	=207	=207	=207	=207	=207	=207	=207
(8CL	.	2B-]	.	4an'	.	4aan'	.	III7(4)
8D-X)	.	.	.	.	.	.	.	.
8C'	.	.	.	4e-X'	.	4ee-X'	.	.
8D-'J	.	.	.	.	.	.	.	.
(8E-XL	.	2An	.	[2cc	sf	[2ccc	sf	III7
8F)	.	.	.	.	.	.	.	.
8E-'	.	.	.	.	.	.	.	.
8F'J	.	.	.	.	.	.	.	.
=208	=208	=208	=208	=208	=208	=208	=208	=208
(8DnL	.	4Bn'	.	(2cc]	.	(2ccc]	.	.
8E-X)	.	.	.	.	.	.	.	.
8D'	.	4F'	.	.	.	.	.	.
8E-'J	.	.	.	.	.	.	.	.
(8FL	.	[2d	sf	2bn)	.	2bbn)	.	V.viio64
8G)	.	.	.	.	.	.	.	.
8F'	.	.	.	.	.	.	.	.
8G'J	.	.	.	.	.	.	.	.
=209	=209	=209	=209	=209	=209	=209	=209	=209
(8EnL	.	2d]	.	4cc'	.	4ccc'	.	I6(7)
8F)	.	.	.	.	.	.	.	.
8E'	.	.	.	4g'	.	4gg'	.	.
8F'J	.	.	.	.	.	.	.	.
(8GL	.	2c	.	[2een	.	[2eeen	.	I64
8A-X)	.	.	.	.	.	.	.	.
8G'	.	.	.	.	.	.	.	.
8A-'J	.	.	.	.	.	.	.	.
=210	=210	=210	=210	=210	=210	=210	=210	=210
[1F	sf	[1Bn [1a-X	sf	(2ee]	.	(2eee]	.	#viio43
.	.	.	.	[2dd)	sf	[2ddd)	sf	.
=211	=211	=211	=211	=211	=211	=211	=211	=211
!LO:TX:b:i:t=dim.	!	!LO:TX:b:i:t=dim.	!	!LO:TX:b:i:t=dim.	!	!LO:TX:b:i:t=dim.	!	!
1F_	.	1B_ 1a-_	.	2dd]	.	2ddd]	.	.
.	.	.	.	[2bn	.	[2bbn	.	.
=212	=212	=212	=212	=212	=212	=212	=212	=212
1F_	.	2B] 2a-]	.	(2b]	.	(2bb]	.	.
.	.	[2Bn [2d	.	[2a-X)	.	[2aa-X)	.	.
=213	=213	=213	=213	=213	=213	=213	=213	=213
1F_	.	1B_ 1d_	.	4a-]	.	4aa-]	.	.
.	.	.	.	2f	.	2ff	.	.
.	.	.	.	[4d	.	[4dd	.	.
=214	=214	=214	=214	=214	=214	=214	=214	=214
4F]	.	4B] 4d]	.	4d]	.	4dd]	.	.
4r	.	2Bn	.	4r	.	2bn	.	.
2r	.	.	.	2r	.	.	.	.
.	.	[4A-X	.	.	.	[4a-X	.	.
=215	=215	=215	=215	=215	=215	=215	=215	=215
4r	.	4A-]	.	1r	.	4a-]	.	#viio7
2F	.	4r	.	.	.	2f	.	.
.	.	2r	.	.	.	.	.	.
[4D	.	.	.	.	.	[4d	.	.
=216	=216	=216	=216	=216	=216	=216	=216	=216
4D]	.	4r	.	4r	.	4d]	.	.
2BBn	.	2Bn	.	2Bn	.	2Bn	.	.
[4AA-X	.	[4A-X	.	[4A-X	.	[4A-X	.	#viio2
=217	=217	=217	=217	=217	=217	=217	=217	=217
4AA-]	.	4A-]	.	4A-]	.	4A-]	.	.
2GG	.	2G	.	2G	.	2G	.	V[V
4GG	.	4G	.	4G	.	4G	.	.
=218	=218	=218	=218	=218	=218	=218	=218	=218
[1GG	p	1r	.	(1G	p	[1G	p	.
=219	=219	=219	=219	=219	=219	=219	=219	=219
1GG_	.	(4D	p	4Bn	.	1G_	.	V64
.	.	4E	.	4c	.	.	.	.
.	.	4F	.	4d	.	.	.	.
.	.	4G	.	4e	.	.	.	.
=220	=220	=220	=220	=220	=220	=220	=220	=220
1GG_	.	2.E	.	2.c	.	12GL]	.	I6
.	.	.	.	.	.	12c	.	.
.	.	.	.	.	.	12eJ	.	.
.	.	.	.	.	.	12gL	.	.
.	.	.	.	.	.	12cc	.	.
.	.	.	.	.	.	12eeJ	.	.
.	.	.	.	.	.	12ggL	.	.
.	.	.	.	.	.	12ee	.	.
.	.	.	.	.	.	12ccJ	.	.
.	.	8FL	.	8dL	.	12gL	.	.
.	.	.	.	.	.	12e	.	.
.	.	8EJ)	.	8cJ)	.	.	.	.
.	.	.	.	.	.	12cJ	.	.
=221	=221	=221	=221	=221	=221	=221	=221	=221
1GG]	.	(8DL	.	(8BnL	.	1G	.	V]
.	.	8E)	.	8c)	.	.	.	.
.	.	8D'	.	8B'	.	.	.	.
.	.	8E'J	.	8c'J	.	.	.	.
.	.	(8FL	.	(8dL	.	.	.	.
.	.	8G)	.	8e)	.	.	.	.
.	.	8F'	.	8d'	.	.	.	.
.	.	8G'J	.	8e'J	.	.	.	.
=222	=222	=222	=222	=222	=222	=222	=222	=222
4C	.	4E	.	4c	.	4c	.	I
4r	.	4r	.	4r	.	(12ggL	.	.
.	.	.	.	.	.	12ff	.	.
.	.	.	.	.	.	12eeJ	.	.
2r	.	2r	.	2r	.	12ddL	.	.
.	.	.	.	.	.	12ee	.	.
.	.	.	.	.	.	12ccJ	.	.
.	.	.	.	.	.	4ccc)	.	.
=223	=223	=223	=223	=223	=223	=223	=223	=223
4c	.	4f#X	.	4a	.	4r	.	vio65
4r	.	4r	.	4r	.	(12aaL	.	.
.	.	.	.	.	.	12gg	.	.
.	.	.	.	.	.	12ff#XJ	.	.
2r	.	2r	.	2r	.	12eeL	.	.
.	.	.	.	.	.	12ff#	.	.
.	.	.	.	.	.	12ddJ	.	.
.	.	.	.	.	.	4ddd)	.	.
=224	=224	=224	=224	=224	=224	=224	=224	=224
(4G	.	(4B-	.	1r	.	4r	.	v
4A	.	4c	.	.	.	(12ddL	.	.
.	.	.	.	.	.	12cc	.	.
.	.	.	.	.	.	12b-J	.	.
4B-	.	4d	.	.	.	12aL	.	.
.	.	.	.	.	.	12b-	.	.
.	.	.	.	.	.	12gJ	.	.
4c	.	4e-X	.	.	.	[4gg)	.	i
=225	=225	=225	=225	=225	=225	=225	=225	=225
2.B-	.	2.d	.	4r	.	4gg]	.	v6
.	.	.	.	(12ddL	.	4r	.	.
.	.	.	.	12cc	.	.	.	.
.	.	.	.	12b-J	.	.	.	.
.	.	.	.	12aL	.	2r	.	v
.	.	.	.	12b-	.	.	.	.
.	.	.	.	12gJ	.	.	.	.
4G)	.	4B-)	.	[4dd)	.	.	.	.
=226	=226	=226	=226	=226	=226	=226	=226	=226
(4D	.	(4F#X	.	4dd]	.	4r	.	V/V
4E	.	4G	.	4r	.	(12aaL	.	.
.	.	.	.	.	.	12gg	.	.
.	.	.	.	.	.	12ff#XJ	.	.
4F#X	.	4A	.	2r	.	12eeL	.	.
.	.	.	.	.	.	12ff#	.	.
.	.	.	.	.	.	12ddJ	.	.
4G	.	4B-	.	.	.	[4ddd)	.	v
=227	=227	=227	=227	=227	=227	=227	=227	=227
2.Fn	.	2.A	.	4r	.	4ddd]	.	ii6
.	.	.	.	(12aaL	.	4r	.	.
.	.	.	.	12gg	.	.	.	.
.	.	.	.	12ffnJ	.	.	.	.
.	.	.	.	12eeL	.	2r	.	ii
.	.	.	.	12ff	.	.	.	.
.	.	.	.	12ddJ	.	.	.	.
4D)	.	4Fn)	.	[4aa)	.	.	.	.
=228	=228	=228	=228	=228	=228	=228	=228	=228
1r	.	4r	.	(4aa]	.	(4ccc#X	.	V/ii
.	.	(12eL	.	4bbn	.	4ddd	.	.
.	.	12d	.	.	.	.	.	.
.	.	12c#XJ	.	.	.	.	.	.
.	.	12BnL	.	4ccc#X	.	4eee	.	.
.	.	12c#	.	.	.	.	.	.
.	.	12AJ	.	.	.	.	.	.
.	.	[4a)	.	4ddd	.	4fff	.	ii64
=229	=229	=229	=229	=229	=229	=229	=229	=229
4r	.	4a]	.	2.cccn	.	2.eee	.	vi
(12EL	.	4r	.	.	.	.	.	.
12D	.	.	.	.	.	.	.	.
12C#XJ	.	.	.	.	.	.	.	.
12BBnL	.	2r	.	.	.	.	.	.
12C#	.	.	.	.	.	.	.	.
12AAJ	.	.	.	.	.	.	.	.
[4E)	.	.	.	4aa)	.	4ccc)	.	vi64
=230	=230	=230	=230	=230	=230	=230	=230	=230
(4E]	.	(4G#X	.	1r	.	4r	.	V/vi
4F#X	.	4A	.	.	.	(12bbnL	.	.
.	.	.	.	.	.	12aa	.	.
.	.	.	.	.	.	12gg#XJ	.	.
4G#X	.	4Bn	.	.	.	12ff#XL	.	.
.	.	.	.	.	.	12gg#	.	.
.	.	.	.	.	.	12eeJ	.	.
4A	.	4c	.	.	.	[4eee)	.	vi
=231	=231	=231	=231	=231	=231	=231	=231	=231
2.Gn	.	2.Bn	.	4r	.	4eee]	.	iii6
.	.	.	.	(12bnL	.	4r	.	.
.	.	.	.	12a	.	.	.	.
.	.	.	.	12gnJ	.	.	.	.
.	.	.	.	12f#XL	.	2r	.	iii
.	.	.	.	12g	.	.	.	.
.	.	.	.	12eJ	.	.	.	.
4E)	.	4Gn)	.	[4ee)	.	.	.	.
=232	=232	=232	=232	=232	=232	=232	=232	=232
1r	.	4r	.	(4ee]	.	(4gg	.	I.V7
.	.	(12FL	.	4ffn	.	4aa	.	.
.	.	12E	.	.	.	.	.	.
.	.	12DJ	.	.	.	.	.	.
.	.	12CL	.	4gg	.	4bb-X	.	.
.	.	12D	.	.	.	.	.	.
.	.	12BB-J	.	.	.	.	.	.
.	.	[4B-)	.	4aa)	.	4ccc)	.	.
=233	=233	=233	=233	=233	=233	=233	=233	=233
4r	.	4B-]	.	2.gg	.	2.bb-	.	.
(12GGL	.	4r	.	.	.	.	.	.
12FF	.	.	.	.	.	.	.	.
12EEJ	.	.	.	.	.	.	.	.
12DDL	.	2r	.	.	.	.	.	.
12EE	.	.	.	.	.	.	.	.
12CCJ	.	.	.	.	.	.	.	.
[4C)	.	.	.	[4ee	.	[4gg	.	.
=234	=234	=234	=234	=234	=234	=234	=234	=234
4C]	.	(12GL	.	(4ee]	.	(4gg]	.	.
.	.	12F	.	.	.	.	.	.
.	.	12EJ	.	.	.	.	.	.
4r	.	12DL	.	4ff	.	4aa	.	.
.	.	12E	.	.	.	.	.	.
.	.	12CJ)	.	.	.	.	.	.
2r	.	12cL	.	4gg	.	4bb-	.	.
.	.	12c	.	.	.	.	.	.
.	.	12cJ	.	.	.	.	.	.
.	.	12cL	.	4aa)	.	4ccc)	.	.
.	.	12c	.	.	.	.	.	.
.	.	12cJ	.	.	.	.	.	.
=235	=235	=235	=235	=235	=235	=235	=235	=235
(12GGL	.	4c	.	(2.gg	.	(2.bb-	.	V[V6
12FF	.	.	.	.	.	.	.	.
12EEJ	.	.	.	.	.	.	.	.
12DDL	.	4r	.	.	.	.	.	.
12EE	.	.	.	.	.	.	.	.
12CCJ)	.	.	.	.	.	.	.	.
12CL	.	2r	.	.	.	.	.	.
12C	.	.	.	.	.	.	.	.
12CJ	.	.	.	.	.	.	.	.
12CL	.	.	.	4ee)	.	4gg)	.	.
12C	.	.	.	.	.	.	.	.
12CJ	.	.	.	.	.	.	.	.
=236	=236	=236	=236	=236	=236	=236	=236	=236
!LO:TX:b:Bi:t=sempre 	!	!	!	!	!	!LO:TX:b:Bi:t=sempre 	!	!
[1C	.	4r	.	4r	.	(12bb-L	.	viio
.	.	.	.	.	.	12aa	.	.
.	.	.	.	.	.	12ggJ	.	.
!	!	!LO:TX:b:Bi:t=sempre 	!	!LO:TX:b:Bi:t=sempre 	!	!	!	!
.	.	2e	.	2g	.	12ffL	.	.
.	.	.	.	.	.	12gg	.	.
.	.	.	.	.	.	12eeJ	.	.
.	.	.	.	.	.	12ffL	.	.
.	.	.	.	.	.	12gg	.	.
.	.	.	.	.	.	12eeJ	.	.
.	.	[4f	.	[4a	.	12ggL	.	I
.	.	.	.	.	.	12aa	.	.
.	.	.	.	.	.	12ffJ)	.	.
=237	=237	=237	=237	=237	=237	=237	=237	=237
1C_	.	4f]	.	4a]	.	(12ggL	.	.
.	.	.	.	.	.	12aa	.	.
.	.	.	.	.	.	12ggJ	.	.
.	.	2g	.	2b-	.	12aaL	.	viio
.	.	.	.	.	.	12bb-	.	.
.	.	.	.	.	.	12ggJ	.	.
.	.	.	.	.	.	12aaL	.	.
.	.	.	.	.	.	12bb-	.	.
.	.	.	.	.	.	12ggJ	.	.
.	.	[4a	.	[4cc	.	12bb-L	.	I6
.	.	.	.	.	.	12ccc	.	.
.	.	.	.	.	.	12aaJ	.	.
=238	=238	=238	=238	=238	=238	=238	=238	=238
1C_	.	(4a]	.	(4cc]	.	12bb-L	.	.
.	.	.	.	.	.	12ccc	.	.
.	.	.	.	.	.	12aaJ	.	.
.	.	4B-	.	4dd	.	12cccL	.	IV
.	.	.	.	.	.	12ddd	.	.
.	.	.	.	.	.	12bb-J	.	.
.	.	4c	.	4ee	.	12dddL	.	I64
.	.	.	.	.	.	12eee	.	.
.	.	.	.	.	.	12cccJ	.	.
.	.	4d	.	4ff	.	12eeeL	.	.
.	.	.	.	.	.	12fff	.	.
.	.	.	.	.	.	12dddJ	.	.
=239	=239	=239	=239	=239	=239	=239	=239	=239
2C]	.	4e	.	4gg	.	12fffL	.	viio
.	.	.	.	.	.	12ggg	.	.
.	.	.	.	.	.	12eeeJ	.	.
.	.	4f	.	4aa	.	12gggL	.	.
.	.	.	.	.	.	12aaa	.	.
.	.	.	.	.	.	12fffJ	.	.
4c	.	4g	.	4bb-	.	12aaaL	.	.
.	.	.	.	.	.	12bbb-	.	.
.	.	.	.	.	.	12gggJ	.	.
4c	.	4e)	.	4g) 4b-	.	12aaaL	.	.
.	.	.	.	.	.	12bbb-	.	.
.	.	.	.	.	.	12gggJ	.	.
=240	=240	=240	=240	=240	=240	=240	=240	=240
4c	.	4e	.	4g 4b-	.	1bbb-)	.	viio]
4r	.	4r	.	4r	.	.	.	.
2r	.	2r	.	2r	.	.	.	.
=241	=241	=241	=241	=241	=241	=241	=241	=241
1r	.	1r	.	1r	.	1bbbn	.	.
=242	=242	=242	=242	=242	=242	=242	=242	=242
2.A	ff	2.a	ff	2.cc 2.ff	ff ff	2.cccc	ff	I6
4A	.	[4f	.	(4c	.	(4f	.	.
=243	=243	=243	=243	=243	=243	=243	=243	=243
8B-'	.	8f']	.	8d')	.	8dd')	.	IV
8r	.	8r	.	8r	.	8r	.	.
8d'	.	8f'	.	4r	.	8b-'	.	IV6
8r	.	8r	.	.	.	8r	.	.
2c	.	(2f	.	4r	.	(2a	.	I64
.	.	.	.	(4f	.	.	.	.
=244	=244	=244	=244	=244	=244	=244	=244	=244
1r	.	8dd')	p	8b-')	p	8ff')	p	IV6
.	.	8r	.	8r	.	8r	.	.
.	.	8b-'	.	8dd'	.	8ff'	.	IV
.	.	8r	.	8r	.	8r	.	.
.	.	2a	.	(4cc	.	2ff	.	I6
.	.	.	.	[4f)	.	.	.	.
=245	=245	=245	=245	=245	=245	=245	=245	=245
8B-'	p	2r	.	8f']	.	8dd'	.	IV
8r	.	.	.	8r	.	8r	.	.
8d'	.	.	.	8f'	.	8b-'	.	IV6
8r	.	.	.	8r	.	8r	.	.
(2d	.	(2f	.	2a-X	.	(2bn	.	#viio65/V
=246	=246	=246	=246	=246	=246	=246	=246	=246
2c#X	.	2e	.	1g 1b-	.	2ee	.	#viio7/vi
2e)	.	2g)	.	.	.	2cc#X)	.	#viio65/vi
=247	=247	=247	=247	=247	=247	=247	=247	=247
8d#X'	.	8f#X'	.	4r	.	8ff#X'	.	#viio2/vii
8r	.	8r	.	.	.	8r	.	.
8f#X'	.	8a'	.	8cc'	.	8dd#X'	.	#viio7/vii
8r	.	8r	.	8r	.	8r	.	.
(2fn	.	(2a-X	.	(2bn	.	(2ddn	.	#viio43/V
=248	=248	=248	=248	=248	=248	=248	=248	=248
8e')	.	8b-)	.	8g)	.	8gg)	.	viio
8r	.	8r	.	8r	.	8r	.	.
8g	.	8b-	.	8cc#X	.	8ee	.	#viio64/vi
8r	.	8r	.	8r	.	8r	.	.
[2f#X	.	[2cc	.	[2a	.	2dd#X	.	#viio7/vii
=249	=249	=249	=249	=249	=249	=249	=249	=249
8f#]	.	8cc]	.	8a]	.	8aa	.	#viio7/ii
8r	.	8r	.	8r	.	8r	.	.
*clefC4	*	*	*	*	*	*	*	*
8a	.	8cc	.	4r	.	8ff#X	.	#viio64/ii
8r	.	8r	.	.	.	8r	.	.
8g#X	.	8dd	.	8ff	.	8bbn	.	#viio43/iii
8r	.	8r	.	8r	.	8r	.	.
8bn	.	8dd	.	8ff	.	8gg#X	.	.
8r	.	8r	.	8r	.	8r	.	.
=250	=250	=250	=250	=250	=250	=250	=250	=250
[1g#X	f	[1bn	f	[1dd [1ff	f	[1fff	f	#viio65/iii
=251	=251	=251	=251	=251	=251	=251	=251	=251
1g#]	.	1b]	.	1dd] 1ff]	.	(2.fff]	.	.
.	.	.	.	.	.	8eeeL	.	.
.	.	.	.	.	.	8dddJ)	.	.
=252	=252	=252	=252	=252	=252	=252	=252	=252
1a	ff	[1a	ff	[1cc	ff	[1ccc	ff	iii6
=253	=253	=253	=253	=253	=253	=253	=253	=253
4CC	.	4a]	.	4cc]	.	4ccc]	.	V
8DD'L	.	8g'L	.	8b-'L	.	8bb-'L	.	.
8EE'J	.	8f'J	.	8a'J	.	8aa'J	.	.
(8FFL	.	(8eL	.	(8gL	.	(8ggL	.	.
8GG)	.	8d)	.	8f)	.	8ff)	.	.
8AA'	.	8c'	.	8e'	.	8ee'	.	.
8BB-'J	.	8B-'J	.	8d'J	.	8dd'J	.	.
=254	=254	=254	=254	=254	=254	=254	=254	=254
*	*	*tremolo	*	*	*	*	*	*
*	*	*	*	*tremolo	*	*	*	*
!	!	!	!	!	!	!LO:TX:a:i:t=ten.	!	!
(4C	mf	8AL	p	8cL	p	4cc	p	I64
.	.	8A	.	8c	.	.	.	.
!LO:TX:b:Bi:t=(dolce)	!	!	!	!	!	!	!	!
4D	.	8A	.	8c	.	8b-'L	.	.
.	.	8AJ	.	8cJ	.	8a'J	.	.
4E	.	8AL	.	8cL	.	(8gL	.	.
.	.	8A	.	8c	.	8f)	.	.
4F)	.	8A	.	8c	.	8e'	.	.
.	.	8AJ	.	8cJ	.	8d'J	.	.
=255	=255	=255	=255	=255	=255	=255	=255	=255
(2.C	.	4A	.	8cL	.	8cL	.	.
.	.	.	.	8A	.	8c	.	.
.	.	4r	.	8A	.	8c	.	.
.	.	.	.	8AJ	.	8cJ	.	.
.	.	2r	.	8AL	.	8cL	.	.
.	.	.	.	8A	.	8c	.	.
8DL	.	.	.	8A	.	8c	.	.
8CJ	.	.	.	8AJ	.	8cJ	.	.
=256	=256	=256	=256	=256	=256	=256	=256	=256
8BB-L	.	1r	.	8AL	.	8cL	.	.
8C)	.	.	.	8A	.	8c	.	.
8AA'	.	.	.	8A	.	8c	.	.
8GG'J	.	.	.	8AJ	.	8cJ	.	.
*	*	*	*	*	*	*tremolo	*	*
(4FF	.	.	.	8AL	.	8cL	.	.
.	.	.	.	8A	.	8c	.	.
4D	.	.	.	8A	.	8c	.	.
.	.	.	.	8AJ	.	8cJ	.	.
=257	=257	=257	=257	=257	=257	=257	=257	=257
1C)	.	1r	.	8AL	.	8cL	.	.
.	.	.	.	8A	.	8c	.	.
.	.	.	.	8A	.	8c	.	.
.	.	.	.	8AJ	.	8cJ	.	.
.	.	.	.	8AL	.	8cL	.	.
.	.	.	.	8A	.	8c	.	.
.	.	.	.	8A	.	8c	.	.
.	.	.	.	8AJ	.	8cJ	.	.
=258	=258	=258	=258	=258	=258	=258	=258	=258
(4D	.	1r	.	8AL	.	8cL	.	.
.	.	.	.	8A	.	8c	.	.
4E	.	.	.	8A	.	8c	.	.
.	.	.	.	8AJ	.	8cJ	.	.
4F	.	.	.	8AL	.	8cL	.	.
.	.	.	.	8A	.	8c	.	.
4G)	.	.	.	8A	.	8c	.	.
.	.	.	.	8AJ	.	8cJ	.	.
=259	=259	=259	=259	=259	=259	=259	=259	=259
!LO:TX:b:i:t=cresc.	!	!	!	!LO:TX:b:i:t=cresc.	!	!LO:TX:b:i:t=cresc.	!	!
(2.F	.	1r	.	8AL	.	8cL	.	I
.	.	.	.	8A	.	8c	.	.
.	.	.	.	8A	.	8c	.	.
.	.	.	.	8AJ	.	8cJ	.	.
.	.	.	.	8AL	.	8cL	.	.
.	.	.	.	8A	.	8c	.	.
8EL	.	.	.	8A	.	8c	.	.
8DJ)	.	.	.	8AJ	.	8cJ	.	.
=260	=260	=260	=260	=260	=260	=260	=260	=260
(8CL	.	1r	.	8AL	.	8cL	.	I64
8D)	.	.	.	8A	.	8c	.	.
8E'	.	.	.	8A	.	8c	.	.
8F'J	.	.	.	8AJ	.	8cJ	.	.
(4G'	.	.	.	8B-L	.	8cL	.	V43
.	.	.	.	8B-	.	8c	.	.
4A')	.	.	.	8B-	.	8c	.	.
.	.	.	.	8B-J	.	8cJ	.	.
*	*	*	*	*	*	*Xtremolo	*	*
=261	=261	=261	=261	=261	=261	=261	=261	=261
1G	p	8r	.	8B-L	p	(8cL	p	.
.	.	8B-L	p	8c	.	8d)	.	.
.	.	8B-	.	8c	.	(8e'	.	.
.	.	8B-J	.	8cJ	.	8f'J)	.	.
.	.	8B-L	.	8cL	.	(8g'L	.	.
.	.	8B-	.	8c	.	8a'	.	.
.	.	8B-	.	8c	.	8b-'	.	.
.	.	8B-J	.	8cJ	.	8cc'J)	.	.
=262	=262	=262	=262	=262	=262	=262	=262	=262
*tremolo	*	*	*	*	*	*	*	*
8GL	.	8B-L	.	8cL	.	(4dd	.	.
8G	.	8B-	.	8c	.	.	.	.
8G	.	8B-	.	8c	.	4ee	.	.
8GJ	.	8B-J	.	8cJ	.	.	.	.
8GL	.	8B-L	.	8cL	.	4ff	.	.
8G	.	8B-	.	8c	.	.	.	.
8G	.	8B-	.	8c	.	4gg)	.	.
8GJ	.	8B-J	.	8cJ	.	.	.	.
=263	=263	=263	=263	=263	=263	=263	=263	=263
8GL	.	8B-L	.	8cL	.	(2.ff	.	.
8G	.	8B-	.	8c	.	.	.	.
8G	.	8B-	.	8c	.	.	.	.
8GJ	.	8B-J	.	8cJ	.	.	.	.
8GL	.	8B-L	.	8cL	.	.	.	.
8G	.	8B-	.	8c	.	.	.	.
8G	.	8B-	.	8c	.	8eeL	.	.
8GJ	.	8B-J	.	8cJ	.	8ddJ)	.	.
=264	=264	=264	=264	=264	=264	=264	=264	=264
8GL	.	8B-L	.	8cL	.	(8ccL	.	.
8G	.	8B-	.	8c	.	8dd)	.	.
8G	.	8B-	.	8c	.	8ee'	.	.
8GJ	.	8B-J	.	8cJ	.	8ff'J	.	.
8GL	.	8B-L	.	8c 8eL	.	(4gg'	.	.
8G	.	8B-	.	8c 8e	.	.	.	.
8G	.	8B-	.	8c 8e	.	4aa')	.	.
8GJ	.	8B-J	.	8c 8eJ	.	.	.	.
=265	=265	=265	=265	=265	=265	=265	=265	=265
8GL	.	8B-L	.	8c 8eL	.	1gg	.	.
8G	.	8B-	.	8c 8e	.	.	.	.
8G	.	8B-	.	8c 8e	.	.	.	.
8GJ	.	8B-J	.	8c 8eJ	.	.	.	.
8GL	.	8B-L	.	8c 8eL	.	.	.	.
8G	.	8B-	.	8c 8e	.	.	.	.
8G	.	8B-	.	8c 8e	.	.	.	.
8GJ	.	8B-J	.	8c 8eJ	.	.	.	.
=266	=266	=266	=266	=266	=266	=266	=266	=266
!LO:TX:b:i:t=cresc.	!	!LO:TX:b:i:t=cresc.	!	!LO:TX:b:i:t=cresc.	!	!LO:TX:b:i:t=cresc.	!	!
8GL	.	8B-L	.	8c 8eL	.	(4gg	.	.
8G	.	8B-	.	8c 8e	.	.	.	.
8G	.	8B-	.	8c 8e	.	4aa-X	.	.
8GJ	.	8B-J	.	8c 8eJ	.	.	.	.
8GL	.	8B-L	.	8c 8eL	.	4bb-	.	.
8G	.	8B-	.	8c 8e	.	.	.	.
8G	.	8B-	.	8c 8e	.	4ccc)	.	.
8GJ	.	8B-J	.	8c 8eJ	.	.	.	.
=267	=267	=267	=267	=267	=267	=267	=267	=267
8GL	.	8B-L	.	8c 8eL	.	(2.bb-	.	.
8G	.	8B-	.	8c 8e	.	.	.	.
8G	.	8B-	.	8c 8e	.	.	.	.
8GJ	.	8B-J	.	8c 8eJ	.	.	.	.
8GL	.	8B-L	.	8c 8eL	.	.	.	.
8G	.	8B-	.	8c 8e	.	.	.	.
8G	.	8B-	.	8c 8e	.	8aa-XL	.	.
8GJ	.	8B-J	.	8c 8eJ	.	8ggJ)	.	.
=268	=268	=268	=268	=268	=268	=268	=268	=268
8GL	.	8B-L	.	8c 8eL	.	(8ffL	.	.
8G	.	8B-	.	8c 8e	.	8gg)	.	.
8G	.	8B-	.	8c 8e	.	8aa-X'	.	.
8GJ	.	8B-J	.	8c 8eJ	.	8bb-'J	.	.
8GL	.	8B-L	.	8c 8eL	.	(4ccc'	.	.
8G	.	8B-	.	8c 8e	.	.	.	.
8G	.	8B-	.	8c 8e	.	4ddd-X')	.	.
8GJ	.	8B-J	.	8c 8eJ	.	.	.	.
=269	=269	=269	=269	=269	=269	=269	=269	=269
8G-XL	.	8AL	.	8c 8e-XL	.	1ccc	.	#viio2/IV
8G-X	.	8A	.	8c 8e-X	.	.	.	.
8G-X	.	8A	.	8c 8e-X	.	.	.	.
8G-XJ	.	8AJ	.	8c 8e-XJ	.	.	.	.
8G-L	.	8AL	.	8c 8e-L	.	.	.	.
8G-	.	8A	.	8c 8e-	.	.	.	.
8G-	.	8A	.	8c 8e-	.	.	.	.
8G-J	.	8AJ	.	8c 8e-J	.	.	.	.
=270	=270	=270	=270	=270	=270	=270	=270	=270
8G-XL	.	8AL	.	8c 8e-XL	.	(4ccc	.	.
8G-X	.	8A	.	8c 8e-X	.	.	.	.
8G-X	.	8A	.	8c 8e-X	.	4ddd-X	.	.
8G-XJ	.	8AJ	.	8c 8e-XJ	.	.	.	.
8G-L	.	8AL	.	8c 8e-L	.	4eee-X	.	.
8G-	.	8A	.	8c 8e-	.	.	.	.
8G-	.	8A	.	8c 8e-	.	4fff)	.	.
8G-J	.	8AJ	.	8c 8e-J	.	.	.	.
=271	=271	=271	=271	=271	=271	=271	=271	=271
!LO:TX:b:i:t=il	!	!LO:TX:b:i:t=il	!	!LO:TX:b:i:t=il	!	!LO:TX:b:i:t=il	!	!
8G-XL	.	8AL	.	8c 8e-XL	.	2.eee-X	.	.
8G-X	.	8A	.	8c 8e-X	.	.	.	.
8G-X	.	8A	.	8c 8e-X	.	.	.	.
8G-XJ	.	8AJ	.	8c 8e-XJ	.	.	.	.
8G-L	.	8AL	.	8c 8e-L	.	.	.	.
8G-	.	8A	.	8c 8e-	.	.	.	.
8G-	.	8A	.	8c 8e-	.	8eee-'L	.	.
8G-J	.	8AJ	.	8c 8e-J	.	8ddd-X'J	.	.
=272	=272	=272	=272	=272	=272	=272	=272	=272
8G-XL	f	8AL	f	8c 8e-XL	f	(8cccL	f	.
8G-X	.	8A	.	8c 8e-X	.	8ddd)	.	.
8G-X	.	8A	.	8c 8e-X	.	8eee-X'	.	.
8G-XJ	.	8AJ	.	8c 8e-XJ	.	8fff'J	.	.
8G-L	.	8AL	.	8c 8e-L	.	4eee-'	.	.
8G-	.	8A	.	8c 8e-	.	.	.	.
8G-	.	8A	.	8c 8e-	.	8eee-'L	.	.
8G-J	.	8AJ	.	8c 8e-J	.	8ddd'J	.	.
=273	=273	=273	=273	=273	=273	=273	=273	=273
!LO:TX:b:Bi:t=più 	!	!LO:TX:b:Bi:t=più 	!	!LO:TX:b:Bi:t=più 	!	!LO:TX:b:Bi:t=più 	!	!
8G-XL	.	8A-XL	.	8c 8e-XL	.	(8cccL	.	.bVI.V2
8G-X	.	8A-X	.	8c 8e-X	.	8ddd-X)	.	.
8G-X	.	8A-X	.	8c 8e-X	.	8eee-X'	.	.
8G-XJ	.	8A-XJ	.	8c 8e-XJ	.	8fff'J	.	.
8G-L	.	8A-L	.	8c 8e-L	.	4ggg-X'	.	.
8G-	.	8A-	.	8c 8e-	.	.	.	.
8G-	.	8A-	.	8c 8e-	.	8ggg-'L	.	.
8G-J	.	8A-J	.	8c 8e-J	.	8fff'J	.	.
=274	=274	=274	=274	=274	=274	=274	=274	=274
8G-XL	ff	8A-XL	ff	8c 8e-XL	ff	(8eee-XL	ff	.
8G-X	.	8A-X	.	8c 8e-X	.	8fff)	.	.
8G-X	.	8A-X	.	8c 8e-X	.	8ggg-X'	.	.
8G-XJ	.	8A-XJ	.	8c 8e-XJ	.	8aaa-X'J	.	.
8G-L	.	8A-L	.	8c 8e-L	.	4ggg-'	.	.
8G-	.	8A-	.	8c 8e-	.	.	.	.
8G-	.	8A-	.	8c 8e-	.	8fff'L	.	.
8G-J	.	8A-J	.	8c 8e-J	.	8eee-'J	.	.
=275	=275	=275	=275	=275	=275	=275	=275	=275
8G-XL	.	8A-XL	.	8c 8e-XL	.	(8ddd-XL	.	.
8G-X	.	8A-X	.	8c 8e-X	.	8ccc)	.	.
8G-X	.	8A-X	.	8c 8e-X	.	8bb-'	.	.
8G-XJ	.	8A-XJ	.	8c 8e-XJ	.	8aa-X'J	.	.
8G-L	.	8A-L	.	8c 8e-L	.	4gg-X'	.	.
8G-	.	8A-	.	8c 8e-	.	.	.	.
8G-	.	8A-	.	8c 8e-	.	8ff'L	.	.
8G-J	.	8A-J	.	8c 8e-J	.	8ee-X'J	.	.
=276	=276	=276	=276	=276	=276	=276	=276	=276
8G-XL	.	8A-XL	.	8c 8e-XL	.	(8dd-XL	.	.
8G-X	.	8A-X	.	8c 8e-X	.	8cc)	.	.
8G-X	.	8A-X	.	8c 8e-X	.	8b-'	.	.
8G-XJ	.	8A-XJ	.	8c 8e-XJ	.	8a-X'J	.	.
*	*	*	*	*Xtremolo	*	*	*	*
*	*	*Xtremolo	*	*	*	*	*	*
*Xtremolo	*	*	*	*	*	*	*	*
!	!	!	!	!LO:TX:b:i:t=dim.	!	!LO:TX:b:i:t=dim.	!	!
4G-	.	4A-	.	2c [2e-	.	[2g-X	.	.
!	!	!LO:TX:b:i:t=dim.	!	!	!	!	!	!
4r	.	8f'L	.	.	.	.	.	.
.	.	8e-X'J	.	.	.	.	.	.
=277	=277	=277	=277	=277	=277	=277	=277	=277
2r	.	(8d-XL	.	[1c 1e-_	.	1g-_	.	.
.	.	8c)	.	.	.	.	.	.
.	.	8B-'	.	.	.	.	.	.
.	.	8A-X'J	.	.	.	.	.	.
4r	.	4G-X	.	.	.	.	.	.
!LO:TX:b:i:t=dim.	!	!	!	!	!	!	!	!
8F'L	.	4r	.	.	.	.	.	.
8E-X'J	.	.	.	.	.	.	.	.
=278	=278	=278	=278	=278	=278	=278	=278	=278
!LO:TX:a:i:t=poco ritard.	!	!LO:TX:a:i:t=poco ritard.	!	!LO:TX:a:i:t=poco ritard.	!	!LO:TX:a:i:t=poco ritard.	!	!
(8D-XL	.	2r	.	2.c] 2.e-]	.	2g-]	.	.
8C)	.	.	.	.	.	.	.	.
8BB-'	.	.	.	.	.	.	.	.
8AA-X'J	.	.	.	.	.	.	.	.
(4AA-'	.	4r	.	.	.	2a-X	.	.
4GG-X')	.	(4c	.	4e-X	.	.	.	.
=279	=279	=279	=279	=279	=279	=279	=279	=279
!	!	!	!	!LO:TX:b:i:t=dolce	!	!LO:TX:b:i:t=dolce	!	!
!LO:TX:a:i:t=a tempo	!	!LO:TX:a:i:t=a tempo	!	!LO:TX:a:i:t=a tempo	!	!LO:TX:a:i:t=a tempo	!	!
4FF	p	4d-X)	p	(2.f	.	(2.a-X	.	I6
4r	.	4r	.	.	.	.	.	.
2r	.	2r	.	.	.	.	.	.
.	.	.	.	8g-XL	.	8b-L	.	.
.	.	.	.	8fJ	.	8a-J	.	.
=280	=280	=280	=280	=280	=280	=280	=280	=280
1r	.	1r	.	8e-XL	.	8g-XL	.	I
.	.	.	.	8f	.	8a-X	.	.
.	.	.	.	8d-X	.	8f	.	.
.	.	.	.	8A-XJ	.	8e-XJ	.	.
.	.	.	.	8d-L	.	8fL	.	.
.	.	.	.	8A-	.	8e-	.	.
.	.	.	.	8f	.	8d-X	.	.
.	.	.	.	8cJ	.	8e-J	.	.
=281	=281	=281	=281	=281	=281	=281	=281	=281
1r	.	1r	.	8d-XL	.	8fL	.	.
.	.	.	.	8e-X	.	8g-X	.	.
.	.	.	.	8f	.	8a-X	.	.
.	.	.	.	8g-XJ	.	8b-J	.	.
.	.	.	.	8fL	.	8a-L	.	.
.	.	.	.	8g-	.	8b-	.	.
.	.	.	.	8e-	.	8cc	.	.
.	.	.	.	8fJ	.	8dd-XJ	.	.
=282	=282	=282	=282	=282	=282	=282	=282	=282
1r	.	1r	.	8e-XL	.	8ccL	.	V65
.	.	.	.	8g-X)	.	8ee-X)	.	.
.	.	.	.	8e-'	.	8g-X'	.	.
.	.	.	.	8e-'J	.	8g-'J	.	.
.	.	.	.	8e-L	.	8g-L	.	.
.	.	.	.	8f	.	8a-X	.	.
.	.	.	.	8c'	.	8e-X'	.	.
.	.	.	.	8c'J	.	8e-'J	.	.
=283	=283	=283	=283	=283	=283	=283	=283	=283
!LO:TX:b:i:t=dolce	!	!LO:TX:b:i:t=dolce	!	!	!	!	!	!
(2.F	.	(2.A-X	.	4d-X	.	4f	.	I6
.	.	.	.	4r	.	4r	.	.
.	.	.	.	2r	.	2r	.	.
8G-XL	.	8B-L	.	.	.	.	.	.
8FJ	.	8A-J	.	.	.	.	.	.
=284	=284	=284	=284	=284	=284	=284	=284	=284
8E-XL	.	8G-XL	.	1r	.	1r	.	I
8F	.	8A-X	.	.	.	.	.	.
8D-X	.	8F	.	.	.	.	.	.
8AA-XJ	.	8E-XJ	.	.	.	.	.	.
8D-L	.	8FL	.	.	.	.	.	.
8AA-	.	8E-	.	.	.	.	.	.
8FF	.	8D-X	.	.	.	.	.	.
8AA-J	.	8E-J	.	.	.	.	.	.
=285	=285	=285	=285	=285	=285	=285	=285	=285
8D-XL	.	8FL	.	1r	.	1r	.	.
8E-X	.	8G-X	.	.	.	.	.	.
8F	.	8A-X	.	.	.	.	.	.
8G-XJ	.	8B-J	.	.	.	.	.	.
8FL	.	8A-L	.	.	.	.	.	.
8G-	.	8B-	.	.	.	.	.	.
8E-	.	8c	.	.	.	.	.	.
8FJ	.	8d-XJ	.	.	.	.	.	.
=286	=286	=286	=286	=286	=286	=286	=286	=286
8E-XL	.	8cL	.	1r	.	1r	.	V65
8G-X)	.	8e-X)	.	.	.	.	.	.
8E-'	.	8G-X'	.	.	.	.	.	.
8E-'J	.	8G-'J	.	.	.	.	.	.
(8E-L	.	(8G-L	.	.	.	.	.	.
8F)	.	8A-X)	.	.	.	.	.	.
8C'	.	8E-X'	.	.	.	.	.	.
8C'J	.	8E-'J	.	.	.	.	.	.
=287	=287	=287	=287	=287	=287	=287	=287	=287
[1D-X	.	[1F	.	8r	.	8r	.	I
.	.	.	.	8b-'L	p	8dd-X'L	p	.
.	.	.	.	8d-X'	.	8f'	.	.
.	.	.	.	8d-'J	.	8f'J	.	.
.	.	.	.	(8d-L	.	(8fL	.	.
.	.	.	.	8e-X)	.	8g-X)	.	.
.	.	.	.	8B-'	.	8d-X'	.	vi6
.	.	.	.	8B-'J	.	8d-'J	.	.
=288	=288	=288	=288	=288	=288	=288	=288	=288
(8D-L]	.	(8FL]	.	4c	.	4e-X	.	#vo
8E-X)	.	8c)	.	.	.	.	.	.
8C'	.	8E-X'	.	4r	.	4r	.	.
8C'J	.	8E-'J	.	.	.	.	.	.
(8CL	.	(8E-L	.	2r	.	2r	.	.
8D-X)	.	8F)	.	.	.	.	.	.
8AAn'	.	8C'	.	.	.	.	.	.
8AA'J	.	8C'J	.	.	.	.	.	.
=289	=289	=289	=289	=289	=289	=289	=289	=289
[1BB-	.	[1D-X	.	8r	.	8r	.	vi
.	.	.	.	8b-'L	<	8dd-X'L	<	.
.	.	.	.	8d-X'	.	8f'	.	.
.	.	.	.	8d-'J	.	8f'J	.	.
.	.	.	.	(8d-L	[ >	(8fL	[ >	.
.	.	.	.	8f)	.	8b-)	.	.
.	.	.	.	8f'	.	8b-'	.	.
.	.	.	.	8f'J	]]	8b-'J	]]	.
=290	=290	=290	=290	=290	=290	=290	=290	=290
!LO:TX:b:i:t=cresc.	!	!LO:TX:b:i:t=cresc.	!	!	!	!	!	!
(8BB-L]	.	(8D-L]	.	4en	.	4b-	.	I.V43
8GG)	.	8C)	.	.	.	.	.	.
8GG'	.	8C'	.	4r	.	4r	.	.
8GG'J	.	8C'J	.	.	.	.	.	.
(8GGL	.	(8CL	.	2r	.	2r	.	iv
8BB-)	.	8D-X)	.	.	.	.	.	.
8BB-'	.	8D-'	.	.	.	.	.	.
8BB-'J	.	8D-'J	.	.	.	.	.	.
=291	=291	=291	=291	=291	=291	=291	=291	=291
[1BB-	p	[1D-X	p	8r	.	8r	.	.
.	.	.	.	8b-'L	<	8dd-X'L	<	.
.	.	.	.	8d-X'	.	8f'	.	.
.	.	.	.	8d-'J	.	8f'J	.	.
.	.	.	.	(8d-L	[ >	(8fL	[ >	.
.	.	.	.	8f)	.	8b-)	.	.
.	.	.	.	8f'	.	8b-'	.	.
.	.	.	.	8f'J	]]	8b-'J	]]	.
=292	=292	=292	=292	=292	=292	=292	=292	=292
!LO:TX:b:i:t=cresc.	!	!LO:TX:b:i:t=cresc.	!	!	!	!	!	!
8BB-L]	.	8D-L]	.	4e	.	4b-	.	V43
8GG	.	8C	.	.	.	.	.	.
8GG'	.	8C'	.	4r	.	4r	.	.
8GG'J	.	8C'J	.	.	.	.	.	.
(8GGL	.	(8CL	.	4r	.	4r	.	iv
8BB-)	.	8D-X)	.	.	.	.	.	.
!	!	!	!	!LO:TX:b:i:t=cresc.	!	!LO:TX:b:i:t=cresc.	!	!
8BB-'	.	8D-'	.	8fL	.	8b-L	.	.
8BB-'J	.	8D-'J	.	8fJ	.	8b-J	.	.
=293	=293	=293	=293	=293	=293	=293	=293	=293
(8BB-L	.	(8D-XL	.	4e	.	4b-	.	V43
8GG)	.	8C)	.	.	.	.	.	.
8BB-'	.	8D-'	.	8fL	.	8b-L	.	iv
8BB-'J	.	8D-'J	.	8fJ	.	8b-J	.	.
(8BB-L	.	(8D-L	.	4e	.	4b-	.	V43
8GG)	.	8C)	.	.	.	.	.	.
8BB-'	.	8D-'	.	8fL	.	8b-L	.	iv
8BB-'J	.	8D-'J	.	8fJ	.	8b-J	.	.
=294	=294	=294	=294	=294	=294	=294	=294	=294
(8BB-L	.	(8D-XL	.	4e	.	4b-	.	V43
8GG)	.	8C)	.	.	.	.	.	.
8GG'	.	8C'	.	8gL	.	8b-L	.	.
8EE'J	.	8C'J	.	8gJ	.	8b-J	.	.
8AA-X'L	.	8CL	.	8fL	.	8a-XL	.	i
8FF'	.	8C	.	8f	.	8a-	.	.
8DD'	.	8C	.	8f	.	8bn	.	viio6/V
8GG'J	.	8CJ	.	8fJ	.	8bJ	.	V7/V
=295	=295	=295	=295	=295	=295	=295	=295	=295
2CC	f	2C	f	4e	f	4cc	f	V\\
.	.	.	.	4r	.	4r	.	.
(12DDL	.	(12DL	.	2r	.	2r	.	.
12EE	.	12E	.	.	.	.	.	.
12FFJ)	.	12FJ)	.	.	.	.	.	.
(12GGL	.	(12GL	.	.	.	.	.	.
12AA	.	12A	.	.	.	.	.	.
12BBnJ)	.	12BnJ)	.	.	.	.	.	.
=296	=296	=296	=296	=296	=296	=296	=296	=296
2C	sf	2c	sf	1r	.	1r	.	I6
(12DL	.	(12dL	.	.	.	.	.	.
12C	.	12c	.	.	.	.	.	.
12BBnJ)	.	12BnJ)	.	.	.	.	.	.
(12EL	.	(12eL	.	.	.	.	.	.
12D	.	12d	.	.	.	.	.	.
12CJ)	.	12cJ)	.	.	.	.	.	.
=297	=297	=297	=297	=297	=297	=297	=297	=297
2F	sf	2f	sf	1r	.	1r	.	V
(12EL	.	(12eL	.	.	.	.	.	.
12D	.	12d	.	.	.	.	.	.
12CJ)	.	12cJ)	.	.	.	.	.	.
(12BBnL	.	(12BnL	.	.	.	.	.	.
12AA	.	12A	.	.	.	.	.	.
12GGJ)	.	12GJ)	.	.	.	.	.	.
=298	=298	=298	=298	=298	=298	=298	=298	=298
8FF	.	8F	.	1r	.	1r	.	V
8r	.	8r	.	.	.	.	.	.
8EE	.	8E	.	.	.	.	.	.
8r	.	8r	.	.	.	.	.	.
8DD	.	8D	.	.	.	.	.	.
8r	.	8r	.	.	.	.	.	.
8GG	.	8G	.	.	.	.	.	.
8r	.	8r	.	.	.	.	.	.
=299	=299	=299	=299	=299	=299	=299	=299	=299
8CC	.	8C	.	4r	.	1r	.	I
8r	.	8r	.	.	.	.	.	.
4r	.	4r	.	8c	p	.	.	.
.	.	.	.	8r	.	.	.	.
2r	.	2r	.	8e	.	.	.	.
.	.	.	.	8r	.	.	.	.
.	.	.	.	8g	.	.	.	.
.	.	.	.	8r	.	.	.	.
=300	=300	=300	=300	=300	=300	=300	=300	=300
1f	sfp	1a-X	sfp	[1cc	sfp	8dd	p	ii%65
.	.	.	.	.	.	8r	.	.
.	.	.	.	.	.	8ff-X	.	.
.	.	.	.	.	.	8r	.	.
.	.	.	.	.	.	8aa-X	.	.
.	.	.	.	.	.	8r	.	.
.	.	.	.	.	.	8bbn	.	.
.	.	.	.	.	.	8r	.	.
=301	=301	=301	=301	=301	=301	=301	=301	=301
1e	.	1g	.	4cc]	.	1ccc	sfp	I6
.	.	.	.	(4cc	<	.	.	.
.	.	.	.	4bn	[ >	.	.	.
.	.	.	.	4cc)	]	.	.	.
=302	=302	=302	=302	=302	=302	=302	=302	=302
1e-X	sfp	1f#X	sfp	[1cc	sfp	8cc	.	#viio2/v
.	.	.	.	.	.	8r	.	.
.	.	.	.	.	.	8ee-X	.	.
.	.	.	.	.	.	8r	.	.
.	.	.	.	.	.	8ff#X	.	.
.	.	.	.	.	.	8r	.	.
.	.	.	.	.	.	8aa	.	.
.	.	.	.	.	.	8r	.	.
=303	=303	=303	=303	=303	=303	=303	=303	=303
1d	.	1f	.	4cc]	.	1bb-	sfp	I.IV6(+2)
.	.	.	.	(4cc	<	.	.	.
.	.	.	.	4bn	[ >	.	.	.
.	.	.	.	4cc)	]	.	.	.
=304	=304	=304	=304	=304	=304	=304	=304	=304
1d-X	sfp	[1f	sfp	[1cc	sfp	8b-	.	iv6(+#4+2)
.	.	.	.	.	.	8r	.	.
.	.	.	.	.	.	8dd-X	.	.
.	.	.	.	.	.	8r	.	.
.	.	.	.	.	.	8ee	.	.
.	.	.	.	.	.	8r	.	.
.	.	.	.	.	.	8gg	.	.
.	.	.	.	.	.	8r	.	.
=305	=305	=305	=305	=305	=305	=305	=305	=305
1c	<	4f]	<	2.f 2.cc]	<	[2aa	<	V(64)
.	.	(4cc	.	.	.	.	.	.
.	.	4bn	.	.	.	12aaL]	.	.
.	.	.	.	.	.	12ff	.	.
.	.	.	.	.	.	12ccJ	.	.
.	.	4cc)	.	4A	.	12aL	.	.
.	.	.	.	.	.	12f	.	.
.	.	.	.	.	.	12cJ	[[	.
=306	=306	=306	=306	=306	=306	=306	=306	=306
(2.C	.	(4cc	.	[2G	.	12B-L	>	V7
.	.	.	.	.	.	12c	.	.
.	.	.	.	.	.	12eJ	.	.
.	.	4dd	[ >	.	.	12GL	.	.
.	.	.	.	.	.	12B-	.	.
.	.	.	.	.	.	12eJ	.	.
.	.	4cc	.	8GL]	[ >	12GL	.	.
.	.	.	.	.	.	12B-	.	.
.	.	.	.	(8e	.	.	.	.
.	.	.	.	.	.	12eJ	.	.
8DL	[ >	4b-X)	]]	8f	.	12GL	]	.
.	.	.	.	.	.	12B-	.	.
8EJ)	]]	.	.	8gJ)	]]	.	.	.
.	.	.	.	.	.	12eJ	.	.
=307	=307	=307	=307	=307	=307	=307	=307	=307
!	!	!LO:TX:b:i:t=dolce	!	!	!	!	!	!
[1F	.	2.a	.	4c	p	12AL	p	I[I6
.	.	.	.	.	.	12c	.	.
.	.	.	.	.	.	12fJ	.	.
.	.	.	.	4r	.	12eL	.	.
.	.	.	.	.	.	12f	.	.
.	.	.	.	.	.	12cJ	.	.
.	.	.	.	2r	.	12AL	.	.
.	.	.	.	.	.	12c	.	.
.	.	.	.	.	.	12fJ	.	.
.	.	(4g	.	.	.	12B-L	.	V2
.	.	.	.	.	.	12c	.	.
.	.	.	.	.	.	12eJ	.	.
=308	=308	=308	=308	=308	=308	=308	=308	=308
(2.F]	<	4.f	<	1r	.	12AL	<	I6
.	.	.	.	.	.	12c	.	.
.	.	.	.	.	.	12fJ	.	.
.	.	.	.	.	.	12B-L	.	V2
.	.	.	.	.	.	12c	.	.
.	.	8g	.	.	.	.	.	.
.	.	.	.	.	.	12eJ	.	.
.	.	4a	.	.	.	12AL	.	I6]
.	.	.	.	.	.	12c	.	.
.	.	.	.	.	.	12fJ	.	.
8GL	.	8b-L	.	.	.	12fL	.	.
.	.	.	.	.	.	12f	.	.
8AJ)	.	8ccJ)	.	.	.	.	.	.
.	.	.	.	.	.	12fJ	.	.
=309	=309	=309	=309	=309	=309	=309	=309	=309
(4B-	.	(4..dd	.	1r	.	12fL	.	IV
.	.	.	.	.	.	12b-	.	.
.	.	.	.	.	.	12ddJ	.	.
4A	[	.	.	.	.	12fL	.	.
.	.	.	.	.	.	12b-	[	.
.	.	.	.	.	.	12ddJ	>	.
.	.	16ee)	[	.	.	.	.	.
4G	>	2eet	>	.	.	12gL	.	V43
.	.	.	.	.	.	12b-	.	.
.	.	.	.	.	.	12ccJ	.	.
4c)	]]	.	.	.	.	12gL	.	V7
.	.	.	.	.	.	12b-	.	.
.	.	.	.	.	.	12ccJ	]]	.
.	.	16qqdd/LL	]	.	.	.	.	.
.	.	16qqee/JJ	]]	.	.	.	.	.
=310	=310	=310	=310	=310	=310	=310	=310	=310
(4F	.	(4ff	.	4r	.	12aL	.	I
.	.	.	.	.	.	12cc	.	.
.	.	.	.	.	.	12ffJ	.	.
4B-	.	4dd	.	(4ddd	.	12b-L	.	IV
.	.	.	.	.	.	12ff	.	.
.	.	.	.	.	.	12b-J	.	.
4c	.	4cc	.	4ccc	.	12ffL	.	V(64)
.	.	.	.	.	.	12a	.	.
.	.	.	.	.	.	12ffJ	.	.
4e)	.	4b-	.	4bb-	.	12ccL	.	V65
.	.	.	.	.	.	12g	.	.
.	.	.	.	.	.	12ccJ	.	.
=311	=311	=311	=311	=311	=311	=311	=311	=311
[1f	.	2.a	.	2.aa	.	12ccL	.	I[I6
.	.	.	.	.	.	12A	.	.
.	.	.	.	.	.	12cJ	.	.
.	.	.	.	.	.	12fL	.	.
.	.	.	.	.	.	12a	.	.
.	.	.	.	.	.	12ccJ	.	.
.	.	.	.	.	.	12ffL	.	.
.	.	.	.	.	.	12cc	.	.
.	.	.	.	.	.	12aJ	.	.
.	.	4g)	.	4gg)	.	12b-L	.	V43
.	.	.	.	.	.	12cc	.	.
.	.	.	.	.	.	12eeJ	.	.
=312	=312	=312	=312	=312	=312	=312	=312	=312
!LO:TX:b:i:t=cresc.	!	!LO:TX:b:i:t=cresc.	!	!LO:TX:b:i:t=cresc.	!	!LO:TX:b:i:t=cresc.	!	!
(2.f]	.	(4a	.	(4ff	.	(12ffL	.	I6]
.	.	.	.	.	.	12gg	.	.
.	.	.	.	.	.	12ffJ	.	.
.	.	8ccL	.	8eeL	.	12eeL	.	.
.	.	.	.	.	.	12ff	.	.
.	.	8b-J	.	8ddJ	.	.	.	.
.	.	.	.	.	.	12ggJ	.	.
.	.	4a	.	4cc	.	16aaLL	.	.
.	.	.	.	.	.	16bb-	.	.
.	.	.	.	.	.	16aa	.	.
.	.	.	.	.	.	16ggJJ	.	.
8gL	.	8gL	.	8b-L	.	12aaL	.	.
.	.	.	.	.	.	12bb-	.	.
8aJ)	.	8fJ)	.	8aJ)	.	.	.	.
.	.	.	.	.	.	12cccJ)	.	.
=313	=313	=313	=313	=313	=313	=313	=313	=313
(12b-L	.	(4B-	.	(4..ff	.	(4..ddd	.	ii7
12cc	.	.	.	.	.	.	.	.
12ddJ	.	.	.	.	.	.	.	.
12ccL	.	4G	.	.	.	.	.	.
12b-	.	.	.	.	.	.	.	.
12aJ	.	.	.	.	.	.	.	.
.	.	.	.	16gg)	.	16eee)	.	.
12gL	.	4C	.	2ggT	.	2eeet	.	V7
12a	.	.	.	.	.	.	.	.
12b-J	.	.	.	.	.	.	.	.
12ccL	.	4c)	.	.	.	.	.	.
12b-	.	.	.	.	.	.	.	.
12ccJ)	.	.	.	.	.	.	.	.
.	.	.	.	16qqff/LL	.	16qqddd/LL	.	.
.	.	.	.	16qqgg/JJ	.	16qqeee/JJ	.	.
=314	=314	=314	=314	=314	=314	=314	=314	=314
(4a	fp	4F	fp	4aa	fp	(4.fff	sfp	viio6
4b-	.	(4g	.	4r	.	.	.	.
.	.	.	.	.	.	16eeeLL	.	.
.	.	.	.	.	.	16dddJJ	.	.
4cc	.	4a	.	2r	.	8ccc)	.	I6
.	.	.	.	.	.	8r	.	.
4b-)	.	4g)	.	.	.	4cccT	.	V43
.	.	.	.	.	.	16qqbbn/LL	.	.
.	.	.	.	.	.	16qqccc/JJ	.	.
=315	=315	=315	=315	=315	=315	=315	=315	=315
(4a	fp	(4f	fp	2r	.	(4.fff	.	viio6
4b-	.	4g	.	.	.	.	.	.
.	.	.	.	.	.	16eeeLL	.	.
.	.	.	.	.	.	16dddJJ	.	.
4cc	.	4a	.	4r	.	8ccc)	.	I6
.	.	.	.	.	.	8r	.	.
4g)	.	4b-)	.	4ccT	.	4eeet	.	V43
.	.	.	.	16qqbn/LL	.	16qqddd/LL	.	.
.	.	.	.	16qqcc/JJ	.	16qqeee/JJ	.	.
=316	=316	=316	=316	=316	=316	=316	=316	=316
(4f	sf	(4a	sf	(4.ff	sf	(4.aaa	sf	viio64
4g	.	4b-	.	.	.	.	.	.
.	.	.	.	16eeLL	.	16gggLL	.	.
.	.	.	.	16ddJJ	.	16fffJJ	.	.
4a	.	4cc	.	8cc')	.	8eee')	.	iii6
.	.	.	.	8r	.	8r	.	.
4g)	.	4b-)	.	4ccT	.	4eeet	.	V2
.	.	.	.	16qqbn/LL	.	16qqddd/LL	.	.
.	.	.	.	16qqcc/JJ	.	16qqeee/JJ	.	.
=317	=317	=317	=317	=317	=317	=317	=317	=317
(4f	sf	(4a	sf	(4.ff	sf	(4.aaa	sf	viio(4)
4g	.	4b-	.	.	.	.	.	.
.	.	.	.	16eeLL	.	16gggLL	.	.
.	.	.	.	16ddJJ	.	16fffJJ	.	.
4a	.	4cc	.	8cc')	.	8eee')	.	iii6
.	.	.	.	8r	.	8r	.	.
4g)	.	4b-)	.	4ccT	.	4eeet	.	V2
.	.	.	.	16qqdd/LL	.	16qqddd/LL	.	.
.	.	.	.	16qqee/JJ	.	16qqeee/JJ	.	.
=318	=318	=318	=318	=318	=318	=318	=318	=318
!LO:TX:b:i:t=cresc.	!	!LO:TX:b:i:t=cresc.	!	!LO:TX:b:i:t=cresc.	!	!LO:TX:b:i:t=cresc.	!	!
(2f	.	(2a	.	[1ccc	.	4cccc	.	I6
.	.	.	.	.	.	8bbb-'L	.	.
.	.	.	.	.	.	8aaa'J	.	.
2g	.	2b-	.	.	.	(8aaaL	.	V2
.	.	.	.	.	.	8ggg)	.	.
.	.	.	.	.	.	8fff'	.	.
.	.	.	.	.	.	8eee'J	.	.
=319	=319	=319	=319	=319	=319	=319	=319	=319
2a	.	2cc	.	4ccc]	.	(8gggL	.	I64
.	.	.	.	.	.	8fff)	.	.
.	.	.	.	8ccc'L	.	8eee'	.	.
.	.	.	.	8bb-'J	.	8ddd'J	.	.
2b-)	.	2dd)	.	(8bb-L	.	(8dddL	.	IV6
.	.	.	.	8aa)	.	8ccc)	.	.
.	.	.	.	8gg'	.	8bb-'	.	.
.	.	.	.	8ff'J	.	8aa'J	.	.
=320	=320	=320	=320	=320	=320	=320	=320	=320
4b-	p	4g	p	4ee	p	4gg	p	V43
4r	.	4r	.	4r	.	(12ggL	.	.
.	.	.	.	.	.	12ff	.	.
.	.	.	.	.	.	12eeJ	.	.
2r	.	2r	.	2r	.	12ddL	.	.
.	.	.	.	.	.	12ee	.	.
.	.	.	.	.	.	12ccJ	.	.
!	!	!	!	!	!	!LO:TX:a:i:t=ten.	!	!
.	.	.	.	.	.	4ccc)	.	.
=321	=321	=321	=321	=321	=321	=321	=321	=321
4A	.	4a	.	4f	.	4r	.	I6
4r	.	4r	.	4r	.	(12cccL	.	.
.	.	.	.	.	.	12bb-	.	.
.	.	.	.	.	.	12aaJ	.	.
2r	.	2r	.	2r	.	12ggL	.	.
.	.	.	.	.	.	12aa	.	.
.	.	.	.	.	.	12ffJ	.	.
!	!	!	!	!	!	!LO:TX:a:i:t=ten.	!	!
.	.	.	.	.	.	4fff)	.	.
=322	=322	=322	=322	=322	=322	=322	=322	=322
4BB-	.	4E 4G	.	4c	.	4r	.	V2
4r	.	4r	.	4r	.	(12ggL	.	.
.	.	.	.	.	.	12ff	.	.
.	.	.	.	.	.	12eeJ	.	.
2r	.	2r	.	2r	.	12ddL	.	.
.	.	.	.	.	.	12ee	.	.
.	.	.	.	.	.	12ccJ	.	.
!	!	!	!	!	!	!LO:TX:a:i:t=ten.	!	!
.	.	.	.	.	.	4ccc)	.	.
=323	=323	=323	=323	=323	=323	=323	=323	=323
4AA	.	4F 4A	.	4c	.	4r	.	I6
4r	.	4r	.	4r	.	(12ccL	.	.
.	.	.	.	.	.	12b-	.	.
.	.	.	.	.	.	12aJ	.	.
2r	.	4r	.	2r	.	12gL	.	.
.	.	.	.	.	.	12a	.	.
.	.	.	.	.	.	12fJ	.	.
!	!	!	!	!	!	!LO:TX:a:i:t=ten.	!	!
.	.	(12fL	.	.	.	[4ff)	.	.
.	.	12e	.	.	.	.	.	.
.	.	12dJ	.	.	.	.	.	.
=324	=324	=324	=324	=324	=324	=324	=324	=324
[1DD [1BBn	.	12cL	.	4r	.	4ff]	.	V43/V
.	.	12d	.	.	.	.	.	.
.	.	12BnJ	.	.	.	.	.	.
.	.	2G)	.	(12fL	.	4r	.	.
.	.	.	.	12e	.	.	.	.
.	.	.	.	12dJ	.	.	.	.
.	.	.	.	12cL	.	12ffL	pp	.
.	.	.	.	12d	.	12bbn	.	.
.	.	.	.	12BnJ	.	12dddJ	.	.
!	!	!	!	!LO:TX:a:i:t=ten.	!	!	!	!
.	.	(12fL	.	4G)	.	4fff	.	.
.	.	12e	.	.	.	.	.	.
.	.	12dJ	.	.	.	.	.	.
=325	=325	=325	=325	=325	=325	=325	=325	=325
1DD_ 1BB_	.	12cL	.	4r	.	2r	.	.
.	.	12d	.	.	.	.	.	.
.	.	12BnJ	.	.	.	.	.	.
.	.	2G)	.	(12fL	.	.	.	.
.	.	.	.	12e	.	.	.	.
.	.	.	.	12dJ	.	.	.	.
.	.	.	.	12cL	.	12ffL	.	.
.	.	.	.	12d	.	12bbn	.	.
.	.	.	.	12BnJ	.	12dddJ	.	.
!	!	!	!	!LO:TX:a:i:t=ten.	!	!	!	!
.	.	(12fL	.	4G)	.	4fff	.	.
.	.	12e	.	.	.	.	.	.
.	.	12dJ	.	.	.	.	.	.
=326	=326	=326	=326	=326	=326	=326	=326	=326
!LO:TX:b:i:t=cresc.	!	!LO:TX:b:i:t=cresc.	!	!	!	!	!	!
1DD_ 1BB_	.	12cL	.	2r	.	1r	.	.
.	.	12d	.	.	.	.	.	.
.	.	12BnJ)	.	.	.	.	.	.
.	.	12G'L	.	.	.	.	.	.
.	.	12B'	.	.	.	.	.	.
.	.	12d'J	.	.	.	.	.	.
.	.	12f'L	.	4r	.	.	.	.
.	.	12g'	.	.	.	.	.	.
.	.	12b-'J	.	.	.	.	.	.
!	!	!	!	!LO:TX:b:i:t=cresc.	!	!	!	!
.	.	4r	.	12dd'L	.	.	.	.
.	.	.	.	12ff'	.	.	.	.
.	.	.	.	12gg'J	.	.	.	.
=327	=327	=327	=327	=327	=327	=327	=327	=327
1DD] 1BB]	.	1r	.	12bbnL	.	1r	.	V43/V
.	.	.	.	12ddd	.	.	.	.
.	.	.	.	12bbJ	.	.	.	.
.	.	.	.	12ggL	.	.	.	.
.	.	.	.	12ff	.	.	.	.
.	.	.	.	12ddJ	.	.	.	.
.	.	.	.	12bnL	.	.	.	.
.	.	.	.	12g	.	.	.	.
.	.	.	.	12fJ	.	.	.	.
.	.	.	.	12dL	.	.	.	.
.	.	.	.	12g	.	.	.	.
.	.	.	.	12fJ	.	.	.	.
=328	=328	=328	=328	=328	=328	=328	=328	=328
!	!	!	!	!	!	!LO:TX:b:i:t=cresc.	!	!
[1CC [1BB-X	.	1r	.	4e	.	(12gL	.	V7
.	.	.	.	.	.	12f	.	.
.	.	.	.	.	.	12eJ	.	.
.	.	.	.	4r	.	12dL	.	.
.	.	.	.	.	.	12e	.	.
.	.	.	.	.	.	12cJ)	.	.
.	.	.	.	2r	.	12e'L	.	.
.	.	.	.	.	.	12g'	.	.
.	.	.	.	.	.	12b-X'J	.	.
.	.	.	.	.	.	12cc'L	.	.
.	.	.	.	.	.	12ee'	.	.
.	.	.	.	.	.	12gg'J	.	.
=329	=329	=329	=329	=329	=329	=329	=329	=329
1CC] 1BB-]	.	1r	.	1r	.	12bb-'L	.	.
.	.	.	.	.	.	12gg'	.	.
.	.	.	.	.	.	12ee'J	.	.
.	.	.	.	.	.	12cc'L	.	.
.	.	.	.	.	.	12b-'	.	.
.	.	.	.	.	.	12g'J	.	.
.	.	.	.	.	.	12e'L	.	.
.	.	.	.	.	.	12c'	.	.
.	.	.	.	.	.	12B-'J	.	.
.	.	.	.	.	.	12G'L	.	.
.	.	.	.	.	.	12c'	.	.
.	.	.	.	.	.	12B-'J	.	.
=330	=330	=330	=330	=330	=330	=330	=330	=330
(12CL	f	(12cL	f	2r	.	4A	f	I\\
12BB-	.	12B-	.	.	.	.	.	.
12AAJ	.	12AJ	.	.	.	.	.	.
12GGL	.	12GL	.	.	.	4r	.	.
12AA	.	12A	.	.	.	.	.	.
12FFJ)	.	12FJ)	.	.	.	.	.	.
12AA'L	.	12A'L	.	4r	.	4r	.	.
12C'	.	12c'	.	.	.	.	.	.
12F'J	.	12f'J	.	.	.	.	.	.
12C'L	.	12c'L	.	(12ccL	f	(12cccL	.	.
12F'	.	12f'	.	12b-	.	12bb-	.	.
12A'J	.	12a'J	.	12aJ	.	12aaJ	.	.
=331	=331	=331	=331	=331	=331	=331	=331	=331
12FL	.	12fL	.	12gL	.	12ggL	.	I
12A	.	12a	.	12a	.	12aa	.	.
12cJ	.	12ccJ	.	12fJ)	.	12ffJ)	.	.
12AL	.	12aL	.	12a'L	.	12aa'L	.	.
12F	.	12f	.	12cc'	.	12ccc'	.	.
12CJ	.	12cJ	.	12ff'J	.	12fff'J	.	.
12AAL	.	12AL	.	12aa'L	.	12aaa'L	.	.
12F	.	12f	.	12aa'	.	12cccc'	.	.
12CJ	.	12cJ	.	12aa'J	.	12cccc'J	.	.
12AAL	.	12AL	.	12aaL	.	12ccccL	.	.
12C	.	12c	.	12aa	.	12cccc	.	.
12FFJ	.	12FJ	.	12aaJ	.	12ccccJ	.	.
=332	=332	=332	=332	=332	=332	=332	=332	=332
2r	.	2r	.	2aa	p	2cccc	p	V7/ii
2d	p	2f#X	p	2r	.	2r	.	.
=333	=333	=333	=333	=333	=333	=333	=333	=333
2r	.	1r	.	2c#X 2e	p	2g 2b-	p	#viio7/vi
2CC	.	.	.	2r	.	2r	.	V7
=334	=334	=334	=334	=334	=334	=334	=334	=334
2r	.	2r	.	2aa	.	2ccc	.	V7/ii
2d	.	2f#X	.	2r	.	2r	.	.
=335	=335	=335	=335	=335	=335	=335	=335	=335
2r	.	1r	.	2c#X 2e	.	2g 2b-	.	#viio7/vi
2CC	.	.	.	2r	.	2r	.	V7
=336	=336	=336	=336	=336	=336	=336	=336	=336
2r	.	2r	.	2aa`	f	2ccc`	f	V7/ii
2d`	f	2a`	f	2d` 2cc	.	2f#X`	.	.
=337	=337	=337	=337	=337	=337	=337	=337	=337
2G`	.	2G` 2g	.	2d` 2b-	.	2b-`	.	ii
2D-X`	.	2e` 2ee	.	2b-` 2gg	.	2b-` 2bb-	.	viio2
=338	=338	=338	=338	=338	=338	=338	=338	=338
[1CC [1C	p	(1e	p	[1b-	p	(2.cc	p	V7
!	!	!	!	!	!	!LO:TX:b:i:t=dolce	!	!
.	.	.	.	.	.	4dd	.	.
=339	=339	=339	=339	=339	=339	=339	=339	=339
1CC] 1C]	.	2.g	.	1b-]	.	4ee	.	.
.	.	.	.	.	.	4ff	.	.
.	.	.	.	.	.	4gg	.	.
.	.	4e)	.	.	.	4aa)	.	.
=340	=340	=340	=340	=340	=340	=340	=340	=340
[1FF [1C	.	(4f	.	(4a	.	(2.ff	.	I[I64
.	.	4g	.	4b-	.	.	.	.
.	.	4a	.	4cc	.	.	.	.
.	.	4b-)	.	4dd)	.	8ggL	.	.
.	.	.	.	.	.	8ffJ)	.	.
=341	=341	=341	=341	=341	=341	=341	=341	=341
1FF] 1C]	.	(2.g	.	2.b-	.	(8eeL	.	V7
.	.	.	.	.	.	8ff)	.	.
.	.	.	.	.	.	8ee'	.	.
.	.	.	.	.	.	8ff'J	.	.
.	.	.	.	.	.	(8ggL	.	.
.	.	.	.	.	.	8aa)	.	.
.	.	4e)	.	8b-'L	.	8gg'	.	.
.	.	.	.	8cc'J	.	8aa'J	.	.
=342	=342	=342	=342	=342	=342	=342	=342	=342
[1FF [1C	.	(8fL	.	(8aL	.	(2.ff	.	I64
.	.	8g)	.	8b-)	.	.	.	.
.	.	8f'	.	8a'	.	.	.	.
.	.	8g'J	.	8b-'J	.	.	.	.
.	.	(8aL	.	(8ccL	.	.	.	.
.	.	8b-)	.	8dd)	.	.	.	.
.	.	8a'	.	8cc'	.	8ggL	.	.
.	.	8b-'J	.	8dd'J	.	8ffJ)	.	.
=343	=343	=343	=343	=343	=343	=343	=343	=343
!LO:TX:b:i:t=cresc.	!	!LO:TX:b:i:t=cresc.	!	!LO:TX:b:i:t=cresc.	!	!LO:TX:b:i:t=cresc.	!	!
4FF] 4C]	.	(8gL	.	(8b-L	.	(8eeL	.	V7
.	.	8a)	.	8cc)	.	8ff)	.	.
2FF 2C	.	8g'	.	8b-'	.	8ee'	.	.
.	.	8a'J	.	8cc'J	.	8ff'J	.	.
.	.	(8b-L	.	(8ddL	.	(8ggL	.	.
.	.	8cc)	.	8ee)	.	8aa)	.	.
[4FF [4C	.	8b-'	.	8dd'	.	8gg'	.	.
.	.	8cc'J	.	8ee'J	.	8aa'J	.	.
=344	=344	=344	=344	=344	=344	=344	=344	=344
4FF] 4C]	.	(8aL	.	(8ccL	.	(8ffL	.	I64
.	.	8cc)	.	8ee)	.	8gg)	.	.
2FF 2C	.	8a'	.	8cc'	.	8ff'	.	.
.	.	8cc'J	.	8ee'J	.	8gg'J	.	.
.	.	(8ccL	.	(8ffL	.	(8aaL	.	V7
.	.	8cc)	.	8gg)	.	8bb-)	.	.
[4FF [4C	.	8cc'	.	8ff'	.	8aa'	.	.
.	.	8cc'J	.	8gg'J	.	8bb-'J	.	.
=345	=345	=345	=345	=345	=345	=345	=345	=345
4FF] 4C]	.	(8ccL	.	(8eeL	.	(8ggL	.	I64
.	.	8cc)	.	8ff)	.	8aa)	.	.
2FF 2C	.	8cc'	.	8ee'	.	8gg'	.	.
.	.	8cc'J	.	8ff'J	.	8aa'J	.	.
.	.	(8ddL	.	(8ffL	.	(8bb-L	.	V7
.	.	8ee)	.	8gg)	.	8ccc)	.	.
[4FF [4C	.	8dd'	.	8ff'	.	8bb-'	.	.
.	.	8ee'J	.	8gg'J	.	8ccc'J	.	.
=346	=346	=346	=346	=346	=346	=346	=346	=346
8FFL] 8C]	.	(8ffL	.	(8ffL	.	(8aaL	.	I64]
!LO:TX:b:Bi:t=più 	!	!LO:TX:b:Bi:t=più 	!	!LO:TX:b:Bi:t=più 	!	!LO:TX:b:Bi:t=più 	!	!
8f'	.	8a)	.	8gg)	.	8bb-)	.	.
8f'	.	8a'	.	8ff'	.	8aa'	.	I
8e'J	.	8g'J	.	8gg'J	.	8bb-'J	.	.
8f'L	.	8a'L	.	8aa'L	.	8ccc'L	.	.
8e'	.	8g'	.	8bb-'	.	8ddd'	.	.
8f'	.	8a'	.	8aa'	.	8ccc'	.	.
8e'J	.	8g'J	.	8bb-'J	.	8ddd'J	.	.
=347	=347	=347	=347	=347	=347	=347	=347	=347
8fL	.	8a'L	.	8aa'L	.	8ccc'L	.	.
8f	.	8a'	.	8bb-'	.	8ddd'	.	.
8c	.	8f'	.	8aa'	.	8ccc'	.	.
8AJ	.	8c'J	.	8bb-'J	.	8ddd'J	.	.
8FL	.	8A'L	.	8aa'L	.	8ccc'L	.	.
8F	.	8a'	.	8bb-'	.	8ddd'	.	.
8C	.	8f'	.	8aa'	.	8ccc'	.	.
8AAJ	.	8c'J	.	8bb-'J	.	8ddd'J	.	.
=348	=348	=348	=348	=348	=348	=348	=348	=348
4FF	ff	(4A	ff	(4aa	ff	(4ccc	ff	I[I6
4FF 4C	sf	4G	sf	4bb-	sf	4ddd	sf	V7(+2)
4FF 4C	.	4B-	.	4gg	.	4eee	.	.
4FF 4C	sf	4A)	sf	4aa)	sf	4fff)	sf	I64
=349	=349	=349	=349	=349	=349	=349	=349	=349
2.FF 2.C	.	2.A	.	2.aa	.	2.ccc	.	.
8FFL 8C	.	8E'L	.	8bb-'L	.	8ddd'L	.	.
8FFJ 8C	.	8F'J	.	8aa'J	.	8ccc'J	.	.
=350	=350	=350	=350	=350	=350	=350	=350	=350
2FF 2C	.	(8DL	.	(8ffL	.	(8bb-L	.	V7
.	.	8E)	.	8gg)	.	8ccc)	.	.
.	.	8F'	.	8cc'	.	8aa'	.	.
.	.	8E'J	.	8b-'J	.	8gg'J	.	.
4FF 4C	.	(4F	.	(4a	.	(4ff	.	I64]
4GG 4C	.	4B-)	.	4ee)	.	4ddd)	.	V43(+2)
=351	=351	=351	=351	=351	=351	=351	=351	=351
1AA 1C	.	1F	.	1ff	.	1ccc	.	I6
=352	=352	=352	=352	=352	=352	=352	=352	=352
4BBn	.	(4D	.	4f 4dd	.	(4ddd	.	V65/V
4BB	sf	4G)	sf	4f 4dd	sf	4eee	sf	.
4BB	.	4G	.	4f 4dd	.	4fff	.	.
4BB	sf	4G	sf	4f 4dd	sf	4ggg)	sf	.
=353	=353	=353	=353	=353	=353	=353	=353	=353
2.BBn	.	2.G	.	2.f 2.dd	.	2.fff	.	V65/V
4r	.	8FL 8G	.	8ee'L	.	8eee'L	.	.
.	.	8FJ 8G	.	8dd'J	.	8ddd'J	.	.
=354	=354	=354	=354	=354	=354	=354	=354	=354
8CL	.	(8EL 8G	.	(8ccL	.	(8cccL	.	V
8C	.	8G)	.	8bn)	.	8ddd)	.	.
8C	.	8c'	.	8cc'	.	8eee'	.	.
8CJ	.	8Bn'J	.	8dd'J	.	8fff'J	.	.
4C	.	(4B-X	.	(4ee	.	(4ggg	.	V7
4C	.	4A)	.	4ff)	.	4aaa)	.	V(64)
=355	=355	=355	=355	=355	=355	=355	=355	=355
2.C	sf	2.B-	sf	2.ee	sf	2.ggg	sf	V7
8e'L	.	8g'L	.	8ee'L	.	8ggg'L	.	.
8f'J	.	8a'J	.	8dd'J	.	8fff'J	.	.
=356	=356	=356	=356	=356	=356	=356	=356	=356
(8gL	.	(8b-L	.	(8ccL	.	(8eeeL	.	V7
8f)	.	8a)	.	8dd)	.	8fff)	.	.
8e'	.	8g'	.	8ee'	.	8ggg'	.	.
8d'J	.	8f'J	.	8ff'J	.	8aaa'J	.	.
4c	.	(4e	.	(4gg	.	(4bbb-	.	.
4c	.	4d)	.	4aa)	.	4cccc)	.	V(64)
=357	=357	=357	=357	=357	=357	=357	=357	=357
[1c	sf > ]]	[1e	sf > ]]	2.gg	sf >	2.bbb-	sf >	V7
.	.	.	.	8ff'L	.	8aaa'L	.	.
.	.	.	.	8ee'J	]]	8ggg'J	]]	.
=358	=358	=358	=358	=358	=358	=358	=358	=358
1c_	.	1e_	.	(8ddL	.	(8fffL	.	.
.	.	.	.	8cc)	.	8eee)	.	.
.	.	.	.	8b-'	.	8ddd'	.	.
.	.	.	.	8a'J	.	8ccc'J	.	.
.	.	.	.	4g'	.	4bb-'	.	.
!	!	!	!	!LO:TX:a:i:t=poco ritard.	!	!LO:TX:a:i:t=poco ritard.	!	!
.	.	.	.	8f'L	.	8aa'L	.	.
.	.	.	.	8e'J	.	8gg'J	.	.
=359	=359	=359	=359	=359	=359	=359	=359	=359
!LO:TX:a:i:t=poco ritard.	!	!LO:TX:a:i:t=poco ritard.	!	!	!	!	!	!
2.c]	.	2.e]	.	(8dL	.	(8ffL	.	.
.	.	.	.	8c)	.	8ee)	.	.
.	.	.	.	8B-'	.	8dd'	.	.
.	.	.	.	8A'J	.	8cc'J	.	.
.	.	.	.	4G'	.	4b-'	.	.
8f'L	.	8a'L	.	4r	.	4r	.	.
8e'J	.	8g'J	.	.	.	.	.	.
=360	=360	=360	=360	=360	=360	=360	=360	=360
(8dL	.	(8fL	.	2r	.	2r	.	.
8c)	.	8e)	.	.	.	.	.	.
8B-'	.	8d'	.	.	.	.	.	.
8A'J	.	8c'J	.	.	.	.	.	.
4G'	.	4B-'	.	4r	.	4r	.	.
!LO:TX:a:i:t=a tempo	!	!LO:TX:a:i:t=a tempo	!	!LO:TX:a:i:t=a tempo	!	!LO:TX:a:i:t=a tempo	!	!
8F'L	p	8A'L	p	8c'L	p	8cc'L	p	.
8E'J	.	8G'J	.	8d'J	.	8dd'J	.	.
=361	=361	=361	=361	=361	=361	=361	=361	=361
(8DL	.	(8FL	.	(8eL	.	(8eeL	.	.
8C)	.	8E)	.	8f)	.	8ff)	.	.
8BB-'	.	8D'	.	8g'	.	8gg'	.	.
8AA'J	.	8C'J	.	8a'J	.	8aa'J	.	.
(4GG	.	4C	.	(4b-	.	(4bb-	.	.
4GG#X)	.	4C	.	4bn)	.	4bbn)	.	#iio(4)
=362	=362	=362	=362	=362	=362	=362	=362	=362
!LO:TX:b:i:t=cresc.	!	!LO:TX:b:i:t=cresc.	!	!LO:TX:b:i:t=cresc.	!	!LO:TX:b:i:t=cresc.	!	!
1AA	.	1F	.	1cc	.	1ccc	.	I6
=363	=363	=363	=363	=363	=363	=363	=363	=363
!	!LO:DY:a	!	!	!	!	!	!	!
!	!LO:DY:a	!	!	!	!	!	!	!
1BB-	sf p p sf	1F	.	1dd	sf p	1ddd	sf p	IV
=364	=364	=364	=364	=364	=364	=364	=364	=364
[1C	.	(2c	.	(2.f	.	(2.a	.	V(64)
.	.	4A	.	.	.	.	.	.
.	.	4F)	.	16gLL	.	16b-LL	.	.
.	.	.	.	16f	.	16a	.	.
.	.	.	.	16e	.	16g	.	.
.	.	.	.	16fJJ)	.	16aJJ)	.	.
=365	=365	=365	=365	=365	=365	=365	=365	=365
(2.C]	.	(4.E	.	(4.g	.	(4.b-	.	V7
.	.	8G	.	8e)	.	8g)	.	.
.	.	8B-L	.	(8eL	.	4cc	.	.
.	.	8G	.	8c	.	.	.	.
4BB-)	.	8E	.	8g	.	4cc	.	V2
.	.	8CJ)	.	8eJ)	.	.	.	.
=366	=366	=366	=366	=366	=366	=366	=366	=366
!LO:TX:b:i:t=cresc.	!	!LO:TX:b:i:t=cresc.	!	!LO:TX:b:i:t=cresc.	!	!LO:TX:b:i:t=cresc.	!	!
1AA	.	1F	.	1a	.	1cc	.	I6
=367	=367	=367	=367	=367	=367	=367	=367	=367
1BBn	f	1A-X	f	1f 1dd	f	(2.dd	f	#viio7/V
.	.	.	.	.	.	8eeL	.	.
.	.	.	.	.	.	8ffJ)	.	.
=368	=368	=368	=368	=368	=368	=368	=368	=368
4C	p	4An	p	4f 4cc	p	[2ff	p	V(64)
4r	.	4r	.	4r	.	.	.	.
2r	.	2r	.	2r	.	12ffL]	.	.
.	.	.	.	.	.	12ff	.	.
.	.	.	.	.	.	12ddJ	.	.
.	.	.	.	.	.	12aaL	.	vi
.	.	.	.	.	.	12ff	.	.
.	.	.	.	.	.	12ddJ	.	.
=369	=369	=369	=369	=369	=369	=369	=369	=369
2r	.	2r	.	12r	.	4cc	.	V
.	.	.	.	12fL	.	.	.	.
.	.	.	.	12dJ	.	.	.	.
.	.	.	.	12aL	.	4r	.	vi
.	.	.	.	12f	.	.	.	.
.	.	.	.	12dJ	.	.	.	.
12r	.	12r	.	4c	.	2r	.	vi
12FFL	.	12FL	.	.	.	.	.	.
12DDJ	.	12DJ	.	.	.	.	.	.
12AAL	.	12AL	.	4r	.	.	.	.
12FF	.	12F	.	.	.	.	.	.
12DDJ	.	12DJ	.	.	.	.	.	.
=370	=370	=370	=370	=370	=370	=370	=370	=370
4CC	.	4C	.	4r	.	2r	.	V7
!	!	!	!LO:DY:a	!	!	!	!	!
2G	fp	2B-	fp fp	2e	.	.	.	.
.	.	.	.	.	.	12r	.	.
.	.	.	.	.	.	12ggL	p	.
.	.	.	.	.	.	12eeJ	.	.
4r	.	4r	.	4r	.	12bb-L	.	.
.	.	.	.	.	.	12gg	.	.
.	.	.	.	.	.	12eeJ	.	.
=371	=371	=371	=371	=371	=371	=371	=371	=371
2r	.	2r	.	12r	.	4b-	.	.
.	.	.	.	12gL	.	.	.	.
.	.	.	.	12eJ	.	.	.	.
.	.	.	.	12b-L	.	4r	.	.
.	.	.	.	12g	.	.	.	.
.	.	.	.	12eJ	.	.	.	.
12r	.	12r	.	4B-	.	2r	.	.
12GGL	.	12GL	.	.	.	.	.	.
12EEJ	.	12EJ	.	.	.	.	.	.
12BB-L	.	12B-L	.	4r	.	.	.	.
12GG	.	12G	.	.	.	.	.	.
12EEJ	.	12EJ	.	.	.	.	.	.
=372	=372	=372	=372	=372	=372	=372	=372	=372
4CC	.	4C	.	4r	.	2r	.	I6
2A	fp	2c	fp	2f	fp	.	.	.
.	.	.	.	.	.	12r	.	.
.	.	.	.	.	.	12aaL	p	.
.	.	.	.	.	.	12ffJ	.	.
4r	.	4r	.	4r	.	12cccL	.	.
.	.	.	.	.	.	12aa	.	.
.	.	.	.	.	.	12ffJ	.	.
=373	=373	=373	=373	=373	=373	=373	=373	=373
1r	.	[1C	p	1r	.	12ccL	.	I64
.	.	.	.	.	.	12ff	.	.
.	.	.	.	.	.	12ccJ	.	.
.	.	.	.	.	.	12aaL	.	.
.	.	.	.	.	.	12ff	.	.
.	.	.	.	.	.	12ccJ	.	.
.	.	.	.	.	.	12aL	.	.
.	.	.	.	.	.	12cc	.	.
.	.	.	.	.	.	12aJ	.	.
.	.	.	.	.	.	12ffL	.	.
.	.	.	.	.	.	12cc	.	.
.	.	.	.	.	.	12aJ	.	.
=374	=374	=374	=374	=374	=374	=374	=374	=374
[1FF	p	(4C]	.	1r	.	12fL	.	I
.	.	.	.	.	.	12a	.	.
.	.	.	.	.	.	12fJ	.	.
.	.	4D	.	.	.	12ccL	.	.
.	.	.	.	.	.	12a	.	.
.	.	.	.	.	.	12fJ	.	.
.	.	4E	.	.	.	12cL	.	.
.	.	.	.	.	.	12f	.	.
.	.	.	.	.	.	12cJ	.	.
.	.	4F)	.	.	.	12aL	.	.
.	.	.	.	.	.	12f	.	.
.	.	.	.	.	.	12cJ	.	.
=375	=375	=375	=375	=375	=375	=375	=375	=375
(4FF]	.	[1C	.	12aL	p	4A	.	.
.	.	.	.	12cc	.	.	.	.
.	.	.	.	12aJ	.	.	.	.
4GG	.	.	.	12ffL	.	4r	.	.
.	.	.	.	12cc	.	.	.	.
.	.	.	.	12aJ	.	.	.	.
4AA	.	.	.	12fL	.	2r	.	.
.	.	.	.	12a	.	.	.	.
.	.	.	.	12fJ	.	.	.	.
4BB-)	.	.	.	12ccL	.	.	.	.
.	.	.	.	12a	.	.	.	.
.	.	.	.	12fJ	.	.	.	.
=376	=376	=376	=376	=376	=376	=376	=376	=376
[1GG	.	(4C]	.	4e	.	12b-L	.	V43
.	.	.	.	.	.	12ee	.	.
.	.	.	.	.	.	12b-J	.	.
.	.	4E	.	4r	.	12ggL	.	.
.	.	.	.	.	.	12ee	.	.
.	.	.	.	.	.	12b-J	.	.
.	.	4F	.	2r	.	12gL	.	.
.	.	.	.	.	.	12b-	.	.
.	.	.	.	.	.	12gJ	.	.
.	.	4G)	.	.	.	12eeL	.	.
.	.	.	.	.	.	12b-	.	.
.	.	.	.	.	.	12gJ	.	.
=377	=377	=377	=377	=377	=377	=377	=377	=377
(4GG]	.	[1C	.	12eL	.	4e	.	.
.	.	.	.	12g	.	.	.	.
.	.	.	.	12eJ	.	.	.	.
4AA	.	.	.	12b-L	.	4r	.	.
.	.	.	.	12g	.	.	.	.
.	.	.	.	12eJ	.	.	.	.
4BB-	.	.	.	12B-L	.	2r	.	.
.	.	.	.	12e	.	.	.	.
.	.	.	.	12B-J	.	.	.	.
4C)	.	.	.	12gL	.	.	.	.
.	.	.	.	12e	.	.	.	.
.	.	.	.	12B-J	.	.	.	.
=378	=378	=378	=378	=378	=378	=378	=378	=378
!LO:TX:b:i:t=cresc.	!	!	!	!LO:TX:a:i:t=cresc.	!	!	!	!
12FL	.	4C]	.	4A	.	(4cc	.	I
12A	.	.	.	.	.	.	.	.
12FJ	.	.	.	.	.	.	.	.
12cL	.	4r	.	4r	.	4dd	.	.
12A	.	.	.	.	.	.	.	.
12FJ	.	.	.	.	.	.	.	.
12CL	.	2r	.	2r	.	4ee	.	.
12F	.	.	.	.	.	.	.	.
12CJ	.	.	.	.	.	.	.	.
12AL	.	.	.	.	.	4ff)	.	.
12F	.	.	.	.	.	.	.	.
12CJ	.	.	.	.	.	.	.	.
=379	=379	=379	=379	=379	=379	=379	=379	=379
!	!	!LO:TX:b:i:t=cresc.	!	!	!	!	!	!
!	!	!LO:TX:a:i:t=cresc.	!	!	!	!	!	!
4FF	.	12fL	.	(4c	.	[1cc	.	.
.	.	12a	.	.	.	.	.	.
.	.	12fJ	.	.	.	.	.	.
4r	.	12ccL	.	4d	.	.	.	.
.	.	12a	.	.	.	.	.	.
.	.	12fJ	.	.	.	.	.	.
2r	.	12cL	.	4e	.	.	.	.
.	.	12f	.	.	.	.	.	.
.	.	12cJ	.	.	.	.	.	.
.	.	12aL	.	4f)	.	.	.	.
.	.	12f	.	.	.	.	.	.
.	.	12cJ	.	.	.	.	.	.
=380	=380	=380	=380	=380	=380	=380	=380	=380
12GGL	.	4B-	.	[1c	.	(4cc]	.	V43
12G	.	.	.	.	.	.	.	.
12EJ	.	.	.	.	.	.	.	.
12B-L	.	4r	.	.	.	4ee	.	.
12G	.	.	.	.	.	.	.	.
12EJ	.	.	.	.	.	.	.	.
12BB-L	.	2r	.	.	.	4ff	.	.
12E	.	.	.	.	.	.	.	.
12BB-J	.	.	.	.	.	.	.	.
12GL	.	.	.	.	.	4gg)	.	.
12E	.	.	.	.	.	.	.	.
12BB-J	.	.	.	.	.	.	.	.
=381	=381	=381	=381	=381	=381	=381	=381	=381
4GG	.	12B-L	.	(4c]	.	[1cc	.	.
.	.	12e	.	.	.	.	.	.
.	.	12B-J	.	.	.	.	.	.
4r	.	12gL	.	4e	.	.	.	.
.	.	12e	.	.	.	.	.	.
.	.	12B-J	.	.	.	.	.	.
2r	.	12GL	.	4f	.	.	.	.
.	.	12B-	.	.	.	.	.	.
.	.	12GJ	.	.	.	.	.	.
.	.	12eL	.	4g)	.	.	.	.
.	.	12B-	.	.	.	.	.	.
.	.	12GJ	.	.	.	.	.	.
=382	=382	=382	=382	=382	=382	=382	=382	=382
!	!LO:DY:a	!	!	!	!	!	!	!
12AAL	f f	12AL	.	(4c	f	(4cc]	f	I6
12c	.	12cc	.	.	.	.	.	.
12AJ	.	12aJ	.	.	.	.	.	.
12FL	.	12fL	.	4f	.	4ff	.	.
12A	.	12a	.	.	.	.	.	.
12FJ	.	12fJ	.	.	.	.	.	.
12CL	.	12cL	.	4g	.	4gg	.	.
12F	.	12f	.	.	.	.	.	.
12CJ	.	12cJ	.	.	.	.	.	.
!	!	!	!	!LO:TX:b:Bi:t=più  	!	!LO:TX:b:Bi:t=più  	!	!
12AAL	.	12AL	.	4a)	.	4aa)	.	.
12C	.	12c	.	.	.	.	.	.
12AAJ	.	12AJ	.	.	.	.	.	.
=383	=383	=383	=383	=383	=383	=383	=383	=383
!	!LO:DY:a	!	!	!	!	!	!	!
12GGL	f	12GL	.	(4c	.	(4cc	.	V43
12B-	.	12b-	.	.	.	.	.	.
12GJ	.	12gJ	.	.	.	.	.	.
12EL	.	12eL	.	4g	.	4gg	.	.
12G	.	12g	.	.	.	.	.	.
12EJ	.	12eJ	.	.	.	.	.	.
12BB-L	.	12B-L	.	4a	.	4aa	.	.
12E	.	12e	.	.	.	.	.	.
12BB-J	.	12B-J	.	.	.	.	.	.
12GGL	.	12GL	.	4b-	.	4bb-	.	.
12GG	.	12B-	.	.	.	.	.	.
12GGJ	.	12B-J	.	.	.	.	.	.
=384	=384	=384	=384	=384	=384	=384	=384	=384
!	!LO:DY:a	!	!	!	!	!	!	!
12GGL	ff ff	12CL 12c	.	4cc	ff	4ccc	ff	.
12GG	.	12C 12c	.	.	.	.	.	.
12GGJ	.	12CJ 12c	.	.	.	.	.	.
12GGL	.	12CL 12c	.	4dd	.	4ddd	.	.
12GG	.	12C 12c	.	.	.	.	.	.
12GGJ	.	12CJ 12c	.	.	.	.	.	.
12GGL	.	12CL 12c	.	4ee	.	4eee	.	.
12GG	.	12C 12c	.	.	.	.	.	.
12GGJ	.	12CJ 12c	.	.	.	.	.	.
12GGL	.	12CL 12c	.	4ff	.	4fff	.	.
12GG	.	12C 12c	.	.	.	.	.	.
12GGJ	.	12CJ 12c	.	.	.	.	.	.
=385	=385	=385	=385	=385	=385	=385	=385	=385
!LO:TX:b:i:t=dim.	!	!LO:TX:b:i:t=dim.	!	!LO:TX:b:i:t=dim.	!	!LO:TX:b:i:t=dim.	!	!
[1GG	.	[1C [1c	.	4gg	.	4ggg	.	.
.	.	.	.	4aa	.	4aaa	.	.
.	.	.	.	4bb-	.	4bbb-	.	.
.	.	.	.	4bbn)	.	4bbbn)	.	.
=386	=386	=386	=386	=386	=386	=386	=386	=386
1GG]	.	1C] 1c]	.	2.ccc	.	[1cccc	.	V64
.	.	.	.	[4cc	.	.	.	.
=387	=387	=387	=387	=387	=387	=387	=387	=387
!LO:TX:a:t=(sul corda C)	!LO:DY:a	!	!	!	!	!	!	!
1FF	p p	1C 1A	.	(4cc]	p	1cccc_	p	I
.	.	.	.	4dd	.	.	.	.
.	.	.	.	4ee	.	.	.	.
.	.	.	.	4ff)	.	.	.	.
=388	=388	=388	=388	=388	=388	=388	=388	=388
(12GGL	sf	1C 1B-	sfp	1cc	sfp	1cccc_	sfp	V43
12AA	.	.	.	.	.	.	.	.
12GGJ	.	.	.	.	.	.	.	.
12FFL	.	.	.	.	.	.	.	.
12EE	.	.	.	.	.	.	.	.
12DDJ	.	.	.	.	.	.	.	.
12CCL	.	.	.	.	.	.	.	.
12DD	.	.	.	.	.	.	.	.
12EEJ	.	.	.	.	.	.	.	.
12FFL	.	.	.	.	.	.	.	.
12GG	.	.	.	.	.	.	.	.
12EEJ)	.	.	.	.	.	.	.	.
=389	=389	=389	=389	=389	=389	=389	=389	=389
1FF	p	1C 1A	.	(8cL	.	1cccc_	.	I
.	.	.	.	8d)	.	.	.	.
.	.	.	.	8c'	.	.	.	.
.	.	.	.	8d'J	.	.	.	.
.	.	.	.	(8eL	.	.	.	.
.	.	.	.	8f)	.	.	.	.
.	.	.	.	8e'	.	.	.	.
.	.	.	.	8f'J	.	.	.	.
=390	=390	=390	=390	=390	=390	=390	=390	=390
(12GGL	sf	1C 1B-	sfp	[1c	sfp	1cccc_	sfp	V43
12AA	.	.	.	.	.	.	.	.
12GGJ	.	.	.	.	.	.	.	.
12FFL	.	.	.	.	.	.	.	.
12EE	.	.	.	.	.	.	.	.
12DDJ	.	.	.	.	.	.	.	.
12CCL	.	.	.	.	.	.	.	.
12DD	.	.	.	.	.	.	.	.
12EEJ	.	.	.	.	.	.	.	.
12FFL	.	.	.	.	.	.	.	.
12GG	.	.	.	.	.	.	.	.
12EEJ)	.	.	.	.	.	.	.	.
=391	=391	=391	=391	=391	=391	=391	=391	=391
!LO:TX:b:i:t=dim.	!	!LO:TX:b:i:t=dim.	!	!LO:TX:b:i:t=dim.	!	!LO:TX:b:i:t=dim.	!	!
[1FF	.	[1C [1A	.	(4c]	.	4cccc]	.	I
.	.	.	.	4d	.	8bbb-X'L	.	.
.	.	.	.	.	.	8aaa'J	.	.
.	.	.	.	4e	.	(8gggL	.	.
.	.	.	.	.	.	8fff)	.	.
.	.	.	.	4f)	.	8eee'	.	.
.	.	.	.	.	.	8ddd'J	.	.
=392	=392	=392	=392	=392	=392	=392	=392	=392
!	!	!	!	!	!	!LO:TX:a:i:t=ten.	!	!
1FF_	.	1C_ 1A_	.	(4A	.	4ccc	.	.
.	.	.	.	4B-	.	8bb-'L	.	.
.	.	.	.	.	.	8aa'J	.	.
.	.	.	.	4c	.	(8ggL	.	.
.	.	.	.	.	.	8ff)	.	.
.	.	.	.	8dL	.	8ee'	.	.
.	.	.	.	8eJ)	.	8dd'J	.	.
=393	=393	=393	=393	=393	=393	=393	=393	=393
!	!	!	!	!	!	!LO:TX:a:i:t=ten.	!	!
1FF]	.	1C] 1A]	.	1A 1f	.	4cc	.	.
.	.	.	.	.	.	8b-'L	.	.
.	.	.	.	.	.	8a'J	.	.
.	.	.	.	.	.	(8gL	.	.
.	.	.	.	.	.	8f)	.	.
.	.	.	.	.	.	8e'	.	.
.	.	.	.	.	.	8d'J	.	.
=394	=394	=394	=394	=394	=394	=394	=394	=394
2FF`	.	2C` 2A	.	2A` 2f	.	2c`	.	.
2FF`	.	2C` 2A	.	2A` 2f	.	2c`	.	.
=395	=395	=395	=395	=395	=395	=395	=395	=395
1FF	.	1C 1A	.	1A 1f	.	1c	.	.
=396	=396	=396	=396	=396	=396	=396	=396	=396
2d`	pp	2f`	pp	2a`	pp	2r	.	vi
2d`	.	2f`	.	2a`	.	2aa`	pp	.
=397	=397	=397	=397	=397	=397	=397	=397	=397
1d	.	1f	.	1a	.	1aa	.	.
=398	=398	=398	=398	=398	=398	=398	=398	=398
!LO:TX:b:i:t=cresc.	!	!LO:TX:a:i:t=cresc.	!	!LO:TX:a:i:t=cresc.	!	!LO:TX:a:i:t=cresc.	!	!
1c	.	1g	.	1cc 1ee	.	1ccc	.	V
=399	=399	=399	=399	=399	=399	=399	=399	=399
4F'	f	4a'	f	4cc' 4ff	f	4fff'	f	I
4r	.	4r	.	4r	.	4r	.	.
4C'	ff	4C' 4c	ff	4c' 4e	ff	4g' 4b- 4ee	ff	V7
4r	.	4r	.	4r	.	4r	.	.
=400	=400	=400	=400	=400	=400	=400	=400	=400
4AA'	.	4F'	.	4A' 4f	.	4f' 4a 4ff	.	I6\\
4r	.	4r	.	4r	.	4r	.	.
2r	.	2r	.	2r	.	2r	.	.
==	==	==	==	==	==	==	==	==
*-	*-	*-	*-	*-	*-	*-	*-	*-
!!!system-decoration: [(s1,s2,s3,s4)]
!!!YEM: <font size="10"/>Prepared from Public Domain sources for Project Gutenberg
!!!RDF**kern: i = editorial accidental
